<?xml version="1.0" encoding="UTF-8"?>
<map version="1.10" tiledversion="1.11.2" orientation="orthogonal" renderorder="right-down" compressionlevel="0" width="40" height="40" tilewidth="16" tileheight="16" infinite="0" nextlayerid="22" nextobjectid="54">
 <properties>
  <property name="AllowGrassSurviveInWinter" value="T"/>
  <property name="BrookSounds" value="2 37 0 27 37 0"/>
  <property name="Light" value="10 8 4 4 9 4 6 10 4 20 8 4 12 13 4 22 17 4 25 23 4 12 25 4 8 28 4 13 33 4"/>
  <property name="LocationContext" value="VoidWitchCult.CP.TheFishmongerNPC_LostIslandPassOut"/>
  <property name="Outdoors" value="T"/>
  <property name="SeasonOverride" value="summer"/>
 </properties>
 <tileset firstgid="1" name="paths" tilewidth="16" tileheight="16" tilecount="64" columns="4">
  <image source=".paths.png" width="64" height="256"/>
 </tileset>
 <tileset firstgid="65" name=".VWCF_LostIsland_Underwater_tainted" tilewidth="16" tileheight="16" tilecount="832" columns="32">
  <image source=".VWCF_LostIsland_Underwater_tainted.png" width="512" height="416"/>
  <tile id="0">
   <properties>
    <property name="Type" value="Stone"/>
   </properties>
  </tile>
  <tile id="1">
   <properties>
    <property name="Type" value="Stone"/>
   </properties>
  </tile>
  <tile id="2">
   <properties>
    <property name="Type" value="Stone"/>
   </properties>
  </tile>
  <tile id="3">
   <properties>
    <property name="Type" value="Stone"/>
   </properties>
  </tile>
  <tile id="4">
   <properties>
    <property name="Type" value="Stone"/>
   </properties>
  </tile>
  <tile id="5">
   <properties>
    <property name="Type" value="Dirt"/>
   </properties>
  </tile>
  <tile id="7">
   <properties>
    <property name="Type" value="Stone"/>
   </properties>
  </tile>
  <tile id="8">
   <properties>
    <property name="Type" value="Stone"/>
   </properties>
  </tile>
  <tile id="10">
   <properties>
    <property name="Spawnable" value="T"/>
    <property name="Type" value="Dirt"/>
   </properties>
  </tile>
  <tile id="19">
   <animation>
    <frame tileid="19" duration="500"/>
    <frame tileid="20" duration="500"/>
    <frame tileid="21" duration="500"/>
    <frame tileid="22" duration="500"/>
    <frame tileid="23" duration="500"/>
    <frame tileid="24" duration="500"/>
    <frame tileid="25" duration="500"/>
    <frame tileid="24" duration="500"/>
    <frame tileid="23" duration="500"/>
    <frame tileid="22" duration="500"/>
    <frame tileid="21" duration="500"/>
    <frame tileid="20" duration="500"/>
   </animation>
  </tile>
  <tile id="32">
   <properties>
    <property name="Type" value="Stone"/>
   </properties>
  </tile>
  <tile id="33">
   <properties>
    <property name="Spawnable" value="T"/>
    <property name="Type" value="Stone"/>
   </properties>
  </tile>
  <tile id="34">
   <properties>
    <property name="Type" value="Stone"/>
   </properties>
  </tile>
  <tile id="35">
   <properties>
    <property name="Type" value="Stone"/>
   </properties>
  </tile>
  <tile id="36">
   <properties>
    <property name="Type" value="Stone"/>
   </properties>
  </tile>
  <tile id="37">
   <properties>
    <property name="Type" value="Dirt"/>
    <property name="Water" value="I"/>
   </properties>
  </tile>
  <tile id="64">
   <properties>
    <property name="Type" value="Stone"/>
   </properties>
  </tile>
  <tile id="65">
   <properties>
    <property name="Type" value="Stone"/>
   </properties>
  </tile>
  <tile id="66">
   <properties>
    <property name="Type" value="Stone"/>
   </properties>
  </tile>
  <tile id="67">
   <properties>
    <property name="Type" value="Stone"/>
   </properties>
  </tile>
  <tile id="68">
   <properties>
    <property name="Type" value="Stone"/>
   </properties>
  </tile>
  <tile id="96">
   <properties>
    <property name="Type" value="Stone"/>
   </properties>
  </tile>
  <tile id="97">
   <properties>
    <property name="Type" value="Stone"/>
   </properties>
  </tile>
  <tile id="98">
   <properties>
    <property name="Type" value="Stone"/>
   </properties>
  </tile>
  <tile id="99">
   <properties>
    <property name="Type" value="Stone"/>
   </properties>
  </tile>
  <tile id="100">
   <properties>
    <property name="Type" value="Stone"/>
   </properties>
  </tile>
  <tile id="128">
   <properties>
    <property name="Type" value="Stone"/>
   </properties>
  </tile>
  <tile id="129">
   <properties>
    <property name="Spawnable" value="T"/>
    <property name="Type" value="Stone"/>
   </properties>
  </tile>
  <tile id="130">
   <properties>
    <property name="Type" value="Stone"/>
   </properties>
  </tile>
  <tile id="131">
   <properties>
    <property name="Spawnable" value="T"/>
    <property name="Type" value="Stone"/>
   </properties>
  </tile>
  <tile id="132">
   <properties>
    <property name="Spawnable" value="T"/>
    <property name="Type" value="Stone"/>
   </properties>
  </tile>
  <tile id="160">
   <properties>
    <property name="Type" value="Stone"/>
   </properties>
  </tile>
  <tile id="161">
   <properties>
    <property name="Type" value="Stone"/>
   </properties>
  </tile>
  <tile id="162">
   <properties>
    <property name="Type" value="Stone"/>
   </properties>
  </tile>
  <tile id="163">
   <properties>
    <property name="Spawnable" value="T"/>
    <property name="Type" value="Stone"/>
   </properties>
  </tile>
  <tile id="164">
   <properties>
    <property name="Spawnable" value="T"/>
    <property name="Type" value="Stone"/>
   </properties>
  </tile>
  <tile id="416">
   <animation>
    <frame tileid="416" duration="300"/>
    <frame tileid="417" duration="300"/>
    <frame tileid="418" duration="300"/>
    <frame tileid="416" duration="300"/>
   </animation>
  </tile>
  <tile id="418">
   <animation>
    <frame tileid="418" duration="300"/>
    <frame tileid="417" duration="300"/>
    <frame tileid="416" duration="300"/>
    <frame tileid="417" duration="300"/>
   </animation>
  </tile>
  <tile id="419">
   <animation>
    <frame tileid="419" duration="300"/>
    <frame tileid="420" duration="300"/>
    <frame tileid="421" duration="300"/>
    <frame tileid="420" duration="300"/>
   </animation>
  </tile>
  <tile id="421">
   <animation>
    <frame tileid="421" duration="300"/>
    <frame tileid="420" duration="300"/>
    <frame tileid="419" duration="300"/>
    <frame tileid="420" duration="300"/>
   </animation>
  </tile>
  <tile id="426">
   <animation>
    <frame tileid="426" duration="300"/>
    <frame tileid="427" duration="300"/>
    <frame tileid="428" duration="300"/>
    <frame tileid="427" duration="300"/>
   </animation>
  </tile>
  <tile id="448">
   <animation>
    <frame tileid="448" duration="300"/>
    <frame tileid="449" duration="300"/>
    <frame tileid="450" duration="300"/>
    <frame tileid="449" duration="300"/>
   </animation>
  </tile>
  <tile id="450">
   <animation>
    <frame tileid="450" duration="300"/>
    <frame tileid="449" duration="300"/>
    <frame tileid="448" duration="300"/>
    <frame tileid="449" duration="300"/>
   </animation>
  </tile>
  <tile id="458">
   <animation>
    <frame tileid="458" duration="300"/>
    <frame tileid="459" duration="300"/>
    <frame tileid="460" duration="300"/>
    <frame tileid="459" duration="300"/>
   </animation>
  </tile>
  <tile id="486">
   <animation>
    <frame tileid="486" duration="200"/>
    <frame tileid="489" duration="200"/>
   </animation>
  </tile>
  <tile id="487">
   <animation>
    <frame tileid="487" duration="200"/>
    <frame tileid="490" duration="200"/>
   </animation>
  </tile>
  <tile id="488">
   <animation>
    <frame tileid="488" duration="200"/>
    <frame tileid="491" duration="200"/>
   </animation>
  </tile>
  <tile id="518">
   <animation>
    <frame tileid="518" duration="200"/>
    <frame tileid="521" duration="200"/>
   </animation>
  </tile>
  <tile id="520">
   <animation>
    <frame tileid="520" duration="200"/>
    <frame tileid="523" duration="200"/>
   </animation>
  </tile>
  <tile id="550">
   <animation>
    <frame tileid="550" duration="200"/>
    <frame tileid="553" duration="200"/>
   </animation>
  </tile>
  <tile id="551">
   <animation>
    <frame tileid="551" duration="200"/>
    <frame tileid="554" duration="200"/>
   </animation>
  </tile>
  <tile id="552">
   <animation>
    <frame tileid="552" duration="200"/>
    <frame tileid="555" duration="200"/>
   </animation>
  </tile>
 </tileset>
 <layer id="1" name="Back" width="40" height="40">
  <data encoding="csv">
75,75,75,75,75,75,75,75,75,75,75,75,75,75,75,75,75,75,75,75,75,75,75,75,75,75,75,75,75,75,173,173,173,173,173,173,173,173,173,173,
75,75,75,75,75,75,75,75,75,75,75,75,75,75,75,75,75,75,75,75,75,75,75,75,75,75,75,75,75,75,173,173,173,173,173,173,173,173,173,173,
75,75,75,75,75,75,75,75,75,75,75,75,75,75,75,75,75,75,75,75,75,75,75,75,75,75,75,75,75,75,173,173,173,173,173,173,173,173,173,173,
75,75,75,75,75,75,75,75,75,75,75,75,75,75,75,75,75,75,75,75,75,75,75,75,75,75,75,75,75,75,173,173,173,173,173,173,173,173,173,173,
75,75,75,75,75,75,75,75,75,75,75,75,75,75,75,75,75,75,75,75,75,75,75,75,75,75,75,75,75,75,173,173,173,173,173,173,173,173,173,173,
75,75,75,75,75,75,75,75,75,75,75,75,75,75,75,75,75,75,75,75,75,75,75,75,75,75,75,75,75,75,173,173,173,173,173,173,173,173,173,173,
75,75,75,75,75,75,75,75,75,75,75,75,75,75,75,75,75,75,75,75,75,75,75,75,75,75,75,75,75,75,173,173,173,173,173,173,173,173,173,173,
75,75,75,75,75,75,75,75,75,75,75,75,75,75,75,75,75,75,75,75,75,75,75,75,75,75,75,75,75,75,173,173,173,173,173,173,173,173,173,173,
75,75,75,75,75,75,75,75,75,75,75,75,75,75,75,75,75,75,75,75,75,75,75,75,75,75,75,75,75,75,173,173,173,173,173,173,173,173,173,173,
75,75,75,75,75,75,75,75,75,75,75,75,75,75,75,75,75,75,75,75,75,75,75,75,75,75,75,75,75,75,173,173,173,173,173,173,173,173,173,173,
75,75,75,75,75,75,75,75,75,75,75,75,75,75,75,75,75,75,75,75,75,75,75,75,75,75,75,75,75,75,173,173,173,173,173,173,173,173,173,173,
75,75,75,75,75,75,75,75,75,75,75,75,75,75,75,75,75,75,75,75,75,75,75,75,75,75,75,75,75,75,173,173,173,173,173,173,173,173,173,173,
75,75,75,75,75,75,75,75,75,75,75,75,75,75,75,75,75,75,75,75,75,75,75,75,75,75,75,75,75,75,173,173,173,173,173,173,173,173,173,173,
75,75,75,75,75,75,75,75,75,75,75,75,75,75,75,75,75,75,75,75,75,75,75,75,75,75,75,75,75,75,173,173,173,173,173,173,173,173,173,173,
75,75,75,75,75,75,75,75,75,75,75,75,75,75,75,75,75,75,75,75,75,75,75,75,75,75,75,75,75,75,173,173,173,173,173,173,173,173,173,173,
75,75,75,75,75,75,75,75,75,75,75,75,75,75,75,75,75,75,75,75,75,75,75,75,75,75,75,75,75,75,173,173,173,173,173,173,173,173,173,173,
75,75,75,75,75,75,75,75,75,75,75,75,75,75,75,75,75,75,75,75,75,75,75,75,75,75,75,75,75,75,173,173,173,173,173,173,173,173,173,173,
75,75,75,75,75,75,75,75,75,75,75,75,75,75,75,75,75,75,75,75,75,75,75,75,75,75,75,75,75,75,173,173,173,173,173,173,173,173,173,173,
75,75,75,75,75,75,75,75,75,75,98,98,98,98,98,98,98,98,75,75,75,75,75,75,75,75,75,75,75,75,173,173,173,173,173,173,173,173,173,173,
75,75,75,75,75,75,75,75,75,98,102,102,102,102,102,102,102,98,98,75,75,75,75,75,75,75,75,75,75,75,173,173,173,173,173,173,173,173,173,173,
75,75,75,75,75,75,75,75,75,98,102,102,102,102,102,102,102,102,98,98,75,75,75,75,75,75,75,75,75,75,173,173,173,173,173,173,173,173,173,173,
75,75,75,75,75,75,75,75,75,98,102,102,102,102,102,102,102,102,102,98,75,75,75,75,75,75,75,75,75,75,173,173,173,173,173,173,173,173,173,173,
75,75,75,75,75,75,75,75,75,98,98,102,102,102,102,102,102,102,102,102,98,75,75,75,75,75,75,75,75,75,173,173,173,173,173,173,173,173,173,173,
75,75,75,75,75,75,75,75,75,75,98,98,102,102,102,102,102,102,102,102,98,75,75,75,75,75,75,75,75,75,173,173,173,173,173,173,173,173,173,173,
75,75,75,75,75,75,75,75,75,75,75,98,102,102,102,102,102,102,102,98,98,75,75,75,75,75,75,75,75,75,173,173,173,173,173,173,173,173,173,173,
75,75,75,75,75,75,75,75,75,75,75,98,98,102,102,102,102,102,102,98,75,75,75,75,75,75,75,75,75,75,173,173,173,173,173,173,173,173,173,173,
75,75,75,75,75,75,75,75,75,75,75,75,98,102,102,102,102,98,98,98,75,75,75,75,75,75,75,75,75,75,173,173,173,173,173,173,173,173,173,173,
75,75,75,75,75,75,75,75,75,75,75,75,98,98,98,98,98,98,75,75,75,75,75,75,75,75,75,75,75,75,173,173,173,173,173,173,173,173,173,173,
75,75,75,75,75,75,75,75,75,75,75,75,75,75,75,75,75,75,75,75,75,75,75,75,75,75,75,75,75,75,173,173,173,173,173,173,173,173,173,173,
75,75,75,75,75,75,75,75,75,75,75,75,75,75,75,75,75,75,75,75,75,75,75,75,75,75,75,75,75,75,173,173,173,173,173,173,173,173,173,173,
75,75,75,75,75,75,75,75,75,75,75,75,75,75,75,75,75,75,75,75,75,75,75,75,75,75,75,75,75,75,173,173,173,173,173,173,173,173,173,173,
75,75,75,75,75,75,75,75,75,75,75,75,75,75,75,75,75,75,75,75,75,75,75,75,75,75,75,75,75,75,173,173,173,173,173,173,173,173,173,173,
75,75,75,75,75,75,75,75,75,75,75,75,75,75,75,75,75,75,75,75,75,75,75,75,75,75,75,75,75,75,173,173,173,173,173,173,173,173,173,173,
75,75,75,75,75,75,75,75,75,75,75,75,75,75,75,75,75,75,75,75,75,75,75,75,75,75,75,75,75,75,173,173,173,173,173,173,173,173,173,173,
75,75,75,75,75,75,75,75,75,75,75,75,75,75,75,75,75,75,75,75,75,75,75,75,75,75,75,75,75,75,173,173,173,173,173,173,173,173,173,173,
75,75,75,75,75,75,75,75,75,75,75,75,75,75,75,75,75,75,75,75,75,75,75,75,75,75,75,75,75,75,173,173,173,173,173,173,173,173,173,173,
75,75,75,75,75,75,75,75,75,75,75,75,75,75,75,75,75,75,75,75,75,75,75,75,75,75,75,75,75,75,173,173,173,173,173,173,173,173,173,173,
75,75,75,75,75,75,75,75,75,75,75,75,75,75,75,75,75,75,75,75,75,75,75,75,75,75,75,75,75,75,173,173,173,173,173,173,173,173,173,173,
75,75,75,75,75,75,75,75,75,75,75,75,75,75,75,75,75,75,75,75,75,75,75,75,75,75,75,75,75,75,173,173,173,173,173,173,173,173,173,173,
75,75,75,75,75,75,75,75,75,75,75,75,75,75,75,75,75,75,75,75,75,75,75,75,75,75,75,75,75,75,173,173,173,173,173,173,173,173,173,173
</data>
 </layer>
 <layer id="2" name="Back2" width="40" height="40">
  <properties>
   <property name="Draw" value="Back"/>
  </properties>
  <data encoding="csv">
0,0,0,0,0,0,0,0,0,0,0,0,0,0,0,0,0,0,0,0,0,0,0,0,0,0,0,0,0,0,0,0,0,0,0,0,0,0,0,0,
0,0,0,0,0,0,0,0,0,0,0,0,0,0,0,0,0,0,0,0,0,0,0,0,0,0,0,0,0,0,0,0,0,0,0,0,0,0,0,0,
0,0,0,0,0,0,0,0,0,0,0,0,0,0,0,0,0,0,0,0,0,0,0,0,0,0,0,0,0,0,0,0,0,0,0,0,0,0,0,0,
0,0,0,0,0,0,0,0,0,0,0,0,0,0,0,0,0,0,0,0,0,0,0,0,0,0,0,0,0,0,0,0,0,0,0,0,0,0,0,0,
0,0,0,0,0,0,0,0,0,0,0,0,0,0,0,0,0,0,0,0,0,0,0,0,0,0,0,0,0,0,0,0,0,0,0,0,0,0,0,0,
0,0,0,0,0,0,0,0,0,0,0,0,0,0,0,0,0,0,0,0,0,0,0,0,0,0,0,0,0,0,0,0,0,0,0,0,0,0,0,0,
0,0,0,0,0,0,0,0,0,0,0,0,0,0,0,0,0,0,0,0,0,0,0,0,0,0,0,0,0,0,0,0,0,0,0,0,0,0,0,0,
0,0,0,0,0,0,0,0,0,0,0,0,0,0,0,0,0,0,0,0,0,0,0,0,0,0,0,0,0,0,0,0,0,0,0,0,0,0,0,0,
0,0,0,0,0,0,0,0,0,0,589,0,0,0,0,0,0,0,0,0,0,0,0,0,0,0,0,0,0,0,0,0,0,0,0,0,0,0,0,0,
0,0,0,0,0,0,0,0,0,2147484033,0,388,0,0,0,0,0,0,0,0,0,0,0,0,0,0,0,0,0,0,0,0,0,0,0,0,0,0,0,0,
0,0,0,0,0,0,0,0,0,0,257,386,0,0,0,0,0,0,0,0,0,0,0,0,0,0,0,0,0,0,0,0,0,0,0,0,0,0,0,0,
0,0,0,0,0,0,0,0,0,0,0,0,387,0,0,0,0,0,0,0,0,0,0,0,0,0,0,0,0,0,0,0,0,0,0,0,0,0,0,0,
0,0,0,0,0,0,0,0,0,0,0,2147483937,257,0,0,0,0,0,0,0,0,0,0,0,0,0,0,0,0,0,0,0,0,0,0,0,0,0,0,0,
0,0,0,0,0,0,0,0,0,0,0,0,0,0,387,0,0,0,0,0,0,0,0,0,0,0,0,0,0,0,0,0,0,0,0,0,0,0,0,0,
0,0,0,0,0,0,0,0,0,0,0,0,2147483937,385,0,0,0,0,0,0,0,0,0,0,0,0,0,0,0,0,0,0,0,0,0,0,0,0,0,0,
0,0,0,0,0,0,0,0,0,0,0,257,417,388,2147484033,0,0,0,0,0,0,0,0,0,0,0,0,0,0,0,0,0,0,0,0,0,0,0,0,0,
0,0,0,0,0,0,0,0,0,0,0,0,0,386,0,0,0,0,0,0,0,0,0,0,0,0,0,0,0,0,0,0,0,0,0,0,0,0,0,0,
0,0,0,0,0,0,0,0,0,132,226,226,226,226,226,226,226,226,133,0,0,0,0,0,0,0,0,0,0,0,0,0,0,0,0,0,0,0,0,0,
0,0,0,0,0,0,0,0,132,227,0,0,0,0,0,0,0,0,225,133,0,0,0,0,0,0,0,0,0,0,0,0,0,0,0,0,0,0,0,0,
0,0,0,0,0,0,0,0,195,0,0,0,0,0,0,0,0,0,0,225,133,0,0,0,0,0,0,0,0,0,0,0,0,0,0,0,0,0,0,0,
0,0,0,0,0,0,0,0,195,0,0,0,0,0,0,0,0,0,0,0,193,0,0,0,0,0,0,0,0,0,0,0,0,0,0,0,0,0,0,0,
0,0,0,0,0,0,0,0,195,0,0,0,0,0,0,0,0,0,0,0,225,133,0,0,0,0,0,0,0,0,0,0,0,0,0,0,0,0,0,0,
0,0,0,0,0,0,0,0,195,0,0,0,0,0,0,0,0,0,0,0,0,193,0,0,0,0,0,0,0,0,0,0,0,0,0,0,0,0,0,0,
0,0,0,0,0,0,0,0,0,163,0,0,0,0,0,0,0,0,0,0,0,193,0,0,0,0,0,0,0,0,0,0,0,0,0,0,0,0,0,0,
0,0,0,0,0,0,0,0,0,0,163,0,0,0,0,0,0,0,0,0,0,193,0,0,0,0,0,0,0,0,0,0,0,0,0,0,0,0,0,0,
0,0,0,0,0,0,0,0,0,0,195,0,0,0,0,0,0,0,0,0,161,165,0,0,0,0,0,0,0,0,0,0,0,0,0,0,0,0,0,0,
0,0,0,0,0,0,0,0,0,0,0,163,0,0,0,0,0,0,0,0,193,0,0,0,0,0,0,0,0,0,0,0,0,0,0,0,0,0,0,0,
0,0,0,0,0,0,0,0,0,0,0,195,0,0,0,0,0,0,161,162,165,0,0,0,0,0,0,0,0,0,0,0,0,0,0,0,0,0,0,0,
0,0,0,0,0,0,0,0,0,0,0,0,162,162,162,162,162,162,165,0,0,0,0,0,0,0,0,0,0,0,0,0,0,0,0,0,0,0,0,0,
0,0,0,0,0,0,0,0,0,0,0,0,0,0,0,0,0,0,0,0,0,0,0,0,0,0,0,0,0,0,0,0,0,0,0,0,0,0,0,0,
0,0,0,0,0,0,0,0,0,0,0,0,0,0,0,0,0,0,0,0,0,0,0,0,0,0,0,0,0,0,0,0,0,0,0,0,0,0,0,0,
0,0,0,0,0,0,0,0,0,0,0,0,0,0,0,0,0,0,0,0,0,0,0,0,0,0,0,0,0,0,0,0,0,0,0,0,0,0,0,0,
0,0,0,0,0,0,0,0,0,0,0,0,0,0,0,0,0,0,0,0,0,0,0,0,0,0,0,0,0,0,0,0,0,0,0,0,0,0,0,0,
0,0,0,0,0,0,0,0,0,0,0,0,0,0,0,0,0,0,0,0,0,0,0,0,0,0,0,0,0,0,0,0,0,0,0,0,0,0,0,0,
0,0,0,0,0,0,0,0,0,0,0,0,0,0,0,0,0,0,0,0,0,0,0,0,0,0,0,0,0,0,0,0,0,0,0,0,0,0,0,0,
0,0,0,0,0,0,0,0,0,0,0,0,0,0,0,0,0,0,0,0,0,0,0,0,0,0,0,0,0,0,0,0,0,0,0,0,0,0,0,0,
0,0,0,0,0,0,0,0,0,0,0,0,0,0,0,0,0,0,0,0,0,0,0,0,0,0,0,0,0,0,0,0,0,0,0,0,0,0,0,0,
0,0,0,0,0,0,0,0,0,0,0,0,0,0,0,0,0,0,0,0,0,0,0,0,0,0,0,0,0,0,0,0,0,0,0,0,0,0,0,0,
0,0,0,0,0,0,0,0,0,0,0,0,0,0,0,0,0,0,0,0,0,0,0,0,0,0,0,0,0,0,0,0,0,0,0,0,0,0,0,0,
0,0,0,0,0,0,0,0,0,0,0,0,0,0,0,0,0,0,0,0,0,0,0,0,0,0,0,0,0,0,0,0,0,0,0,0,0,0,0,0
</data>
 </layer>
 <layer id="18" name="Back3" width="40" height="40">
  <properties>
   <property name="Draw" value="Back"/>
  </properties>
  <data encoding="csv">
0,0,0,0,0,0,0,0,0,0,0,0,0,0,0,0,0,0,0,0,0,0,0,0,0,0,0,0,0,0,0,0,0,0,0,0,0,0,0,0,
0,0,0,0,0,0,0,0,0,0,0,0,0,0,0,0,0,0,0,0,0,0,0,0,0,0,0,0,0,0,0,0,0,0,0,0,0,0,0,0,
0,0,0,0,0,0,0,0,0,0,0,0,0,0,0,0,0,0,0,0,0,0,0,0,0,0,0,0,0,0,0,0,0,0,0,0,0,0,0,0,
0,0,0,0,0,0,0,0,0,0,0,0,0,0,0,0,0,0,0,0,0,0,0,0,0,0,0,0,0,0,0,0,0,0,0,0,0,0,0,0,
0,0,0,0,201,0,0,0,0,0,0,0,0,0,0,0,0,0,0,0,0,0,0,0,200,0,0,0,0,0,0,0,0,0,0,0,0,0,0,0,
0,0,0,201,233,0,0,0,0,0,0,0,0,0,0,0,0,0,0,0,0,0,0,0,232,0,0,0,0,0,0,0,0,0,0,0,0,0,0,0,
0,0,201,233,265,0,0,0,0,0,0,0,0,0,0,0,0,0,0,0,0,0,0,0,264,200,0,0,0,0,0,0,0,0,0,0,0,0,0,0,
0,0,233,265,297,0,0,0,0,0,0,0,0,0,0,0,0,0,0,0,0,0,0,0,296,232,200,0,0,0,0,0,0,72,72,0,0,0,0,0,
0,0,265,297,0,0,0,0,0,0,0,0,0,0,0,0,0,0,0,0,0,0,0,0,0,264,232,0,0,0,0,0,0,0,0,0,0,0,0,0,
0,0,297,0,0,0,0,0,0,0,0,0,0,0,0,0,0,0,0,0,0,0,0,0,0,296,264,0,0,0,0,0,80,81,82,83,0,0,0,0,
0,0,0,0,0,0,0,0,0,0,0,0,0,0,0,0,0,0,0,0,0,0,0,0,0,0,296,0,0,0,0,0,112,113,114,115,0,0,0,0,
0,0,0,0,0,0,0,0,0,0,0,0,0,0,0,0,0,0,0,0,0,0,0,0,0,0,0,0,0,0,0,0,144,145,146,147,0,0,0,0,
0,0,0,0,0,0,0,0,0,0,0,0,0,0,0,0,0,0,0,0,0,0,0,0,0,0,0,0,0,0,0,0,176,177,178,179,0,0,0,0,
0,0,0,0,0,0,0,0,0,0,0,0,0,0,0,0,0,0,0,0,0,0,0,0,0,0,0,0,0,0,0,0,208,209,210,211,0,0,0,0,
0,0,0,0,0,0,0,0,0,0,0,0,0,0,0,0,0,0,0,0,0,0,0,0,0,0,0,0,0,0,0,0,240,241,242,243,0,0,0,0,
0,0,0,0,0,0,0,0,0,0,0,0,0,0,0,0,0,0,0,0,0,0,0,0,0,0,0,0,0,0,72,0,0,0,0,0,0,0,0,0,
0,0,0,0,0,0,0,0,0,0,0,0,0,0,0,0,0,0,0,0,0,0,0,0,0,0,0,0,0,0,0,0,0,0,0,0,0,0,0,0,
0,0,0,0,0,0,0,0,0,0,0,0,0,0,0,0,0,0,0,0,0,0,0,0,0,200,0,0,0,0,0,0,0,0,0,0,0,0,0,0,
0,0,0,0,0,0,0,0,0,0,0,0,0,0,0,0,0,0,0,0,0,0,0,0,0,232,200,0,0,0,0,0,0,0,0,0,0,0,0,0,
0,0,0,0,0,0,0,0,0,0,0,0,0,0,0,0,0,0,0,0,0,0,0,0,0,264,232,0,0,0,0,0,0,0,0,72,72,72,0,0,
0,0,0,0,0,0,0,0,0,0,0,0,0,0,0,0,0,0,0,0,0,0,0,0,0,296,264,0,0,0,0,0,0,0,0,0,0,0,0,0,
0,0,0,0,0,0,0,0,0,0,0,0,0,0,0,0,0,0,0,0,0,0,0,0,0,0,296,0,0,0,0,0,0,0,80,81,81,82,83,0,
0,0,0,201,0,0,0,0,0,0,0,0,0,0,0,0,0,0,0,0,0,0,0,0,0,0,0,0,0,0,0,0,0,0,112,113,113,114,115,0,
0,0,201,233,0,0,0,0,0,0,0,0,0,0,0,0,0,0,0,0,0,0,0,0,0,0,0,0,0,0,0,0,0,0,144,145,145,146,147,0,
0,0,233,265,0,0,0,0,0,0,0,0,0,0,0,0,0,0,0,0,0,0,0,0,0,0,0,0,0,0,0,0,0,0,176,177,177,178,179,0,
0,0,265,297,0,0,0,0,0,0,0,0,0,0,0,0,0,0,0,0,0,0,0,0,0,0,0,0,0,0,0,0,0,0,208,209,209,210,211,0,
0,0,297,0,0,0,0,0,0,0,0,0,0,0,0,0,0,0,0,0,0,0,0,0,0,0,0,0,0,0,0,0,0,0,240,241,241,242,243,0,
0,0,0,0,0,0,0,0,0,0,0,0,0,0,0,0,0,0,0,0,0,0,0,0,0,0,0,0,0,0,72,0,0,0,0,0,0,0,0,0,
0,0,0,0,2147483956,2147483955,0,0,0,0,0,0,0,0,0,0,0,0,0,0,0,0,0,0,0,0,0,0,0,200,0,0,0,0,0,0,0,0,0,0,
0,0,0,0,2147483988,2147483987,305,306,0,0,0,0,0,0,0,0,0,0,0,0,0,0,0,0,0,0,0,0,0,232,0,0,0,0,0,0,0,0,0,0,
0,0,0,0,0,0,337,338,0,0,0,0,0,0,0,0,0,0,0,0,0,0,0,0,0,0,0,0,0,264,0,0,0,0,0,0,0,0,0,0,
0,0,0,0,0,0,0,0,2147484116,0,0,0,0,0,0,0,0,0,0,0,0,0,0,0,0,0,0,0,0,296,0,0,0,0,0,0,0,0,0,0,
0,0,0,0,0,0,0,0,0,0,0,0,0,0,0,0,0,0,0,0,0,0,0,0,0,0,0,0,0,0,0,0,0,0,0,0,0,0,0,0,
0,0,0,0,0,0,0,0,0,0,0,0,0,0,0,0,0,0,0,0,0,0,0,0,0,0,0,0,0,0,0,0,0,0,0,0,0,0,0,0,
0,0,0,0,0,0,0,0,0,0,0,0,0,0,0,0,0,0,0,0,0,0,0,0,0,0,0,0,0,0,0,0,0,0,0,0,0,0,0,0,
0,0,0,0,0,0,0,0,0,0,0,0,0,0,0,0,0,0,0,0,0,0,0,0,0,0,0,0,0,0,0,0,0,0,0,0,0,0,0,0,
0,0,0,0,0,0,0,0,0,0,0,0,0,0,0,0,0,0,0,0,0,0,0,0,0,0,0,0,0,0,0,0,0,0,0,0,0,0,0,0,
0,0,0,0,0,0,0,0,0,0,0,0,0,0,0,0,0,0,0,0,0,0,0,0,0,0,0,0,0,0,0,0,0,0,0,0,0,0,0,0,
0,0,0,0,0,0,0,0,0,0,0,0,0,0,0,0,0,0,0,0,0,0,0,0,0,0,0,0,0,0,0,0,0,0,0,0,0,0,0,0,
0,0,0,0,0,0,0,0,0,0,0,0,0,0,0,0,0,0,0,0,0,0,0,0,0,0,0,0,0,0,0,0,0,0,0,0,0,0,0,0
</data>
 </layer>
 <layer id="3" name="Buildings" width="40" height="40">
  <data encoding="csv">
173,173,173,173,173,173,173,173,173,173,173,173,173,173,173,173,173,173,173,173,173,173,173,173,173,173,173,173,173,173,0,0,0,0,0,0,0,0,0,0,
173,173,173,73,73,73,73,73,73,73,73,73,73,73,73,73,73,73,73,73,73,73,73,73,73,73,73,173,173,173,0,0,0,0,0,0,0,0,0,0,
173,173,73,73,73,73,73,73,73,73,73,73,73,73,73,73,73,73,73,73,73,73,73,73,73,73,73,73,173,173,0,0,0,0,0,0,0,0,0,0,
173,73,73,73,73,73,73,73,73,73,73,73,73,73,73,73,73,73,73,73,73,73,73,73,73,73,73,73,73,173,0,0,0,0,0,0,0,0,0,0,
173,73,72,72,0,0,0,0,0,0,0,0,0,0,0,0,0,0,0,0,0,0,0,0,72,72,72,73,73,173,0,0,0,0,0,0,0,0,0,0,
173,73,72,232,202,232,233,232,233,232,233,232,233,232,233,232,233,232,233,232,233,232,233,232,233,72,72,73,73,173,0,0,103,104,105,106,0,0,0,0,
173,73,265,202,234,264,265,264,265,264,265,264,265,264,265,264,265,264,265,264,265,264,265,264,199,264,72,73,73,173,0,0,135,72,72,138,0,0,0,0,
173,73,297,234,266,296,297,296,297,296,297,296,297,296,297,296,297,296,297,296,297,296,297,296,231,199,297,73,73,173,0,0,167,168,169,170,0,0,0,0,
173,73,0,266,298,456,457,391,0,0,0,0,0,0,0,0,0,516,0,0,260,0,0,0,263,231,0,73,73,173,0,0,199,200,201,202,0,0,0,0,
173,73,0,298,292,522,0,318,0,0,0,0,0,0,0,0,0,0,517,521,0,541,542,543,295,263,0,73,73,173,0,0,231,232,233,234,0,0,0,0,
173,73,0,0,0,0,390,0,0,0,0,0,0,0,0,0,0,0,0,0,533,573,574,575,0,295,0,73,73,173,0,0,0,0,0,0,0,0,0,0,
173,73,0,0,0,0,0,0,0,0,0,0,0,0,0,0,0,0,0,261,565,0,0,405,406,0,72,73,73,173,0,0,0,0,0,0,0,0,0,0,
173,73,0,0,0,327,0,0,0,0,0,0,0,0,0,0,0,0,0,217,0,536,537,538,0,72,72,73,73,173,0,0,0,0,0,0,0,0,0,0,
173,73,0,0,0,0,0,0,0,0,0,0,0,0,0,0,0,0,0,155,0,568,569,570,0,72,72,73,73,173,0,0,0,0,0,0,0,0,0,0,
173,73,0,456,457,363,0,0,0,0,0,0,0,0,0,0,0,0,0,0,339,340,0,0,0,72,72,73,73,173,0,0,0,0,0,0,0,0,0,0,
173,73,72,0,394,395,326,0,0,0,0,0,0,0,0,0,0,0,0,127,0,2147483861,469,470,0,72,72,73,73,173,0,0,0,0,103,104,104,105,106,0,
173,73,72,0,260,0,358,0,0,0,0,0,0,0,0,0,0,0,0,0,0,0,214,0,167,72,72,73,73,200,0,0,0,0,135,72,72,72,138,0,
173,73,72,72,0,0,0,0,0,0,216,0,0,0,0,0,217,0,0,0,0,0,261,276,199,167,72,73,73,232,0,0,0,0,135,72,72,72,138,0,
173,73,72,72,0,519,0,0,0,127,218,0,0,0,0,0,0,187,2147483866,0,0,0,0,0,231,199,0,73,73,264,0,0,0,0,135,72,72,72,138,0,
173,73,72,72,0,0,0,0,151,0,161,162,162,162,162,162,163,0,0,0,0,0,465,466,263,231,0,73,73,296,0,0,0,0,167,168,168,169,170,0,
173,73,72,72,0,0,0,0,2147483865,0,193,0,0,0,0,0,164,163,0,261,151,0,0,217,295,263,0,73,73,173,0,0,0,0,199,201,200,201,202,0,
173,73,72,72,170,0,0,0,0,0,225,133,0,0,0,0,0,164,163,0,222,0,0,520,539,295,0,73,73,173,0,0,0,0,231,233,232,233,234,0,
173,73,72,170,202,0,0,0,0,292,0,225,133,0,0,0,0,0,164,163,217,0,0,317,571,572,0,73,73,173,0,0,0,0,0,0,0,0,0,0,
173,73,0,202,234,0,0,0,0,218,0,0,193,0,0,0,0,0,132,227,0,0,0,0,0,292,0,73,73,173,0,0,0,0,0,0,0,0,0,0,
173,73,0,234,266,0,0,0,0,0,2147483865,0,225,133,0,0,0,0,195,0,0,218,0,0,0,0,0,73,73,173,0,0,0,0,0,0,0,0,0,0,
173,73,0,266,298,0,0,224,0,0,0,0,0,193,0,0,132,226,227,0,216,0,0,0,0,0,0,73,73,173,0,0,0,0,0,0,0,0,0,0,
173,73,0,298,290,291,151,0,0,0,0,251,0,225,226,226,227,292,0,0,0,151,0,0,0,0,0,73,73,173,0,0,0,0,0,0,0,0,0,0,
173,73,0,0,216,0,0,189,0,0,0,0,260,0,0,0,0,0,285,0,0,0,0,0,394,395,72,73,73,173,0,0,0,0,0,0,0,0,0,0,
173,73,0,282,0,341,342,0,0,0,0,0,0,2147483864,0,0,0,217,0,0,0,0,0,260,0,72,72,73,73,200,0,0,0,0,0,0,0,0,0,0,
173,73,72,0,0,0,0,2147483992,2147483991,151,0,0,0,0,0,0,0,0,0,0,0,0,315,0,72,72,72,73,73,232,0,0,0,0,0,0,0,0,0,0,
173,73,72,72,2147483866,435,436,0,2147484084,2147484083,213,0,0,0,0,0,0,0,0,0,518,0,0,72,72,72,72,73,73,264,0,0,0,0,0,0,0,0,0,0,
173,73,72,72,72,467,468,369,370,2147484115,0,282,154,0,0,0,0,0,0,0,0,0,72,72,72,72,72,73,73,296,0,0,0,0,0,0,0,0,0,0,
173,73,73,73,73,73,73,401,402,469,470,0,214,282,92,0,0,0,0,73,73,73,73,73,73,73,73,73,73,173,0,0,0,0,0,0,0,0,0,0,
173,73,73,73,73,73,73,73,73,0,0,276,216,286,0,0,73,73,73,73,73,73,73,73,73,73,73,73,73,173,0,0,0,0,0,0,0,0,0,0,
173,73,73,73,73,73,73,73,73,73,73,73,73,73,73,73,73,73,73,73,73,73,73,73,73,73,73,73,73,173,0,0,0,0,0,0,0,0,0,0,
173,73,73,73,73,73,73,73,73,73,73,73,73,73,73,73,73,73,73,73,73,73,73,73,73,73,73,73,73,173,0,0,0,0,0,0,0,0,0,0,
173,173,173,173,173,173,73,73,73,73,73,73,73,73,73,73,73,73,73,73,173,173,173,173,173,173,173,173,173,173,0,0,0,0,0,0,0,0,0,0,
173,173,173,173,173,173,173,173,173,173,173,173,173,173,173,173,173,173,173,173,173,173,173,173,173,173,173,173,173,173,0,0,0,0,0,0,0,0,0,0,
173,173,173,173,173,173,173,173,173,173,173,173,173,173,173,173,173,173,173,173,173,173,173,173,173,173,173,173,173,173,0,0,0,0,0,0,0,0,0,0,
173,173,173,173,173,173,173,173,173,173,173,173,173,173,173,173,173,173,173,173,173,173,173,173,173,173,173,173,173,173,0,0,0,0,0,0,0,0,0,0
</data>
 </layer>
 <layer id="4" name="Buildings2" width="40" height="40">
  <data encoding="csv">
0,0,0,0,0,0,0,0,0,0,0,0,0,0,0,0,0,0,0,0,0,0,0,0,0,0,0,0,0,0,0,0,0,0,0,0,0,0,0,0,
0,0,0,0,0,0,0,0,0,0,0,0,0,0,0,0,0,0,0,0,0,0,0,0,0,0,0,0,0,0,0,0,0,0,0,0,0,0,0,0,
0,0,0,0,0,0,0,0,0,0,0,0,0,0,0,0,0,0,0,0,0,0,0,0,0,0,0,0,0,0,0,0,0,0,0,0,0,0,0,0,
0,0,0,0,0,0,0,0,0,0,0,0,0,0,0,0,0,0,0,0,0,0,0,0,0,0,0,0,0,0,0,0,0,0,0,0,0,0,0,0,
0,0,0,0,0,0,0,0,0,0,0,0,0,0,0,0,0,0,0,0,0,0,0,0,0,0,0,0,0,0,0,0,0,0,0,0,0,0,0,0,
0,0,0,0,0,0,0,0,0,107,108,0,0,0,0,0,0,0,0,0,0,0,0,0,0,0,0,0,0,0,0,0,0,0,0,0,0,0,0,0,
0,0,0,0,0,0,0,0,0,139,140,0,0,0,0,0,0,0,0,0,0,0,0,0,0,0,0,0,0,0,0,0,0,0,0,0,0,0,0,0,
0,0,0,0,0,0,0,359,0,0,0,0,0,0,0,0,0,0,0,0,0,477,478,479,480,0,0,0,0,0,0,0,0,0,0,0,0,0,0,0,
0,0,0,0,0,0,0,0,0,0,0,0,0,0,0,0,0,0,0,0,0,509,510,511,512,0,0,0,0,0,0,0,0,0,0,0,0,0,0,0,
0,0,0,0,0,0,0,0,0,0,0,0,0,0,0,0,0,0,0,0,0,0,0,0,544,0,0,0,0,0,0,0,0,0,0,0,0,0,0,0,
0,0,0,0,0,0,0,0,0,0,0,0,0,0,0,0,0,0,0,0,533,0,0,0,576,0,0,0,0,0,0,0,0,0,0,0,0,0,0,0,
0,0,0,0,0,0,0,0,0,0,0,0,0,0,0,0,0,0,0,0,565,566,567,0,0,0,0,0,0,0,0,0,0,0,0,0,0,0,0,0,
0,0,0,0,0,0,0,0,0,0,0,0,0,0,0,0,0,0,0,0,0,0,0,0,0,0,0,0,0,0,0,0,0,0,0,0,0,0,0,0,
0,0,0,0,0,0,0,0,0,0,0,0,0,0,0,0,0,0,0,0,0,0,0,0,0,0,0,0,0,0,0,0,0,0,0,0,0,0,0,0,
0,0,0,0,0,0,0,0,0,0,0,0,0,0,0,0,0,0,0,0,0,0,0,0,0,0,0,0,0,0,0,0,0,0,0,0,0,0,0,0,
0,0,0,0,0,0,0,0,0,0,0,0,0,0,0,0,0,0,0,0,0,0,0,0,0,0,0,0,0,0,0,0,0,0,0,0,0,0,0,0,
0,0,0,0,0,0,0,0,0,0,0,0,0,0,0,0,0,0,0,0,0,0,0,0,0,0,0,0,0,0,0,0,0,0,0,0,0,0,0,0,
0,0,0,0,0,0,0,0,0,0,0,0,0,0,0,0,0,0,0,0,0,0,0,0,0,0,0,0,0,0,0,0,0,0,0,0,0,0,0,0,
0,0,0,0,0,0,0,0,0,0,0,0,0,0,0,0,0,0,0,0,0,0,0,0,0,0,0,0,0,0,0,0,0,0,0,0,0,0,0,0,
0,0,0,0,0,0,0,0,0,0,0,0,0,0,0,0,0,0,0,0,0,0,0,0,0,0,0,0,0,0,0,0,0,0,0,0,0,0,0,0,
0,0,0,0,0,0,0,0,0,0,0,0,0,0,0,0,0,0,0,0,0,0,0,0,507,508,0,0,0,0,0,0,0,0,0,0,0,0,0,0,
0,0,0,0,0,0,0,0,0,0,0,0,0,0,0,0,0,0,0,0,0,0,0,0,0,540,0,0,0,0,0,0,0,0,0,0,0,0,0,0,
0,0,0,0,0,0,0,0,0,0,0,0,0,0,0,0,0,0,0,0,0,0,0,0,0,0,0,0,0,0,0,0,0,0,0,0,0,0,0,0,
0,0,0,0,0,0,0,0,0,0,0,0,0,0,0,0,0,0,0,0,0,0,0,0,0,0,0,0,0,0,0,0,0,0,0,0,0,0,0,0,
0,0,0,0,0,0,0,0,0,0,0,0,0,0,0,0,0,0,0,0,0,0,0,0,0,0,0,0,0,0,0,0,0,0,0,0,0,0,0,0,
0,0,0,0,0,0,0,0,0,0,0,0,0,0,0,0,0,0,0,0,0,0,0,0,0,0,0,0,0,0,0,0,0,0,0,0,0,0,0,0,
0,0,0,0,0,0,0,0,0,0,0,0,0,0,0,0,0,0,0,0,0,0,0,0,0,0,0,0,0,0,0,0,0,0,0,0,0,0,0,0,
0,0,0,0,0,0,0,0,0,0,0,0,0,0,0,0,0,0,0,0,0,0,0,0,0,0,0,0,0,0,0,0,0,0,0,0,0,0,0,0,
0,0,0,0,0,0,0,0,0,0,0,0,0,0,0,0,0,0,0,0,0,0,0,0,0,0,0,0,0,0,0,0,0,0,0,0,0,0,0,0,
0,0,0,0,0,0,0,0,0,0,0,0,0,0,0,0,0,0,0,0,0,0,0,0,0,0,0,0,0,0,0,0,0,0,0,0,0,0,0,0,
0,0,0,0,0,0,0,0,0,0,0,0,0,0,0,0,0,0,0,0,0,0,0,0,0,0,0,0,0,0,0,0,0,0,0,0,0,0,0,0,
0,0,0,0,0,0,0,0,0,0,0,0,0,0,0,0,0,0,0,0,0,0,0,0,0,0,0,0,0,0,0,0,0,0,0,0,0,0,0,0,
0,0,0,0,0,0,0,0,0,0,0,0,0,0,0,0,0,0,0,0,0,0,0,0,0,0,0,0,0,0,0,0,0,0,0,0,0,0,0,0,
0,0,0,0,0,0,0,0,0,0,0,0,0,0,0,0,0,0,0,0,0,0,0,0,0,0,0,0,0,0,0,0,0,0,0,0,0,0,0,0,
0,0,0,0,0,0,0,0,0,0,0,0,0,0,0,0,0,0,0,0,0,0,0,0,0,0,0,0,0,0,0,0,0,0,0,0,0,0,0,0,
0,0,0,0,0,0,0,0,0,0,0,0,0,0,0,0,0,0,0,0,0,0,0,0,0,0,0,0,0,0,0,0,0,0,0,0,0,0,0,0,
0,0,0,0,0,0,0,0,0,0,0,0,0,0,0,0,0,0,0,0,0,0,0,0,0,0,0,0,0,0,0,0,0,0,0,0,0,0,0,0,
0,0,0,0,0,0,0,0,0,0,0,0,0,0,0,0,0,0,0,0,0,0,0,0,0,0,0,0,0,0,0,0,0,0,0,0,0,0,0,0,
0,0,0,0,0,0,107,108,0,0,0,0,0,0,0,0,0,0,0,0,0,0,0,0,0,0,0,0,0,0,0,0,0,0,0,0,0,0,0,0,
0,0,0,0,0,0,139,140,0,0,0,0,0,0,0,0,0,0,0,0,0,0,0,0,0,0,0,0,0,0,0,0,0,0,0,0,0,0,0,0
</data>
 </layer>
 <layer id="5" name="Front" width="40" height="40">
  <data encoding="csv">
0,0,0,103,104,105,104,105,104,105,104,105,104,105,104,105,104,105,104,105,104,105,104,105,104,105,106,0,0,0,0,0,0,0,0,0,0,0,0,0,
0,0,103,142,0,0,0,0,0,0,0,0,0,0,0,0,0,0,0,0,0,0,0,0,0,0,141,106,0,0,0,0,0,0,0,0,0,0,0,0,
0,103,142,0,0,0,0,0,0,0,0,0,0,0,0,0,0,0,0,0,0,0,0,0,0,0,0,141,106,0,0,0,0,0,0,0,0,0,0,0,
103,142,0,0,0,168,169,168,169,168,169,168,169,168,169,168,169,168,169,168,169,168,169,168,0,0,0,0,141,106,0,0,0,0,0,0,0,0,0,0,
135,0,0,0,74,200,201,200,201,200,201,200,201,200,201,200,201,200,201,200,201,200,201,167,0,0,0,0,0,138,0,0,0,0,0,0,0,0,0,0,
135,0,0,74,202,0,0,0,0,0,0,0,0,235,0,0,0,171,172,0,0,0,0,199,167,0,0,0,0,138,0,0,0,0,0,0,0,0,0,0,
135,0,74,202,0,0,0,0,0,0,0,0,0,0,0,0,0,203,204,0,0,0,0,0,199,167,0,0,0,138,0,0,0,0,0,0,0,0,0,0,
135,0,138,0,0,0,0,0,0,0,0,0,0,0,0,0,0,0,0,0,0,0,0,0,0,199,135,0,0,138,0,0,0,0,0,0,0,0,0,0,
135,0,138,0,0,490,0,0,0,0,0,0,0,0,0,0,0,0,0,489,0,0,0,0,0,0,135,0,0,138,0,0,0,0,0,0,0,0,0,0,
135,0,138,0,0,0,0,0,0,0,0,0,0,0,0,0,0,0,0,0,501,502,0,0,0,0,135,0,0,138,0,0,0,0,0,0,0,0,0,0,
135,0,138,328,329,0,0,0,0,0,0,0,0,0,0,0,0,0,0,0,0,534,535,373,374,103,142,0,0,138,0,0,0,0,0,0,0,0,0,0,
135,0,138,360,361,0,0,0,0,0,0,0,0,0,0,0,0,0,0,0,0,504,505,506,103,142,0,0,0,141,105,106,0,0,0,0,0,0,0,0,
135,0,138,392,393,0,0,0,0,0,0,0,0,0,0,0,0,0,0,0,0,0,0,0,135,0,0,0,0,72,72,138,0,0,0,0,0,0,0,0,
135,0,138,424,425,0,0,0,0,0,0,0,0,0,0,0,0,0,0,0,307,308,0,0,135,0,0,0,0,72,72,138,0,0,0,0,0,0,0,0,
135,0,141,106,0,0,0,0,0,0,0,0,0,0,0,0,0,0,0,0,0,0,437,438,135,0,0,0,0,72,72,138,0,0,0,0,0,0,0,0,
135,0,0,138,0,0,0,0,0,0,0,0,0,0,0,0,0,0,0,0,0,0,0,0,135,0,0,0,0,72,169,170,0,0,0,0,0,0,0,0,
135,0,0,141,106,0,0,0,0,0,184,0,0,0,0,0,0,0,0,0,0,0,0,244,0,0,0,0,0,74,201,202,0,0,0,0,0,0,0,0,
135,0,0,0,138,487,0,0,0,0,0,0,0,0,0,0,0,0,0,0,0,0,0,0,0,0,0,0,0,138,233,234,0,0,0,0,0,0,0,0,
135,0,0,0,138,0,0,0,0,0,0,0,0,0,0,0,0,0,0,0,0,0,433,434,0,0,71,0,0,138,265,266,0,0,0,0,0,0,0,0,
135,0,0,0,138,0,0,0,0,0,0,0,0,0,0,0,0,0,0,0,0,0,0,0,0,0,135,0,0,138,297,298,0,0,0,0,0,0,0,0,
135,0,0,0,138,0,0,0,0,0,0,0,0,0,0,0,0,0,0,0,0,0,0,488,0,0,135,0,0,138,0,0,0,0,0,0,0,0,0,0,
135,0,0,0,0,0,0,0,0,0,0,0,0,0,0,0,0,0,0,0,0,0,0,0,0,0,135,0,0,138,0,0,0,0,0,0,0,0,0,0,
135,0,0,0,0,0,0,0,0,0,0,0,0,0,0,0,0,0,0,0,0,0,0,0,0,0,135,0,0,138,0,0,0,0,0,0,0,0,0,0,
135,0,74,0,0,0,0,0,0,0,0,0,0,0,0,0,0,0,0,0,0,0,0,0,0,0,135,0,0,141,105,106,0,0,0,0,0,0,0,0,
135,0,138,0,0,0,0,0,0,0,0,0,0,0,0,0,0,0,0,0,184,0,0,0,0,0,135,0,0,72,72,138,0,0,0,0,0,0,0,0,
135,0,138,0,258,259,0,0,0,0,0,0,0,0,0,0,0,0,0,0,0,0,0,0,330,331,135,0,0,72,72,138,0,0,0,0,0,0,0,0,
135,0,138,0,184,0,0,0,0,0,0,0,0,0,0,0,0,0,0,0,0,0,0,0,362,363,135,0,0,72,72,138,0,0,0,0,0,0,0,0,
135,0,138,250,0,309,310,0,0,0,0,0,0,2147483832,0,0,0,0,0,0,0,0,0,0,0,103,142,0,0,72,169,170,0,0,0,0,0,0,0,0,
135,0,138,0,0,2147483955,0,2147483960,2147483959,0,0,0,0,0,0,0,0,0,0,0,0,0,0,0,103,142,0,0,0,74,201,202,0,0,0,0,0,0,0,0,
135,0,141,106,0,0,0,306,0,0,0,0,0,0,0,0,0,0,0,0,0,0,0,103,142,0,0,0,0,138,233,234,0,0,0,0,0,0,0,0,
135,0,0,141,106,0,0,0,0,0,0,250,0,0,0,0,0,0,0,0,0,0,103,142,0,0,0,0,0,138,265,266,0,0,0,0,0,0,0,0,
135,0,0,0,141,104,105,106,0,437,438,0,0,250,0,0,0,0,103,105,105,104,142,0,0,0,0,0,0,138,297,298,0,0,0,0,0,0,0,0,
167,169,0,0,0,0,0,141,105,106,0,244,184,0,0,103,105,105,142,0,0,0,0,0,0,0,0,0,0,170,0,0,0,0,0,0,0,0,0,0,
199,200,201,0,0,0,0,0,0,141,105,105,105,105,105,142,0,0,0,0,0,0,0,0,0,0,0,200,201,202,0,0,0,0,0,0,0,0,0,0,
80,81,82,168,169,0,0,0,0,0,0,0,0,0,0,0,0,0,0,0,0,168,169,168,169,168,169,81,82,83,0,0,0,0,0,0,0,0,0,0,
112,113,114,200,201,200,0,0,0,0,0,0,0,0,0,0,0,0,0,0,201,200,201,200,201,200,201,113,114,115,0,0,0,0,0,0,0,0,0,0,
144,145,146,81,82,81,168,169,168,169,168,169,168,169,168,169,168,169,168,169,82,81,82,171,172,81,82,145,146,147,0,0,0,0,0,0,0,0,0,0,
176,177,178,113,114,113,200,201,200,201,200,201,200,201,200,201,200,201,200,201,114,113,114,203,204,113,114,177,178,179,0,0,0,0,0,0,0,0,0,0,
208,209,210,145,146,145,107,108,81,82,81,82,81,82,235,82,81,82,81,82,146,145,146,145,146,145,146,209,210,211,0,0,0,0,0,0,0,0,0,0,
240,241,242,177,178,177,139,140,113,114,113,114,113,114,113,114,113,114,113,114,178,177,178,177,178,177,178,241,242,243,0,0,0,0,0,0,0,0,0,0
</data>
 </layer>
 <layer id="17" name="Front2" width="40" height="40">
  <data encoding="csv">
0,0,0,0,0,0,0,0,0,0,0,0,0,0,0,0,0,0,0,0,0,0,0,0,0,0,0,0,0,0,0,0,0,0,0,0,0,0,0,0,
0,0,0,0,0,0,0,0,0,0,0,0,0,0,0,0,0,0,0,0,0,0,0,0,0,0,0,0,0,0,0,0,0,0,0,0,0,0,0,0,
0,0,0,0,0,0,0,0,0,0,0,0,0,0,0,0,0,0,0,0,0,0,0,0,0,0,0,0,0,0,0,0,0,0,0,0,0,0,0,0,
0,0,0,0,0,0,0,2147484075,2147484074,0,0,0,0,0,0,0,0,0,0,0,0,0,0,0,0,0,0,0,0,0,0,0,0,0,0,0,0,0,0,0,
0,0,0,0,0,328,329,2147484107,2147484106,0,0,0,0,0,0,0,0,0,0,0,0,426,427,0,0,0,0,0,0,0,0,0,0,0,0,0,0,0,0,0,
0,0,0,0,0,360,361,0,0,0,0,0,0,0,0,0,0,0,0,0,0,458,459,0,0,0,0,0,0,0,0,0,0,0,0,0,0,0,0,0,
0,0,0,0,0,392,393,0,0,0,0,0,0,0,0,0,0,0,0,0,0,0,0,0,0,0,0,0,0,0,0,0,0,0,0,0,0,0,0,0,
0,0,0,0,0,424,425,0,0,0,0,0,0,0,0,0,0,0,0,0,0,0,0,0,0,0,0,0,0,0,0,0,0,0,0,0,0,0,0,0,
0,0,0,0,0,0,0,0,0,0,0,0,0,0,0,0,0,0,0,0,0,0,0,0,0,0,0,0,0,0,0,0,0,0,0,0,0,0,0,0,
0,0,0,0,0,0,0,0,0,0,0,0,0,0,0,0,0,0,0,0,0,0,0,0,0,0,0,0,0,0,0,0,0,0,0,0,0,0,0,0,
0,0,0,0,0,0,0,0,0,0,0,0,0,0,0,0,0,0,0,0,0,0,0,0,0,0,0,0,0,0,0,0,0,0,0,0,0,0,0,0,
0,0,0,0,0,0,0,0,0,0,0,0,0,0,0,0,0,0,0,0,0,0,0,0,0,0,0,0,0,0,0,0,0,0,0,0,0,0,0,0,
0,0,0,0,0,0,0,0,0,0,0,0,0,0,0,0,0,0,0,0,0,0,0,0,0,0,0,0,0,0,0,0,0,0,0,0,0,0,0,0,
0,0,0,0,330,331,0,0,0,0,0,0,0,0,0,0,0,0,0,0,0,0,0,0,0,0,0,0,0,0,0,0,0,0,0,0,0,0,0,0,
0,0,0,0,362,0,0,0,0,0,0,0,0,0,0,0,0,0,0,0,0,0,0,0,0,0,0,0,0,0,0,0,0,0,0,0,0,0,0,0,
0,0,0,0,0,0,0,0,0,0,0,0,0,0,0,0,0,0,0,0,0,0,0,0,0,0,0,0,0,0,0,0,0,0,0,0,0,0,0,0,
0,0,0,0,0,0,0,0,0,0,0,0,0,0,0,0,0,0,0,0,0,0,0,0,0,0,0,0,0,0,0,0,0,0,0,0,0,0,0,0,
0,0,0,0,0,0,0,0,0,0,0,0,0,0,0,0,0,0,0,0,0,0,0,0,2147484075,2147484074,0,0,0,0,0,0,0,0,0,0,0,0,0,0,
0,0,0,0,0,0,0,0,0,0,0,0,0,0,0,0,0,0,0,0,0,0,0,0,2147484107,2147484106,0,0,0,0,0,0,0,0,0,0,0,0,0,0,
0,0,0,0,0,0,0,0,0,0,0,0,0,0,0,0,0,0,0,0,0,0,0,0,0,0,0,0,0,0,0,0,0,0,0,0,0,0,0,0,
0,0,0,0,0,0,0,0,0,0,0,0,0,0,0,0,0,0,0,0,0,0,0,0,0,0,0,0,0,0,0,0,0,0,0,0,0,0,0,0,
0,0,0,0,0,0,0,0,0,0,0,0,0,0,0,0,0,0,0,0,0,0,0,0,0,0,0,0,0,0,0,0,0,0,0,0,0,0,0,0,
0,0,0,426,427,0,0,0,0,0,0,0,0,0,0,0,0,0,0,0,0,0,0,0,0,0,0,0,0,0,0,0,0,0,0,0,0,0,0,0,
0,0,0,458,459,0,0,0,0,0,0,0,0,0,0,0,0,0,0,0,0,0,0,0,0,0,0,0,0,0,0,0,0,0,0,0,0,0,0,0,
0,0,0,0,0,0,0,0,0,0,0,0,0,0,0,0,0,0,0,0,0,0,0,0,0,0,0,0,0,0,0,0,0,0,0,0,0,0,0,0,
0,0,0,0,0,0,0,0,0,0,0,0,0,0,0,0,0,0,0,0,0,0,0,0,0,0,0,0,0,0,0,0,0,0,0,0,0,0,0,0,
0,0,0,0,0,0,0,0,0,0,0,0,0,0,0,0,0,0,0,0,0,0,0,0,0,0,0,0,0,0,0,0,0,0,0,0,0,0,0,0,
0,0,0,0,0,0,0,0,0,0,0,0,0,0,0,0,0,0,0,0,0,0,0,0,0,0,0,0,0,0,0,0,0,0,0,0,0,0,0,0,
0,0,0,0,0,0,0,0,0,0,0,0,0,0,0,0,0,0,0,0,0,0,0,0,0,0,0,0,0,0,0,0,0,0,0,0,0,0,0,0,
0,0,0,0,0,0,0,0,0,0,0,0,0,0,0,0,0,0,0,0,0,0,0,0,0,0,0,0,0,0,0,0,0,0,0,0,0,0,0,0,
0,0,0,0,0,0,0,0,0,0,0,0,0,0,0,0,0,0,0,0,0,0,0,0,0,0,0,0,0,0,0,0,0,0,0,0,0,0,0,0,
0,0,0,0,0,0,0,0,0,0,0,0,0,0,0,0,0,0,0,0,0,0,0,0,0,0,0,0,0,0,0,0,0,0,0,0,0,0,0,0,
0,0,0,0,0,0,0,0,0,0,0,0,0,0,0,0,0,0,0,0,0,0,0,0,0,0,0,0,0,0,0,0,0,0,0,0,0,0,0,0,
199,0,71,0,0,0,0,0,0,0,0,0,0,0,0,0,0,0,0,0,0,0,0,0,0,0,0,74,0,0,0,0,0,0,0,0,0,0,0,0,
80,0,167,0,0,0,0,0,0,0,0,0,0,0,0,0,0,0,0,0,0,0,0,0,0,0,0,170,0,0,0,0,0,0,0,0,0,0,0,0,
112,0,199,0,0,71,0,0,0,0,0,0,0,0,0,0,0,0,0,0,74,0,0,0,0,0,0,202,0,0,0,0,0,0,0,0,0,0,0,0,
144,0,80,0,0,167,0,0,0,0,0,0,0,0,0,0,0,0,0,0,170,0,0,0,0,0,0,83,0,0,0,0,0,0,0,0,0,0,0,0,
176,0,112,0,0,199,0,0,0,0,0,0,0,0,0,0,0,0,0,0,202,0,0,0,0,0,0,115,0,0,0,0,0,0,0,0,0,0,0,0,
208,0,144,0,0,80,0,0,0,0,0,0,0,0,0,0,0,0,0,0,83,0,0,0,0,0,0,147,0,0,0,0,0,0,0,0,0,0,0,0,
240,0,176,0,0,112,0,0,0,0,0,0,0,0,0,0,0,0,0,0,115,0,0,0,0,0,0,179,0,0,0,0,0,0,0,0,0,0,0,0
</data>
 </layer>
 <layer id="8" name="Paths" width="40" height="40">
  <data encoding="csv">
0,0,0,0,0,0,0,0,0,0,0,0,0,0,0,0,0,0,0,0,0,0,0,0,0,0,0,0,0,0,0,0,0,0,0,0,0,0,0,0,
0,0,0,0,0,0,0,0,0,0,0,0,0,0,0,0,0,0,0,0,0,0,0,0,0,0,0,0,0,0,0,0,0,0,0,0,0,0,0,0,
0,0,0,0,0,0,0,0,0,0,0,0,0,0,0,0,0,0,0,0,0,0,0,0,0,0,0,0,0,0,0,0,0,0,0,0,0,0,0,0,
0,0,0,0,0,0,0,0,0,0,0,0,0,0,0,0,0,0,0,0,0,0,0,0,0,0,0,0,0,0,0,0,0,0,0,0,0,0,0,0,
0,0,0,0,0,0,0,0,0,0,0,0,0,0,0,0,0,0,0,0,0,0,0,0,0,0,0,0,0,0,0,0,0,0,0,0,0,0,0,0,
0,0,0,0,0,0,0,0,0,0,0,0,0,0,0,0,0,0,0,0,0,0,0,0,0,0,0,0,0,0,0,0,0,0,0,0,0,0,0,0,
0,0,0,0,0,0,0,0,0,0,0,0,0,0,0,0,0,0,0,0,0,0,0,0,0,0,0,0,0,0,0,0,0,0,0,0,0,0,0,0,
0,0,0,0,0,0,0,0,0,0,0,0,0,0,0,0,0,0,0,0,0,0,0,0,0,0,0,0,0,0,0,0,0,0,0,0,0,0,0,0,
0,0,0,0,0,0,0,0,0,0,9,0,37,37,37,0,0,0,0,0,9,0,0,0,0,0,0,0,0,0,0,0,0,0,0,0,0,0,0,0,
0,0,0,0,9,0,0,0,0,0,0,0,37,0,37,37,0,0,0,0,0,0,0,0,0,0,0,0,0,0,0,0,0,0,0,0,0,0,0,0,
0,0,0,0,0,0,9,0,0,0,0,0,0,0,37,37,37,0,0,0,0,0,0,0,0,0,0,0,0,0,0,0,0,0,0,0,0,0,0,0,
0,0,0,0,0,0,0,0,0,0,0,0,0,0,0,37,0,0,0,0,0,0,0,0,0,0,0,0,0,0,0,0,0,0,0,0,0,0,0,0,
0,0,0,0,0,0,0,37,37,37,0,0,0,0,0,0,0,0,0,0,0,0,0,0,0,0,0,0,0,0,0,0,0,0,0,0,0,0,0,0,
0,0,0,0,0,0,0,37,0,37,0,0,9,0,0,0,37,37,0,0,0,0,0,0,0,0,0,0,0,0,0,0,0,0,0,0,0,0,0,0,
0,0,0,0,0,0,0,37,37,37,37,0,0,0,0,37,37,37,0,0,0,0,0,0,0,0,0,0,0,0,0,0,0,0,0,0,0,0,0,0,
0,0,0,0,0,0,0,0,37,0,0,0,0,0,0,37,37,37,37,0,0,0,0,0,0,0,0,0,0,0,0,0,0,0,0,0,0,0,0,0,
0,0,0,0,0,0,0,0,37,0,0,0,0,0,0,0,37,0,0,0,0,0,0,0,0,0,0,0,0,0,0,0,0,0,0,0,0,0,0,0,
0,0,0,0,0,0,0,0,0,0,0,0,0,0,0,0,0,0,0,0,0,0,9,0,0,0,0,0,0,0,0,0,0,0,0,0,0,0,0,0,
0,0,0,0,0,0,0,0,0,0,0,0,0,0,0,0,0,0,0,0,37,0,0,0,0,0,0,0,0,0,0,0,0,0,0,0,0,0,0,0,
0,0,0,0,0,0,0,0,0,0,0,0,0,0,0,0,0,0,0,0,37,37,0,0,0,0,0,0,0,0,0,0,0,0,0,0,0,0,0,0,
0,0,0,0,0,37,37,0,0,0,0,0,0,0,0,0,0,0,0,0,0,0,0,0,0,0,0,0,0,0,0,0,0,0,0,0,0,0,0,0,
0,0,0,0,0,37,0,37,0,0,0,0,0,0,0,0,0,0,0,0,0,0,0,0,0,0,0,0,0,0,0,0,0,0,0,0,0,0,0,0,
0,0,0,0,0,37,37,37,0,0,0,0,0,0,0,0,0,0,0,0,0,37,37,0,0,0,0,0,0,0,0,0,0,0,0,0,0,0,0,0,
0,0,0,0,0,0,37,37,0,0,0,0,0,0,0,0,0,0,0,0,0,0,37,37,0,9,0,0,0,0,0,0,0,0,0,0,0,0,0,0,
0,0,0,0,0,0,0,0,0,0,0,0,0,0,0,0,0,0,0,0,0,0,37,37,0,0,0,0,0,0,0,0,0,0,0,0,0,0,0,0,
0,0,0,0,0,0,0,0,37,37,0,0,9,0,0,0,0,0,0,0,0,0,37,37,0,0,0,0,0,0,0,0,0,0,0,0,0,0,0,0,
0,0,0,0,0,0,0,0,0,37,0,0,0,0,0,0,0,0,0,0,0,0,0,0,0,0,0,0,0,0,0,0,0,0,0,0,0,0,0,0,
0,0,0,0,0,0,0,0,0,37,37,0,0,0,0,0,0,0,0,0,0,0,0,9,0,0,0,0,0,0,0,0,0,0,0,0,0,0,0,0,
0,0,0,0,0,0,0,0,9,0,37,0,0,0,0,0,0,0,0,37,37,0,0,0,0,0,0,0,0,0,0,0,0,0,0,0,0,0,0,0,
0,0,0,0,0,0,0,0,0,0,0,0,0,37,37,37,0,0,37,37,0,0,0,0,0,0,0,0,0,0,0,0,0,0,0,0,0,0,0,0,
0,0,0,0,0,0,0,0,0,0,0,0,0,0,37,37,37,37,37,0,0,0,0,0,0,0,0,0,0,0,0,0,0,0,0,0,0,0,0,0,
0,0,0,0,0,0,0,0,0,0,0,0,0,0,0,37,37,0,0,0,0,0,0,0,0,0,0,0,0,0,0,0,0,0,0,0,0,0,0,0,
0,0,0,0,0,0,0,0,0,0,0,0,0,0,0,0,0,0,0,0,0,0,0,0,0,0,0,0,0,0,0,0,0,0,0,0,0,0,0,0,
0,0,0,0,0,0,0,0,0,0,0,0,0,9,0,0,0,0,0,0,0,0,0,0,0,0,0,0,0,0,0,0,0,0,0,0,0,0,0,0,
0,0,0,0,0,0,0,0,0,0,0,0,0,0,0,0,0,0,0,0,0,0,0,0,0,0,0,0,0,0,0,0,0,0,0,0,0,0,0,0,
0,0,0,0,0,0,0,0,0,0,0,0,0,0,0,0,0,0,0,0,0,0,0,0,0,0,0,0,0,0,0,0,0,0,0,0,0,0,0,0,
0,0,0,0,0,0,0,0,0,0,0,0,0,0,0,0,0,0,0,0,0,0,0,0,0,0,0,0,0,0,0,0,0,0,0,0,0,0,0,0,
0,0,28,0,0,0,0,0,0,0,0,0,0,0,0,0,0,0,0,0,0,0,0,0,0,0,0,28,0,0,0,0,0,0,0,0,0,0,0,0,
0,0,0,0,0,0,0,0,0,0,0,0,0,0,0,0,0,0,0,0,0,0,0,0,0,0,0,0,0,0,0,0,0,0,0,0,0,0,0,0,
0,0,0,0,0,0,0,0,0,0,0,0,0,0,0,0,0,0,0,0,0,0,0,0,0,0,0,0,0,0,0,0,0,0,0,0,0,0,0,0
</data>
 </layer>
 <layer id="7" name="AlwaysFront" width="40" height="40">
  <data encoding="csv">
0,0,0,0,0,0,0,0,0,0,0,0,0,0,0,0,0,0,0,0,0,0,0,0,0,0,0,0,0,0,0,0,0,0,0,0,0,0,0,0,
0,0,0,0,0,0,0,0,0,0,0,0,0,0,0,0,0,0,0,0,0,0,0,486,0,0,0,0,0,0,0,0,0,0,0,0,0,0,0,0,
0,0,0,0,0,0,0,483,0,0,484,0,0,0,0,0,0,0,0,0,0,0,0,0,0,0,0,0,0,0,0,0,0,0,0,0,0,0,0,0,
0,0,0,0,0,0,0,0,0,0,0,486,0,0,0,0,0,0,0,484,0,0,0,0,0,0,0,0,0,0,0,0,0,0,0,0,0,0,0,0,
0,0,0,0,0,0,0,0,0,0,0,0,0,0,0,0,0,0,481,0,0,0,0,0,0,0,0,0,0,0,0,0,0,0,0,0,0,0,0,0,
0,0,0,0,0,0,0,0,0,0,0,0,0,0,0,0,0,0,0,0,0,0,0,0,0,0,0,0,0,0,0,0,0,0,0,0,0,0,0,0,
0,0,0,0,0,0,0,0,0,0,0,0,0,0,0,0,0,0,0,0,0,0,0,0,0,0,0,0,0,0,0,0,0,0,0,0,0,0,0,0,
0,0,0,0,0,0,0,0,0,0,0,0,0,0,0,0,0,0,0,0,0,0,0,0,0,0,0,0,0,0,0,0,0,0,0,0,0,0,0,0,
0,0,0,0,0,0,0,0,0,0,0,0,0,0,0,0,0,0,0,0,0,0,0,0,0,0,0,0,0,0,0,0,0,0,0,0,0,0,0,0,
0,0,0,0,0,0,0,0,0,0,0,0,0,0,0,484,0,0,0,0,0,0,0,0,0,0,486,0,0,0,0,0,0,0,0,0,0,0,0,0,
0,0,0,0,0,0,0,0,0,0,0,0,0,0,0,0,0,0,0,0,0,0,0,0,0,0,0,0,0,0,0,0,0,0,0,0,0,0,0,0,
0,0,0,0,0,0,0,0,0,0,0,0,0,0,0,0,483,0,0,0,0,0,0,0,0,0,0,0,481,0,0,0,0,0,0,0,0,0,0,0,
0,0,0,0,0,0,0,0,0,0,0,0,0,486,0,0,0,0,0,0,0,0,0,0,0,0,0,0,0,0,0,0,0,0,0,0,0,0,0,0,
0,483,0,0,0,0,0,0,0,0,0,0,481,0,0,0,0,0,0,0,0,0,0,0,0,0,0,484,0,0,0,0,0,0,0,0,0,0,0,0,
0,0,0,0,0,0,0,0,0,0,0,0,0,0,0,0,0,0,0,0,0,0,0,0,0,0,0,0,0,0,0,0,0,0,0,0,0,0,0,0,
0,0,0,0,0,0,0,0,0,0,0,0,0,0,0,0,0,0,0,0,0,0,0,0,0,0,0,0,0,0,0,0,0,0,0,0,0,0,0,0,
0,0,0,0,0,0,0,0,0,0,0,0,0,0,0,0,0,0,0,0,0,0,0,0,0,0,0,0,0,0,0,0,0,0,0,0,0,0,0,0,
0,0,486,0,0,0,0,0,0,0,0,0,0,0,0,0,0,0,0,0,484,0,0,0,481,0,0,0,0,0,0,0,0,0,0,0,0,0,0,0,
0,0,0,0,0,0,0,0,0,0,0,0,0,0,0,0,0,0,0,0,0,0,0,0,0,0,0,0,0,0,0,0,0,0,0,0,0,0,0,0,
0,0,481,0,0,0,0,0,0,0,0,0,0,0,0,0,0,0,0,0,0,0,0,0,0,0,0,0,0,0,0,0,0,0,0,0,0,0,0,0,
0,484,0,0,0,0,0,0,0,0,0,0,0,484,0,0,0,0,0,0,0,0,0,0,0,0,0,0,0,0,0,0,0,0,0,0,0,0,0,0,
0,0,0,486,0,0,0,0,0,0,0,0,0,0,486,0,0,0,0,481,0,0,0,0,0,0,0,0,486,0,0,0,0,0,0,0,0,0,0,0,
0,0,0,0,0,0,0,0,0,0,0,0,0,0,0,0,0,0,0,0,0,0,0,0,0,0,0,0,0,0,0,0,0,0,0,0,0,0,0,0,
0,0,0,0,0,0,0,0,0,0,0,0,0,0,0,0,484,0,0,0,0,0,0,0,0,0,0,0,0,484,0,0,0,0,0,0,0,0,0,0,
0,0,0,0,0,0,0,0,0,0,0,0,0,0,0,481,0,0,0,0,0,0,0,0,0,0,0,0,0,0,0,0,0,0,0,0,0,0,0,0,
0,0,0,0,0,0,0,0,0,0,0,0,483,0,0,0,0,0,0,0,0,0,0,0,0,0,0,0,0,0,0,0,0,0,0,0,0,0,0,0,
0,0,0,0,0,0,0,0,0,0,0,0,0,0,0,0,0,0,0,0,0,0,0,0,0,0,0,0,0,0,0,0,0,0,0,0,0,0,0,0,
0,0,0,0,0,0,0,0,0,0,0,0,0,0,0,0,0,0,0,0,0,0,0,481,0,486,0,0,0,0,0,0,0,0,0,0,0,0,0,0,
0,0,0,0,0,0,0,0,0,0,0,0,0,0,0,0,0,0,0,0,0,0,0,0,0,0,0,0,484,0,0,0,0,0,0,0,0,0,0,0,
0,0,0,0,0,0,0,0,0,0,0,0,0,0,0,0,0,0,0,0,0,0,0,0,0,0,0,0,0,0,0,0,0,0,0,0,0,0,0,0,
0,0,483,0,0,0,0,0,0,0,0,0,0,0,0,0,0,0,0,0,0,0,0,0,0,0,0,0,0,0,0,0,0,0,0,0,0,0,0,0,
0,0,0,0,0,0,0,0,0,0,0,0,0,0,0,0,0,0,0,0,0,0,0,0,0,0,483,0,0,0,0,0,0,0,0,0,0,0,0,0,
0,0,0,0,481,0,0,0,0,0,0,0,0,0,0,0,0,0,0,0,0,0,0,0,0,484,0,0,486,0,0,0,0,0,0,0,0,0,0,0,
0,0,0,0,0,484,0,0,0,0,0,0,0,0,0,0,0,0,486,0,0,0,0,0,0,0,0,0,0,0,0,0,0,0,0,0,0,0,0,0,
0,2147484075,2147484074,486,0,0,0,0,0,0,0,0,0,0,0,481,0,0,0,0,0,0,0,0,0,0,0,426,427,0,0,0,0,0,0,0,0,0,0,0,
0,2147484107,2147484106,0,0,0,0,0,0,0,0,0,0,0,486,0,0,0,0,0,0,0,0,0,0,0,0,458,459,0,0,0,0,0,0,0,0,0,0,0,
0,0,0,0,0,0,0,426,427,0,0,0,0,0,0,0,0,0,0,0,0,0,0,0,0,0,0,0,0,0,0,0,0,0,0,0,0,0,0,0,
0,0,0,0,0,0,0,458,459,0,0,0,0,0,0,0,0,2147484075,2147484074,0,0,0,0,0,0,0,0,0,0,0,0,0,0,0,0,0,0,0,0,0,
0,0,0,0,0,0,0,0,0,0,0,0,0,0,0,0,0,2147484107,2147484106,0,0,0,0,0,0,0,0,0,0,0,0,0,0,0,0,0,0,0,0,0,
0,0,0,0,0,0,0,0,0,0,0,0,0,0,0,0,0,0,0,0,0,0,0,0,0,0,0,0,0,0,0,0,0,0,0,0,0,0,0,0
</data>
 </layer>
 <layer id="6" name="AlwaysFront2" width="40" height="40">
  <data encoding="csv">
0,0,0,0,0,0,0,0,0,0,0,0,0,0,0,0,0,0,0,0,0,0,0,0,0,0,0,0,0,0,0,0,0,0,0,0,0,0,0,0,
0,0,0,0,0,0,0,0,0,0,0,0,0,0,0,0,0,0,0,0,0,0,0,0,0,0,0,0,0,0,0,0,0,0,0,0,0,0,0,0,
0,0,0,0,0,0,0,0,0,0,0,0,0,0,0,0,0,0,0,0,0,0,0,0,0,0,0,0,0,0,0,0,0,0,0,0,0,0,0,0,
0,0,0,0,0,0,0,0,0,0,0,0,0,0,0,0,0,0,0,0,0,0,0,0,0,0,0,0,0,0,0,0,0,0,0,0,0,0,0,0,
0,0,0,0,0,0,0,0,0,0,0,0,0,0,0,0,0,0,0,0,0,0,0,0,0,0,0,0,0,0,0,0,0,0,0,0,0,0,0,0,
0,0,0,0,0,0,0,0,0,0,0,0,0,0,0,0,0,0,0,0,0,0,0,0,0,0,0,0,0,0,0,0,0,0,0,0,0,0,0,0,
0,0,0,0,0,0,0,0,0,0,0,0,0,0,0,0,0,0,0,0,0,0,0,0,0,0,0,0,0,0,0,0,0,0,0,0,0,0,0,0,
0,0,0,0,0,0,0,0,0,0,0,0,0,0,0,0,0,0,0,0,0,0,0,0,0,0,0,0,0,0,0,0,0,0,0,0,0,0,0,0,
0,0,0,0,0,0,0,0,0,0,0,0,0,0,0,0,0,0,0,0,0,0,0,0,0,0,0,0,0,0,0,0,0,0,0,0,0,0,0,0,
0,0,0,0,0,0,0,0,0,0,0,0,0,0,0,0,0,0,0,0,0,0,0,0,0,0,0,0,0,0,0,0,0,0,0,0,0,0,0,0,
0,0,0,0,0,0,0,0,0,0,0,0,0,0,0,0,0,0,0,0,0,0,0,0,0,0,0,0,0,0,0,0,0,0,0,0,0,0,0,0,
0,0,0,0,0,0,0,0,0,0,0,0,0,0,0,0,0,0,0,0,0,0,0,0,0,0,0,0,0,0,0,0,0,0,0,0,0,0,0,0,
0,0,0,0,0,0,0,0,0,0,0,0,0,0,0,0,0,0,0,0,0,0,0,0,0,0,0,0,0,0,0,0,0,0,0,0,0,0,0,0,
0,0,0,0,0,0,0,0,0,0,0,0,0,0,0,0,0,0,0,0,0,0,0,0,0,0,0,0,0,0,0,0,0,0,0,0,0,0,0,0,
0,0,0,0,0,0,0,0,0,0,0,0,0,0,0,0,0,0,0,0,0,0,0,0,0,0,0,0,0,0,0,0,0,0,0,0,0,0,0,0,
0,0,0,0,0,0,0,0,0,0,0,0,0,0,0,0,0,0,0,0,0,0,0,0,0,0,0,0,0,0,0,0,0,0,0,0,0,0,0,0,
0,0,0,0,0,0,0,0,0,0,0,0,0,0,0,0,0,0,0,0,0,0,0,0,0,0,0,0,0,0,0,0,0,0,0,0,0,0,0,0,
0,0,0,0,0,0,0,0,0,0,0,0,0,0,0,0,0,0,0,0,0,0,0,0,0,0,0,0,0,0,0,0,0,0,0,0,0,0,0,0,
0,0,0,0,0,0,0,0,0,0,0,0,0,0,0,0,0,0,0,0,0,0,0,0,0,0,0,0,0,0,0,0,0,0,0,0,0,0,0,0,
0,0,0,0,0,0,0,0,0,0,0,0,0,0,0,0,0,0,0,0,0,0,0,0,0,0,0,0,0,0,0,0,0,0,0,0,0,0,0,0,
0,0,0,0,0,0,0,0,0,0,0,0,0,0,0,0,0,0,0,0,0,0,0,0,0,0,0,0,0,0,0,0,0,0,0,0,0,0,0,0,
0,0,0,0,0,0,0,0,0,0,0,0,0,0,0,0,0,0,0,0,0,0,0,0,0,0,0,0,0,0,0,0,0,0,0,0,0,0,0,0,
0,0,0,0,0,0,0,0,0,0,0,0,0,0,0,0,0,0,0,0,0,0,0,0,0,0,0,0,0,0,0,0,0,0,0,0,0,0,0,0,
0,0,0,0,0,0,0,0,0,0,0,0,0,0,0,0,0,0,0,0,0,0,0,0,0,0,0,0,0,0,0,0,0,0,0,0,0,0,0,0,
0,0,0,0,0,0,0,0,0,0,0,0,0,0,0,0,0,0,0,0,0,0,0,0,0,0,0,0,0,0,0,0,0,0,0,0,0,0,0,0,
0,0,0,0,0,0,0,0,0,0,0,0,0,0,0,0,0,0,0,0,0,0,0,0,0,0,0,0,0,0,0,0,0,0,0,0,0,0,0,0,
0,0,0,0,0,0,0,0,0,0,0,0,0,0,0,0,0,0,0,0,0,0,0,0,0,0,0,0,0,0,0,0,0,0,0,0,0,0,0,0,
0,0,0,0,0,0,0,0,0,0,0,0,0,0,0,0,0,0,0,0,0,0,0,0,0,0,0,0,0,0,0,0,0,0,0,0,0,0,0,0,
0,0,0,0,0,0,0,0,0,0,0,0,0,0,0,0,0,0,0,0,0,0,0,0,0,0,0,0,0,0,0,0,0,0,0,0,0,0,0,0,
0,0,0,0,0,0,0,0,0,0,0,0,0,0,0,0,0,0,0,0,0,0,0,0,0,0,0,0,0,0,0,0,0,0,0,0,0,0,0,0,
0,0,0,0,0,0,0,0,0,0,0,0,0,0,0,0,0,0,0,0,0,0,0,0,0,0,0,0,0,0,0,0,0,0,0,0,0,0,0,0,
0,0,0,0,0,0,0,0,0,0,0,0,0,0,0,0,0,0,0,0,0,0,0,0,0,0,0,0,0,0,0,0,0,0,0,0,0,0,0,0,
0,0,0,0,0,0,0,0,0,0,0,0,0,0,0,0,0,0,0,0,0,0,0,0,0,0,0,0,0,0,0,0,0,0,0,0,0,0,0,0,
0,0,0,0,0,0,0,0,0,0,0,0,0,0,0,0,0,0,0,0,0,0,0,0,0,0,0,0,0,0,0,0,0,0,0,0,0,0,0,0,
0,0,0,0,0,0,0,0,0,0,0,0,0,0,0,0,0,0,0,0,0,0,0,0,0,0,0,0,0,0,0,0,0,0,0,0,0,0,0,0,
0,0,0,0,0,0,0,0,0,0,0,0,0,0,0,0,0,0,0,0,0,0,0,0,0,0,0,0,0,0,0,0,0,0,0,0,0,0,0,0,
0,0,0,0,0,0,0,0,0,0,0,0,0,0,0,0,0,0,0,0,0,0,0,0,0,0,0,0,0,0,0,0,0,0,0,0,0,0,0,0,
0,0,0,0,0,0,0,0,0,0,0,0,0,0,0,0,0,0,0,0,0,0,0,0,0,0,0,0,0,0,0,0,0,0,0,0,0,0,0,0,
0,0,0,0,0,0,0,0,0,0,0,0,0,0,0,0,0,0,0,0,0,0,0,0,0,0,0,0,0,0,0,0,0,0,0,0,0,0,0,0,
0,0,0,0,0,0,0,0,0,0,0,0,0,0,0,0,0,0,0,0,0,0,0,0,0,0,0,0,0,0,0,0,0,0,0,0,0,0,0,0
</data>
 </layer>
 <objectgroup id="9" name="Back"/>
 <objectgroup id="10" name="Back2"/>
 <objectgroup id="19" name="Back3"/>
 <objectgroup id="11" name="Buildings"/>
 <objectgroup id="12" name="Buildings2"/>
 <objectgroup id="13" name="Front"/>
 <objectgroup id="20" name="Front2"/>
 <objectgroup id="16" name="Paths"/>
 <objectgroup id="14" name="AlwaysFront"/>
 <objectgroup id="15" name="AlwaysFront2"/>
</map>
