<?xml version="1.0" encoding="UTF-8"?>
<map version="1.10" tiledversion="1.11.2" orientation="orthogonal" renderorder="right-down" compressionlevel="0" width="40" height="40" tilewidth="16" tileheight="16" infinite="0" nextlayerid="23" nextobjectid="54">
 <properties>
  <property name="AllowGrassSurviveInWinter" value="T"/>
  <property name="BrookSounds" value="0 0 0 28 17 0 23 26 0 1 38 0"/>
  <property name="Light" value="6 0 4 7 1 4 26 0 4 25 1 4 24 2 4 19 8 4 20 9 4 2 13 4 3 14 4 24 15 4 26 20 4 25 21 4 23 29 4 25 30 4 14 29 4 15 31 4 5 26 4 7 32 4 13 35 4 12 36 4"/>
  <property name="LocationContext" value="VoidWitchCult.CP.TheFishmongerNPC_DeepSeaPassOut"/>
  <property name="Outdoors" value="T"/>
  <property name="SeasonOverride" value="summer"/>
 </properties>
 <tileset firstgid="1" name="paths" tilewidth="16" tileheight="16" tilecount="64" columns="4">
  <image source=".paths.png" width="64" height="256"/>
 </tileset>
 <tileset firstgid="65" name=".VWCF_LostIsland_Underwater_tainted" tilewidth="16" tileheight="16" tilecount="832" columns="32">
  <image source=".VWCF_LostIsland_Underwater_tainted.png" width="512" height="416"/>
  <tile id="0">
   <properties>
    <property name="Type" value="Stone"/>
   </properties>
  </tile>
  <tile id="1">
   <properties>
    <property name="Type" value="Stone"/>
   </properties>
  </tile>
  <tile id="2">
   <properties>
    <property name="Type" value="Stone"/>
   </properties>
  </tile>
  <tile id="3">
   <properties>
    <property name="Type" value="Stone"/>
   </properties>
  </tile>
  <tile id="4">
   <properties>
    <property name="Type" value="Stone"/>
   </properties>
  </tile>
  <tile id="5">
   <properties>
    <property name="Type" value="Dirt"/>
   </properties>
  </tile>
  <tile id="7">
   <properties>
    <property name="Type" value="Stone"/>
   </properties>
  </tile>
  <tile id="8">
   <properties>
    <property name="Type" value="Stone"/>
   </properties>
  </tile>
  <tile id="10">
   <properties>
    <property name="Spawnable" value="T"/>
    <property name="Type" value="Dirt"/>
   </properties>
  </tile>
  <tile id="19">
   <animation>
    <frame tileid="19" duration="500"/>
    <frame tileid="20" duration="500"/>
    <frame tileid="21" duration="500"/>
    <frame tileid="22" duration="500"/>
    <frame tileid="23" duration="500"/>
    <frame tileid="24" duration="500"/>
    <frame tileid="25" duration="500"/>
    <frame tileid="24" duration="500"/>
    <frame tileid="23" duration="500"/>
    <frame tileid="22" duration="500"/>
    <frame tileid="21" duration="500"/>
    <frame tileid="20" duration="500"/>
   </animation>
  </tile>
  <tile id="32">
   <properties>
    <property name="Type" value="Stone"/>
   </properties>
  </tile>
  <tile id="33">
   <properties>
    <property name="Spawnable" value="T"/>
    <property name="Type" value="Stone"/>
   </properties>
  </tile>
  <tile id="34">
   <properties>
    <property name="Type" value="Stone"/>
   </properties>
  </tile>
  <tile id="35">
   <properties>
    <property name="Type" value="Stone"/>
   </properties>
  </tile>
  <tile id="36">
   <properties>
    <property name="Type" value="Stone"/>
   </properties>
  </tile>
  <tile id="37">
   <properties>
    <property name="Type" value="Dirt"/>
    <property name="Water" value="I"/>
   </properties>
  </tile>
  <tile id="64">
   <properties>
    <property name="Type" value="Stone"/>
   </properties>
  </tile>
  <tile id="65">
   <properties>
    <property name="Type" value="Stone"/>
   </properties>
  </tile>
  <tile id="66">
   <properties>
    <property name="Type" value="Stone"/>
   </properties>
  </tile>
  <tile id="67">
   <properties>
    <property name="Type" value="Stone"/>
   </properties>
  </tile>
  <tile id="68">
   <properties>
    <property name="Type" value="Stone"/>
   </properties>
  </tile>
  <tile id="96">
   <properties>
    <property name="Type" value="Stone"/>
   </properties>
  </tile>
  <tile id="97">
   <properties>
    <property name="Type" value="Stone"/>
   </properties>
  </tile>
  <tile id="98">
   <properties>
    <property name="Type" value="Stone"/>
   </properties>
  </tile>
  <tile id="99">
   <properties>
    <property name="Type" value="Stone"/>
   </properties>
  </tile>
  <tile id="100">
   <properties>
    <property name="Type" value="Stone"/>
   </properties>
  </tile>
  <tile id="128">
   <properties>
    <property name="Type" value="Stone"/>
   </properties>
  </tile>
  <tile id="129">
   <properties>
    <property name="Spawnable" value="T"/>
    <property name="Type" value="Stone"/>
   </properties>
  </tile>
  <tile id="130">
   <properties>
    <property name="Type" value="Stone"/>
   </properties>
  </tile>
  <tile id="131">
   <properties>
    <property name="Spawnable" value="T"/>
    <property name="Type" value="Stone"/>
   </properties>
  </tile>
  <tile id="132">
   <properties>
    <property name="Spawnable" value="T"/>
    <property name="Type" value="Stone"/>
   </properties>
  </tile>
  <tile id="160">
   <properties>
    <property name="Type" value="Stone"/>
   </properties>
  </tile>
  <tile id="161">
   <properties>
    <property name="Type" value="Stone"/>
   </properties>
  </tile>
  <tile id="162">
   <properties>
    <property name="Type" value="Stone"/>
   </properties>
  </tile>
  <tile id="163">
   <properties>
    <property name="Spawnable" value="T"/>
    <property name="Type" value="Stone"/>
   </properties>
  </tile>
  <tile id="164">
   <properties>
    <property name="Spawnable" value="T"/>
    <property name="Type" value="Stone"/>
   </properties>
  </tile>
  <tile id="416">
   <animation>
    <frame tileid="416" duration="300"/>
    <frame tileid="417" duration="300"/>
    <frame tileid="418" duration="300"/>
    <frame tileid="416" duration="300"/>
   </animation>
  </tile>
  <tile id="418">
   <animation>
    <frame tileid="418" duration="300"/>
    <frame tileid="417" duration="300"/>
    <frame tileid="416" duration="300"/>
    <frame tileid="417" duration="300"/>
   </animation>
  </tile>
  <tile id="419">
   <animation>
    <frame tileid="419" duration="300"/>
    <frame tileid="420" duration="300"/>
    <frame tileid="421" duration="300"/>
    <frame tileid="420" duration="300"/>
   </animation>
  </tile>
  <tile id="421">
   <animation>
    <frame tileid="421" duration="300"/>
    <frame tileid="420" duration="300"/>
    <frame tileid="419" duration="300"/>
    <frame tileid="420" duration="300"/>
   </animation>
  </tile>
  <tile id="448">
   <animation>
    <frame tileid="448" duration="300"/>
    <frame tileid="449" duration="300"/>
    <frame tileid="450" duration="300"/>
    <frame tileid="449" duration="300"/>
   </animation>
  </tile>
  <tile id="450">
   <animation>
    <frame tileid="450" duration="300"/>
    <frame tileid="449" duration="300"/>
    <frame tileid="448" duration="300"/>
    <frame tileid="449" duration="300"/>
   </animation>
  </tile>
 </tileset>
 <layer id="1" name="Back" width="40" height="40">
  <data encoding="csv">
75,75,72,72,75,75,75,75,75,75,75,75,75,75,75,75,75,75,75,75,75,75,75,75,75,75,75,75,75,75,75,75,0,0,0,0,0,0,0,0,
75,75,72,72,75,75,75,75,75,75,75,75,75,75,75,75,75,75,75,75,75,75,75,75,75,75,75,75,75,75,75,75,0,0,0,0,0,0,0,0,
75,75,72,72,75,75,75,75,75,75,75,75,75,75,75,75,75,75,75,75,75,75,75,75,75,75,75,75,75,75,75,0,0,0,0,0,0,0,0,0,
75,72,72,75,75,75,75,75,75,75,75,75,75,75,75,75,75,75,75,75,75,75,75,75,75,75,75,75,75,75,75,0,0,0,0,0,0,0,0,0,
75,72,75,75,75,75,75,75,75,75,75,75,75,75,75,75,75,75,75,75,75,75,75,75,75,75,75,75,75,75,0,0,0,0,0,0,0,0,0,0,
75,72,75,75,75,75,75,75,75,75,75,75,75,75,75,75,75,75,75,75,75,75,75,75,75,75,75,75,75,75,0,0,0,0,0,0,0,0,0,0,
72,72,75,75,75,75,75,75,75,75,75,75,75,75,75,75,75,75,75,75,75,75,75,75,75,75,75,75,75,72,0,0,0,0,0,0,0,0,0,0,
72,75,75,75,75,75,75,75,75,75,75,75,75,75,75,75,75,75,75,75,75,75,75,75,75,75,75,72,72,72,0,0,0,0,0,0,0,0,0,0,
72,75,75,75,75,75,75,75,75,75,75,75,75,75,75,75,75,75,75,75,75,75,75,75,75,72,72,72,72,75,0,0,0,0,0,0,0,0,0,0,
72,75,75,75,75,75,75,75,75,75,75,75,75,75,75,75,75,75,75,75,75,75,72,72,72,72,72,75,75,75,0,0,0,0,0,0,0,0,0,0,
75,75,75,75,75,75,75,75,75,75,75,75,75,75,75,75,75,75,75,75,75,72,72,72,75,75,75,75,75,75,0,0,0,0,0,0,0,0,0,0,
75,75,75,75,75,75,75,75,75,75,75,75,75,75,75,75,75,75,75,75,72,72,72,75,75,75,75,75,75,75,0,0,0,0,0,0,0,0,0,0,
75,75,75,75,75,75,75,75,75,75,75,75,75,75,75,75,75,75,75,72,72,72,75,75,75,75,75,75,75,75,0,0,0,0,0,0,0,0,0,0,
75,75,75,75,75,75,75,75,75,75,75,75,75,75,75,75,75,72,72,72,75,75,75,75,75,75,75,75,75,75,0,0,0,0,0,0,0,0,0,0,
75,75,75,75,75,75,75,75,75,75,75,75,75,75,75,75,72,72,72,75,75,75,75,75,75,75,75,75,75,75,0,0,0,0,0,0,0,0,0,0,
75,75,75,75,75,75,75,75,75,75,75,75,75,75,75,75,72,72,72,75,75,75,75,75,75,75,75,75,75,75,0,0,0,0,0,0,0,0,0,0,
75,75,75,75,75,75,75,75,75,75,75,75,75,75,75,75,75,72,72,75,75,75,75,75,75,75,75,75,75,75,0,0,0,0,0,0,0,0,0,0,
75,75,75,75,75,75,75,75,75,75,75,75,75,75,75,75,75,75,72,75,75,75,75,75,75,75,75,75,75,75,0,0,0,0,0,0,0,0,0,0,
72,75,75,75,75,75,75,75,75,75,75,75,75,75,75,75,75,75,72,75,75,75,75,75,75,75,75,75,75,75,0,0,0,0,0,0,0,0,0,0,
72,75,75,75,75,75,75,75,75,75,75,75,75,75,75,75,75,75,72,75,75,75,75,75,75,75,75,75,75,75,0,0,0,0,0,0,0,0,0,0,
72,75,75,75,75,75,75,75,75,75,75,75,75,75,75,75,75,75,72,72,75,75,75,75,75,75,75,75,75,75,0,0,0,0,0,0,0,0,0,0,
72,75,75,75,75,75,75,75,75,75,75,75,75,75,75,75,75,75,72,72,75,75,75,75,75,75,75,75,75,75,0,0,0,0,0,0,0,0,0,0,
72,75,75,75,75,75,75,75,75,75,75,75,75,75,75,75,75,75,75,72,75,75,75,75,75,75,75,75,75,75,0,0,0,0,0,0,0,0,0,0,
72,75,75,75,75,75,75,75,75,75,75,75,75,75,75,75,75,75,75,72,75,75,75,75,75,75,75,75,75,75,0,0,0,0,0,0,0,0,0,0,
72,75,75,75,75,75,75,75,75,75,75,75,75,75,75,75,75,75,75,72,75,75,75,75,75,75,75,75,75,75,0,0,0,0,0,0,0,0,0,0,
72,75,75,75,75,75,75,75,75,75,75,75,75,75,75,75,75,75,75,72,75,75,75,75,75,75,75,75,75,75,0,0,0,0,0,0,0,0,0,0,
72,75,75,75,75,75,75,75,75,75,75,75,75,75,75,75,75,75,75,72,75,75,75,75,75,75,75,75,75,75,0,0,0,0,0,0,0,0,0,0,
72,72,75,75,75,75,75,75,75,75,75,75,75,75,75,75,75,75,75,72,75,75,75,75,75,75,75,75,75,75,0,0,0,0,0,0,0,0,0,0,
72,72,75,75,75,75,75,75,75,75,75,75,75,75,75,75,75,75,75,72,72,75,75,75,75,75,75,75,75,75,0,0,0,0,0,0,0,0,0,0,
75,72,75,75,75,75,75,75,75,75,75,75,75,75,75,75,75,75,75,72,72,75,75,75,75,75,75,75,75,75,0,0,0,0,0,0,0,0,0,0,
75,72,75,75,75,75,75,75,75,75,75,75,75,75,75,75,75,75,75,72,72,75,75,75,75,75,75,75,75,75,0,0,0,0,0,0,0,0,0,0,
75,72,75,75,75,75,75,75,75,75,75,75,75,75,75,75,75,75,75,75,75,72,75,75,75,75,75,75,75,75,0,0,0,0,0,0,0,0,0,0,
75,75,72,72,75,75,75,75,75,75,75,75,75,75,75,75,75,75,75,75,75,72,75,75,75,75,75,75,75,75,0,0,0,0,0,0,0,0,0,0,
75,75,75,72,72,75,75,75,75,75,75,75,75,75,75,75,75,75,75,75,75,75,72,75,75,75,75,75,75,75,0,0,0,0,0,0,0,0,0,0,
75,75,75,75,72,75,75,75,75,75,75,75,75,75,75,75,75,75,75,75,75,75,75,72,75,75,75,75,75,75,0,0,0,0,0,0,0,0,0,0,
75,75,75,75,72,72,75,75,75,75,75,75,75,75,75,75,75,75,75,75,75,75,75,72,72,75,75,75,75,75,0,0,0,0,0,0,0,0,0,0,
75,75,75,75,75,72,72,75,75,75,75,75,75,75,75,75,75,75,75,75,75,75,75,72,72,72,75,75,75,75,0,0,0,0,0,0,0,0,0,0,
75,75,75,75,75,72,72,75,75,75,75,75,75,75,75,75,75,75,75,75,75,75,75,75,72,72,72,75,75,75,0,0,0,0,0,0,0,0,0,0,
75,75,75,75,75,75,72,72,75,75,75,75,75,75,75,75,75,75,75,75,75,75,75,75,75,72,72,75,75,75,0,0,0,0,0,0,0,0,0,0,
75,75,75,75,75,75,75,72,75,75,75,75,75,75,75,75,75,75,75,75,75,75,75,75,75,75,72,72,75,75,0,0,0,0,0,0,0,0,0,0
</data>
 </layer>
 <layer id="2" name="Back2" width="40" height="40">
  <properties>
   <property name="Draw" value="Back"/>
  </properties>
  <data encoding="csv">
0,0,0,0,0,0,0,0,0,0,0,0,0,0,0,0,0,0,0,0,0,0,0,0,0,0,0,0,0,0,0,0,0,0,0,0,0,0,0,0,
0,0,0,0,0,0,0,0,0,0,0,0,0,0,0,0,0,0,0,0,0,0,0,0,0,0,0,0,0,0,0,0,0,0,0,0,0,0,0,0,
0,0,0,0,0,0,0,0,0,0,0,0,0,0,0,0,0,0,0,0,0,0,0,0,0,0,0,0,0,0,0,0,0,0,0,0,0,0,0,0,
0,0,0,201,0,0,0,0,0,0,0,0,0,0,0,0,0,0,0,0,0,0,0,0,0,0,0,0,0,0,0,0,0,0,0,0,0,0,0,0,
0,0,201,233,0,0,0,0,0,0,0,0,0,0,0,0,0,0,0,0,0,0,0,0,0,0,0,0,0,0,0,0,0,0,0,0,0,0,0,0,
0,0,233,265,0,0,0,0,0,0,0,0,0,0,0,0,0,0,0,0,0,0,0,0,0,0,0,0,0,0,0,0,0,0,0,0,0,0,0,0,
0,0,265,297,0,0,0,0,0,0,0,0,0,0,0,0,0,0,0,0,0,0,0,0,0,0,0,0,0,0,173,173,173,173,173,173,173,173,173,173,
0,201,297,0,0,0,0,0,0,0,0,0,0,0,0,0,0,0,0,0,0,0,0,0,0,0,0,0,0,0,173,173,173,173,173,173,173,173,173,173,
0,233,0,0,0,0,0,0,0,0,0,0,0,0,0,0,0,0,0,0,0,0,0,0,0,0,0,0,0,0,173,173,173,173,173,173,173,173,173,173,
0,265,0,0,0,0,0,0,0,0,0,0,0,0,0,0,0,0,0,0,0,0,0,0,0,0,0,0,0,0,173,173,173,173,173,173,173,173,173,173,
201,297,0,0,0,0,0,0,0,0,0,0,0,0,0,0,0,0,0,0,0,0,0,0,0,0,0,0,0,0,173,173,173,173,173,173,173,173,173,173,
233,0,0,0,0,0,0,0,0,0,0,0,0,0,0,0,0,0,0,0,0,0,0,0,0,0,0,0,0,0,173,173,173,173,173,173,173,173,173,173,
265,0,0,0,0,0,0,0,0,0,0,0,0,0,0,0,0,0,0,0,0,0,0,0,0,0,0,0,0,0,173,173,173,173,173,173,173,173,173,173,
297,0,0,0,0,0,0,0,0,0,0,0,0,0,0,0,0,0,0,0,0,0,0,0,0,0,0,0,0,0,173,173,173,173,173,173,173,173,173,173,
0,0,0,0,0,0,0,0,0,0,0,0,0,0,0,0,0,0,0,0,0,0,0,0,0,0,0,0,0,0,173,173,173,173,173,173,173,173,173,173,
0,0,0,0,0,0,0,0,0,0,0,0,0,0,0,0,0,0,0,0,0,0,0,0,0,0,0,0,0,0,173,173,173,173,173,173,173,173,173,173,
0,0,0,0,0,0,0,0,0,0,0,0,0,0,0,0,0,0,0,0,0,0,0,0,0,0,0,173,173,173,173,173,173,173,173,173,173,173,173,173,
0,0,0,0,0,0,0,0,0,0,0,0,0,0,0,0,0,0,0,0,0,0,0,0,173,173,173,173,173,173,173,173,173,173,173,173,173,173,173,173,
0,0,0,0,0,0,0,0,0,0,0,0,0,0,0,0,0,0,0,0,0,0,0,0,173,173,173,173,173,173,173,173,173,173,173,173,173,173,173,173,
0,0,0,0,0,0,0,0,0,0,0,0,0,0,0,0,0,0,0,0,0,0,0,173,173,173,173,173,173,173,173,173,173,173,173,173,173,173,173,173,
0,0,0,0,0,0,0,0,0,0,0,0,0,0,0,0,0,0,0,0,173,173,173,173,173,173,173,173,173,173,173,173,173,173,173,173,173,173,173,173,
0,0,0,0,0,0,0,0,0,0,0,0,0,0,0,0,0,0,0,0,173,173,173,173,173,173,173,173,173,173,173,173,173,173,173,173,173,173,173,173,
0,0,0,0,0,0,0,0,0,0,0,0,0,0,0,0,0,0,0,0,173,173,173,173,173,173,173,173,173,173,173,173,173,173,173,173,173,173,173,173,
0,0,0,0,0,0,0,0,0,0,0,0,0,0,0,0,0,0,0,0,173,173,173,173,173,173,173,173,173,173,173,173,173,173,173,173,173,173,173,173,
0,0,0,0,0,0,0,0,0,0,0,0,0,0,0,0,0,0,0,0,173,173,173,173,173,173,173,173,173,173,173,173,173,173,173,173,173,173,173,173,
0,0,0,0,0,0,0,0,0,0,0,0,0,0,0,0,0,0,0,0,173,173,173,173,173,173,173,173,173,173,173,173,173,173,173,173,173,173,173,173,
0,0,0,0,0,0,0,0,0,0,0,0,0,0,0,0,0,0,0,0,173,173,173,173,173,173,173,173,173,173,173,173,173,173,173,173,173,173,173,173,
0,0,0,0,0,0,0,0,0,0,0,0,0,0,0,0,0,0,0,0,173,173,173,173,173,173,173,173,173,173,173,173,173,173,173,173,173,173,173,173,
0,0,0,0,0,0,0,0,0,0,0,0,0,0,0,0,0,0,0,0,173,173,173,173,173,173,173,173,173,173,173,173,173,173,173,173,173,173,173,173,
0,0,0,0,0,0,0,0,0,0,0,0,0,0,0,0,0,0,0,0,173,173,173,173,173,173,173,173,173,173,173,173,173,173,173,173,173,173,173,173,
173,0,0,0,0,0,0,0,0,0,0,0,0,0,0,0,0,0,0,0,0,173,173,173,173,173,173,173,173,173,173,173,173,173,173,173,173,173,173,173,
173,0,0,0,0,0,0,0,0,0,0,0,0,0,0,0,0,0,0,0,0,173,173,173,173,173,173,173,173,173,173,173,173,173,173,173,173,173,173,173,
173,0,0,0,0,0,0,0,0,0,0,0,0,0,0,0,0,0,0,0,0,173,173,173,173,173,173,173,173,173,173,173,173,173,173,173,173,173,173,173,
173,0,0,0,0,0,0,0,0,0,0,0,0,0,0,0,0,0,0,0,0,0,0,173,173,173,173,173,173,173,173,173,173,173,173,173,173,173,173,173,
173,173,0,0,0,0,0,0,0,0,0,0,0,0,0,0,0,0,0,0,0,0,0,0,173,173,173,173,173,173,173,173,173,173,173,173,173,173,173,173,
173,173,173,0,0,0,0,0,0,0,0,0,0,0,0,0,0,0,0,0,0,0,0,0,0,173,173,173,173,173,173,173,173,173,173,173,173,173,173,173,
173,173,173,173,0,0,0,0,0,0,260,0,0,0,0,0,0,0,0,0,0,0,0,0,0,0,173,173,173,173,173,173,173,173,173,173,173,173,173,173,
173,173,173,173,173,0,0,0,0,0,0,0,0,0,0,0,0,0,0,0,0,0,0,0,0,0,173,173,173,173,173,173,173,173,173,173,173,173,173,173,
173,173,173,173,173,0,0,0,0,0,0,0,0,0,0,0,0,0,260,0,0,0,0,0,0,0,0,173,173,173,173,173,173,173,173,173,173,173,173,173,
173,173,173,173,173,0,0,0,0,0,0,0,0,0,0,0,0,0,0,0,0,0,0,0,0,0,0,0,173,173,173,173,173,173,173,173,173,173,173,173
</data>
 </layer>
 <layer id="18" name="Back3" width="40" height="40">
  <properties>
   <property name="Draw" value="Back"/>
  </properties>
  <data encoding="csv">
173,173,173,0,0,0,0,0,0,0,0,0,222,0,255,0,0,189,0,283,0,0,0,0,0,0,0,0,0,0,0,535,0,0,0,0,0,0,0,0,
173,173,173,0,0,0,0,0,0,0,0,0,0,0,0,0,0,0,0,0,0,0,0,0,0,0,0,0,0,0,0,567,0,0,0,0,0,82,0,0,
173,173,173,0,0,0,0,0,0,0,0,0,0,0,0,0,0,0,0,0,0,0,0,0,0,0,0,0,0,0,0,0,0,0,0,0,0,82,0,0,
173,173,0,0,0,0,0,0,0,0,0,0,0,0,0,0,0,0,0,0,0,0,0,0,0,0,0,0,0,0,572,0,0,0,0,0,0,114,0,0,
173,173,0,0,0,0,0,0,0,0,0,0,0,0,0,0,0,0,0,0,0,0,0,0,0,0,0,0,0,0,0,0,0,0,0,82,0,146,0,0,
173,173,0,0,0,0,0,0,0,0,0,0,0,0,0,0,0,0,0,0,0,0,0,0,0,0,0,0,0,0,0,0,0,0,0,114,0,178,0,0,
0,0,0,0,0,0,0,0,0,0,0,0,0,0,0,0,0,0,0,0,0,0,0,0,0,0,0,0,0,0,0,0,0,82,0,146,0,210,0,0,
0,0,0,0,0,0,0,0,0,0,0,0,0,0,0,0,0,0,0,0,0,0,0,0,0,0,0,0,0,0,0,0,0,114,0,178,0,242,0,0,
0,0,0,0,0,0,0,0,0,0,0,0,0,0,0,0,0,0,0,0,0,0,0,0,0,0,0,0,72,0,0,82,0,146,0,210,0,0,0,0,
0,0,0,0,0,0,0,0,0,0,0,0,0,0,0,0,0,0,0,0,0,0,0,0,0,0,0,200,113,82,0,114,0,178,0,242,0,0,0,0,
0,0,0,0,0,0,0,0,0,0,0,0,0,0,0,0,0,0,0,0,0,0,0,0,0,72,72,82,145,114,0,146,0,210,0,0,0,0,0,0,
0,0,0,0,0,0,0,0,0,0,0,0,0,0,0,0,0,0,0,0,0,0,0,200,201,0,113,114,177,146,0,178,0,242,0,0,0,0,0,0,
0,0,0,0,0,0,0,0,0,0,0,0,0,0,0,0,0,0,0,0,0,0,0,81,82,0,145,146,209,178,0,210,0,0,0,0,0,0,0,0,
0,0,0,0,0,0,0,0,0,0,0,0,0,0,0,0,0,0,0,0,0,72,81,82,114,0,177,178,241,210,0,242,0,0,0,0,0,0,0,0,
0,0,0,0,0,0,0,0,0,0,0,0,0,0,0,0,0,0,0,200,201,81,82,114,146,0,209,210,0,242,0,0,173,173,0,0,0,0,0,0,
0,0,0,0,0,0,0,0,0,0,0,0,0,0,0,0,0,0,0,81,82,113,114,146,178,0,241,242,0,242,173,173,173,173,0,0,0,0,0,0,
0,0,0,0,0,0,0,0,0,0,0,0,0,0,0,0,0,0,0,113,114,145,146,178,210,0,0,0,0,0,0,0,0,0,0,0,0,0,0,0,
0,0,0,0,0,0,0,0,0,0,0,0,0,0,0,0,0,0,0,145,146,177,178,210,242,173,0,0,0,0,0,0,0,0,0,0,0,0,0,0,
0,0,0,0,0,0,0,0,0,0,0,0,0,0,0,0,0,0,0,177,178,209,210,242,0,173,173,173,173,0,0,0,0,0,0,0,0,0,0,0,
0,0,0,0,0,0,0,0,0,0,0,0,0,0,0,0,0,0,0,209,210,241,242,0,0,0,173,0,173,173,173,173,0,0,0,0,0,0,0,0,
0,0,0,0,0,0,0,0,0,0,0,0,0,0,0,0,295,0,0,72,242,0,0,0,0,0,0,0,0,0,0,0,0,0,0,0,0,0,0,0,
0,0,0,0,0,0,0,0,0,0,0,0,0,0,0,0,0,0,0,0,0,0,0,0,0,0,0,0,0,0,0,0,0,0,0,0,0,0,0,0,
0,0,0,0,0,0,0,0,0,0,0,0,0,0,0,0,0,0,0,0,0,0,0,0,0,0,0,0,0,0,0,0,0,0,0,0,0,0,0,0,
0,0,0,0,0,0,0,0,0,0,0,0,0,0,0,0,0,0,0,0,0,0,0,0,0,0,0,0,0,0,0,0,0,0,0,0,0,0,0,0,
0,0,0,0,0,0,0,0,0,0,0,0,0,0,0,0,0,0,0,0,0,0,0,0,0,0,0,0,0,0,0,0,0,0,0,0,0,0,0,0,
0,0,0,0,0,0,0,0,0,0,0,0,0,0,0,0,0,295,0,0,0,0,0,0,0,0,0,0,0,0,0,0,0,0,0,0,0,0,0,0,
0,0,0,0,0,0,0,0,0,0,0,0,0,0,0,0,0,0,0,0,0,0,0,0,0,0,0,0,0,0,0,0,0,0,0,0,0,0,0,0,
0,0,0,0,0,0,0,0,0,0,0,0,0,0,0,0,0,0,0,0,0,0,0,0,0,0,0,0,0,0,0,0,0,0,0,0,0,0,0,0,
0,0,0,0,0,0,0,0,0,0,0,0,0,0,0,0,0,0,0,0,0,0,0,0,0,0,0,0,0,0,0,0,0,0,0,0,0,0,0,0,
0,0,0,0,0,0,0,0,0,0,0,0,0,0,0,0,0,0,0,0,0,0,0,0,0,0,0,0,0,0,0,0,0,0,0,0,0,0,0,0,
0,200,0,0,0,0,0,0,0,0,0,0,0,0,0,0,0,0,0,200,0,0,0,0,0,0,0,0,0,0,0,0,0,0,0,0,0,0,0,0,
0,81,0,358,0,0,0,0,0,0,0,0,0,0,0,0,0,0,0,232,0,0,0,0,0,0,0,0,0,0,0,0,0,0,0,0,0,0,0,0,
0,113,0,0,0,0,0,0,0,0,0,0,0,0,0,0,0,0,0,264,200,0,0,0,0,0,0,0,0,0,0,0,0,0,0,0,0,0,0,0,
0,145,200,0,0,0,0,0,0,0,0,0,0,0,0,0,0,0,295,296,232,0,0,0,0,0,0,0,0,0,0,0,0,0,0,0,0,0,0,0,
0,177,81,200,0,0,0,0,0,0,0,0,0,0,0,0,0,214,0,0,264,0,0,0,0,0,0,0,0,0,0,0,0,0,0,0,0,0,0,0,
0,209,113,81,81,0,0,0,0,0,0,0,0,0,0,0,0,0,0,295,296,200,0,0,0,0,0,0,0,0,0,0,0,0,0,0,0,0,0,0,
0,241,145,113,81,0,0,0,0,0,0,0,0,0,0,0,0,0,0,0,0,232,200,0,0,0,0,0,0,0,0,0,0,0,0,0,0,0,0,0,
173,0,177,145,113,200,0,0,0,0,0,0,0,0,0,0,0,0,0,0,0,264,232,200,0,0,0,0,0,0,0,0,0,0,0,0,0,0,0,0,
173,0,209,177,145,81,0,0,0,0,0,0,0,0,0,0,0,0,0,0,295,296,264,232,200,0,0,0,0,0,0,0,0,0,0,0,0,0,0,0,
173,0,241,209,177,113,0,0,0,0,0,0,0,0,0,0,0,0,0,0,0,295,296,264,232,0,0,0,0,0,0,0,0,0,0,0,0,0,0,0
</data>
 </layer>
 <layer id="3" name="Buildings" width="40" height="40">
  <data encoding="csv">
0,0,135,0,138,0,0,0,0,0,0,0,0,244,0,0,0,0,0,364,365,366,367,261,0,0,0,0,0,533,534,0,135,72,72,72,72,72,72,170,
0,0,135,0,138,0,0,0,0,0,0,0,0,276,337,338,0,0,0,396,397,398,399,0,0,0,0,0,0,565,566,103,142,72,72,72,72,74,200,201,
0,103,142,0,170,0,0,0,0,0,0,0,0,292,215,0,0,467,468,465,466,0,0,0,0,0,0,0,0,539,540,135,72,72,72,72,72,170,81,82,
0,135,0,74,202,0,0,0,0,0,0,0,0,0,0,216,260,0,282,0,0,0,0,0,0,0,0,0,0,571,103,142,72,72,72,74,200,201,113,114,
0,135,74,202,234,0,0,0,0,0,0,0,0,0,0,0,0,0,0,0,0,0,0,0,0,0,0,0,0,0,135,72,72,72,72,170,81,83,145,146,
103,142,138,234,266,0,0,0,0,0,0,0,0,0,0,0,0,0,0,0,0,0,0,0,0,0,0,0,0,103,142,72,72,74,200,201,113,115,177,178,
142,0,170,266,298,0,0,0,0,0,0,0,0,0,0,0,0,0,0,0,0,0,0,0,0,0,0,103,105,142,72,72,72,170,81,83,145,147,209,210,
0,74,202,298,0,0,0,0,0,0,0,0,0,0,0,0,0,0,0,0,0,0,0,0,0,103,104,142,0,0,72,74,200,201,113,115,177,179,0,242,
0,138,234,0,0,0,0,0,0,0,0,0,0,0,0,0,0,0,0,0,0,0,103,105,104,142,0,0,169,170,200,201,81,83,145,147,209,211,0,0,
0,170,266,0,0,0,0,0,0,0,0,0,0,0,0,0,0,0,0,0,0,103,142,0,0,0,0,74,200,201,81,83,113,115,177,179,0,243,0,0,
74,202,298,0,0,0,0,0,0,0,0,0,0,0,0,0,0,0,0,0,103,142,0,0,72,168,169,170,81,0,113,115,145,147,209,211,0,0,0,0,
138,234,0,327,0,0,0,0,0,0,0,0,0,0,0,0,0,0,0,103,142,0,0,72,74,200,201,202,113,0,145,147,177,179,0,243,0,0,0,0,
138,266,0,0,0,0,0,0,0,0,0,0,0,0,0,390,0,103,105,142,0,0,72,74,202,81,82,83,145,0,177,179,209,211,0,0,0,0,0,0,
138,298,0,0,0,0,0,0,0,0,0,0,0,0,518,0,103,142,0,0,72,169,74,202,83,113,114,115,177,0,209,211,241,243,0,0,0,0,0,0,
138,0,0,0,0,0,0,0,0,0,0,0,0,0,0,0,135,0,0,72,74,201,202,83,115,145,146,147,209,210,241,243,273,0,0,0,0,242,0,0,
138,424,425,0,0,0,0,0,0,0,0,0,0,0,516,0,135,0,0,74,202,82,83,115,147,177,178,179,241,242,0,0,0,0,0,0,0,0,0,0,
138,456,457,0,0,0,0,0,0,0,0,0,0,517,0,0,167,0,0,138,83,114,115,147,179,209,210,211,0,0,0,0,0,0,0,0,0,0,0,0,
141,106,0,0,0,0,0,0,0,0,0,0,0,0,0,326,199,135,0,138,115,146,147,179,211,241,242,243,0,0,0,0,0,0,0,0,0,0,0,0,
0,138,0,0,0,0,0,0,0,0,0,0,0,0,0,358,231,135,0,138,147,178,179,211,243,173,0,0,0,0,0,0,0,0,0,0,0,0,0,0,
0,138,522,0,0,0,0,0,0,0,0,0,0,0,0,522,263,135,0,141,179,210,211,243,0,0,0,0,0,0,0,0,0,0,0,0,0,0,0,0,
0,138,0,520,0,0,0,0,0,0,0,0,0,0,0,0,0,135,0,0,211,242,243,0,0,0,0,0,0,0,0,0,0,0,0,0,0,0,0,0,
0,138,0,0,0,0,0,0,0,0,0,0,0,0,0,0,0,167,0,0,243,0,0,0,0,0,0,0,0,0,173,173,173,173,173,173,173,173,173,173,
0,138,0,359,0,0,0,0,0,0,0,0,0,0,0,0,0,199,135,0,138,0,0,0,0,0,0,0,0,0,173,173,173,173,173,173,173,173,173,173,
0,138,0,391,0,0,0,0,0,0,0,0,0,0,0,0,0,231,135,0,138,0,0,0,0,0,0,0,0,0,173,173,173,173,173,173,173,173,173,173,
0,138,0,0,327,0,0,0,0,0,0,0,0,0,0,2147483975,0,263,135,0,138,0,0,0,0,0,0,0,0,0,173,173,173,173,173,173,173,173,173,173,
0,138,0,0,0,0,0,0,0,0,0,0,0,0,0,0,424,425,135,0,138,0,0,0,0,0,0,0,0,0,173,173,173,173,173,173,173,173,173,173,
0,138,522,0,0,0,0,0,0,0,0,0,0,0,0,0,456,457,135,0,138,0,0,0,0,0,0,0,0,0,173,173,173,173,173,173,173,173,173,173,
0,141,106,0,0,0,0,0,0,0,0,0,0,0,0,2147484007,0,0,135,0,138,0,0,0,0,0,0,0,0,0,173,173,173,173,173,173,173,173,173,173,
0,0,138,520,0,0,0,0,0,0,0,0,0,0,0,2147484039,0,0,135,0,138,0,0,0,0,0,0,0,0,0,173,173,173,173,173,173,173,173,173,173,
167,0,138,0,0,0,0,0,0,0,0,0,0,0,0,0,520,0,167,0,138,0,0,0,0,0,0,0,0,0,173,173,173,173,173,173,173,173,173,173,
199,135,138,326,0,0,0,0,0,0,0,0,0,0,0,0,0,261,199,135,141,106,0,0,0,0,0,0,0,0,173,173,173,173,173,173,173,173,173,173,
80,135,141,106,0,0,0,0,0,0,0,0,0,0,0,0,0,0,231,167,72,138,0,0,0,0,0,0,0,0,173,173,173,173,173,173,173,173,173,173,
112,167,0,141,106,522,0,0,0,0,0,0,0,0,0,0,343,344,263,199,71,141,106,0,0,0,0,0,0,0,173,173,173,173,173,173,173,173,173,173,
144,199,167,0,141,106,0,0,0,125,0,0,0,0,0,0,0,282,276,231,135,72,141,106,0,0,0,0,0,0,173,173,173,173,173,173,173,173,173,173,
176,80,199,167,0,141,106,520,0,0,0,0,0,0,0,0,477,478,479,263,167,72,72,141,106,0,0,0,0,0,173,173,173,173,173,173,173,173,173,173,
208,112,80,199,71,0,141,106,0,0,215,0,0,0,401,402,509,510,511,0,199,167,72,0,141,106,0,0,0,0,173,173,173,173,173,173,173,173,173,173,
240,144,112,80,167,0,0,138,405,406,0,151,0,0,345,346,541,542,543,544,231,199,167,0,0,141,106,0,0,0,173,173,173,173,173,173,173,173,173,173,
0,176,144,112,199,71,0,141,106,545,546,418,419,420,377,378,573,574,575,576,263,231,199,167,0,0,138,0,0,0,173,173,173,173,173,173,173,173,173,173,
0,208,176,144,80,167,0,0,138,577,578,450,451,452,409,410,411,412,0,0,0,263,231,199,167,0,141,106,0,0,173,173,173,173,173,173,173,173,173,173,
0,240,208,176,112,199,167,0,138,282,610,611,612,216,441,442,443,216,0,0,0,0,263,231,199,167,0,141,106,0,173,173,173,173,173,173,173,173,173,173
</data>
 </layer>
 <layer id="4" name="Buildings2" width="40" height="40">
  <data encoding="csv">
0,0,0,0,0,0,0,0,0,0,0,0,0,0,0,0,0,0,245,0,0,0,0,0,0,0,0,0,0,0,0,0,0,0,0,0,0,0,0,0,
0,0,0,0,0,0,0,0,0,0,0,0,0,0,0,341,342,0,277,0,0,0,0,0,0,0,0,0,0,0,0,0,0,0,0,0,0,0,0,0,
0,0,0,0,0,0,0,0,0,0,0,0,0,0,0,0,405,406,0,0,0,0,0,0,0,0,0,0,0,0,0,0,0,0,0,0,0,0,0,0,
0,0,0,0,0,0,0,0,0,0,0,0,0,0,0,0,0,0,0,0,0,0,0,0,0,0,0,0,0,0,0,0,0,0,0,0,0,0,0,0,
0,0,0,0,0,0,0,0,0,0,0,0,0,0,0,0,0,0,0,0,0,0,0,0,0,0,0,0,0,0,0,0,0,0,0,0,0,0,0,0,
0,0,0,0,0,0,0,0,0,0,0,0,0,0,0,0,0,0,0,0,0,0,0,0,0,0,0,0,0,0,0,0,0,0,0,0,0,0,0,0,
0,0,0,0,0,0,0,0,0,0,0,0,0,0,0,0,0,0,0,0,0,0,0,0,0,0,0,0,0,0,0,0,0,0,0,0,0,0,0,0,
0,0,0,0,0,0,0,0,0,0,0,0,0,0,0,0,0,0,0,0,0,0,0,0,0,0,0,0,0,0,168,169,0,0,0,0,0,0,0,0,
0,0,0,0,0,0,0,0,0,0,0,0,0,0,0,0,0,0,0,0,0,0,0,0,0,0,0,0,0,0,0,0,0,0,0,0,0,0,0,0,
0,0,0,0,0,0,0,0,0,0,0,0,0,0,0,0,0,0,0,0,0,0,0,0,0,0,0,0,0,0,0,0,0,0,0,0,0,0,0,0,
0,0,0,0,0,0,0,0,0,0,0,0,0,0,0,0,0,0,0,0,0,0,0,0,0,0,0,0,0,83,0,0,0,0,0,0,0,0,0,0,
0,0,0,0,0,0,0,0,0,0,0,0,0,0,0,0,0,0,0,0,0,0,0,0,0,0,0,0,0,115,0,0,0,0,0,0,0,0,0,0,
0,0,0,0,0,0,0,0,0,0,0,0,0,0,0,0,0,0,0,0,0,0,0,0,0,0,0,0,0,147,0,0,0,0,0,0,0,0,0,0,
0,0,0,0,0,0,0,0,0,0,0,0,0,0,0,0,0,0,0,0,0,168,0,0,0,0,0,0,0,179,0,0,0,0,0,0,0,0,0,0,
0,0,0,0,0,0,0,0,0,0,0,0,0,0,0,0,0,0,0,0,0,0,0,0,0,0,0,0,0,211,0,0,0,0,0,0,0,0,0,0,
0,0,0,0,0,0,0,0,0,0,0,0,0,0,0,0,0,0,0,0,0,0,0,0,0,0,0,0,0,243,0,0,0,0,0,0,0,0,0,0,
0,260,0,0,0,0,0,0,0,0,0,0,0,0,0,0,0,0,0,0,0,0,0,0,0,0,0,0,0,0,0,0,0,0,0,0,0,0,0,0,
0,0,261,0,0,0,0,0,0,0,0,0,0,0,0,0,0,0,0,0,0,0,0,0,0,0,0,0,0,0,0,0,0,0,0,0,0,0,0,0,
0,0,0,0,0,0,0,0,0,0,0,0,0,0,0,0,0,0,0,0,0,0,0,0,0,0,0,0,0,0,0,0,0,0,0,0,0,0,0,0,
0,0,0,0,0,0,0,0,0,0,0,0,0,0,0,0,0,0,0,0,0,0,0,0,0,0,0,0,0,0,0,0,0,0,0,0,0,0,0,0,
0,0,0,0,0,0,0,0,0,0,0,0,0,0,0,0,520,0,0,0,0,0,0,0,0,0,0,0,0,0,0,0,0,0,0,0,0,0,0,0,
0,0,0,0,0,0,0,0,0,0,0,0,0,0,0,0,0,0,0,0,0,0,0,0,0,0,0,0,0,0,0,0,0,0,0,0,0,0,0,0,
0,0,0,0,0,0,0,0,0,0,0,0,0,0,0,0,0,0,0,0,0,0,0,0,0,0,0,0,0,0,0,0,0,0,0,0,0,0,0,0,
0,0,0,0,0,0,0,0,0,0,0,0,0,0,0,0,0,0,0,0,0,0,0,0,0,0,0,0,0,0,0,0,0,0,0,0,0,0,0,0,
0,0,0,0,0,0,0,0,0,0,0,0,0,0,0,0,0,0,0,0,0,0,0,0,0,0,0,0,0,0,0,0,0,0,0,0,0,0,0,0,
0,0,0,0,0,0,0,0,0,0,0,0,0,0,0,0,0,0,0,0,0,0,0,0,0,0,0,0,0,0,0,0,0,0,0,0,0,0,0,0,
0,0,0,0,0,0,0,0,0,0,0,0,0,0,0,0,292,0,0,0,0,0,0,0,0,0,0,0,0,0,0,0,0,0,0,0,0,0,0,0,
0,0,0,0,0,0,0,0,0,0,0,0,0,0,0,0,0,260,0,0,0,0,0,0,0,0,0,0,0,0,0,0,0,0,0,0,0,0,0,0,
0,0,0,0,0,0,0,0,0,0,0,0,0,0,0,0,0,0,0,0,0,0,0,0,0,0,0,0,0,0,0,0,0,0,0,0,0,0,0,0,
0,0,0,0,0,0,0,0,0,0,0,0,0,0,0,0,0,0,0,0,0,0,0,0,0,0,0,0,0,0,0,0,0,0,0,0,0,0,0,0,
0,0,0,0,0,0,0,0,0,0,0,0,0,0,0,0,0,0,0,0,0,0,0,0,0,0,0,0,0,0,0,0,0,0,0,0,0,0,0,0,
0,0,0,0,0,0,0,0,0,0,0,0,0,0,0,0,0,0,0,0,0,0,0,0,0,0,0,0,0,0,0,0,0,0,0,0,0,0,0,0,
0,0,0,0,0,0,0,0,0,0,0,0,0,0,0,0,0,250,244,0,0,0,0,0,0,0,0,0,0,0,0,0,0,0,0,0,0,0,0,0,
0,0,0,0,0,0,0,0,0,0,0,0,0,0,0,0,0,0,0,0,0,0,0,0,0,0,0,0,0,0,0,0,0,0,0,0,0,0,0,0,
0,0,0,0,0,0,0,0,0,0,0,0,0,0,0,0,0,0,0,480,0,0,0,0,0,0,0,0,0,0,0,0,0,0,0,0,0,0,0,0,
0,0,0,0,0,0,0,0,0,0,0,0,0,0,0,0,0,0,0,512,0,0,0,0,0,0,0,0,0,0,0,0,0,0,0,0,0,0,0,0,
0,0,0,0,0,0,0,0,0,0,0,0,0,0,0,0,347,348,0,0,0,0,0,0,0,0,0,0,0,0,0,0,0,0,0,0,0,0,0,0,
0,0,0,0,0,0,0,0,0,0,0,547,0,0,0,0,379,380,0,187,0,0,0,0,0,0,0,0,0,0,0,0,0,0,0,0,0,0,0,0,
0,0,0,0,0,0,0,0,0,250,0,579,0,184,0,0,0,184,349,350,351,352,0,0,0,0,0,0,0,0,0,0,0,0,0,0,0,0,0,0,
0,0,0,0,0,0,0,0,0,0,0,0,0,0,292,0,0,0,381,382,383,384,0,0,0,0,0,0,0,0,0,0,0,0,0,0,0,0,0,0
</data>
 </layer>
 <layer id="5" name="Front" width="40" height="40">
  <data encoding="csv">
0,0,0,0,0,0,0,0,0,0,0,0,0,0,305,306,0,0,0,0,0,0,0,0,0,0,0,0,0,0,0,0,0,213,0,280,0,0,190,0,
0,0,0,0,0,0,0,0,0,0,0,0,0,0,0,0,0,435,436,433,434,0,0,0,0,0,0,0,0,507,508,0,188,244,0,0,251,0,0,0,
0,0,0,0,0,0,0,0,0,0,0,0,0,0,0,0,0,0,0,0,0,0,0,0,0,0,0,0,0,0,0,0,0,276,0,158,0,127,0,0,
0,0,0,0,0,0,0,0,0,0,0,0,0,0,0,0,0,0,0,0,0,0,0,0,0,0,0,0,0,0,0,0,93,0,246,0,0,0,0,0,
0,0,0,0,0,0,0,0,0,0,0,0,0,0,0,0,0,0,0,0,0,0,0,0,0,0,0,0,0,0,0,248,0,0,278,0,0,0,0,0,
0,0,0,0,0,0,0,0,0,0,0,0,0,0,0,0,0,0,0,0,0,0,0,0,0,0,0,0,0,0,317,280,0,212,0,0,0,0,0,0,
0,0,0,0,0,0,0,0,0,0,0,0,0,0,0,0,0,0,0,0,0,0,0,0,0,0,0,0,0,0,0,0,254,0,0,0,0,0,0,0,
0,0,0,0,0,0,0,0,0,0,0,0,0,0,0,0,0,0,0,0,0,0,0,0,0,0,0,0,0,0,0,0,0,0,0,0,0,0,0,0,
0,0,0,0,0,0,0,0,0,0,0,0,0,0,0,0,0,0,0,0,0,0,0,0,0,0,0,0,0,0,0,0,0,0,0,0,0,0,0,0,
0,0,0,0,0,0,0,0,0,0,0,0,0,0,0,0,0,0,0,0,0,0,0,0,0,0,0,0,0,0,0,0,0,0,0,0,0,0,0,0,
0,0,0,0,0,0,0,0,0,0,0,0,0,0,0,0,0,0,0,0,0,0,0,0,0,0,0,0,0,0,0,0,0,0,0,0,0,0,0,0,
0,0,0,0,0,0,0,0,0,0,0,0,0,0,0,0,0,0,0,0,0,0,0,0,0,0,0,0,0,0,0,0,0,0,0,0,0,0,0,0,
0,0,0,0,0,0,0,0,0,0,0,0,0,0,0,0,0,0,0,0,0,0,0,0,0,0,0,0,0,0,0,0,0,0,0,0,0,0,0,0,
0,0,0,0,0,0,0,0,0,0,0,0,0,0,0,0,0,0,0,0,0,0,0,0,0,0,0,0,0,0,0,0,0,0,0,0,0,0,0,0,
0,392,393,0,0,0,0,0,0,0,0,0,0,0,0,0,0,0,0,0,0,0,0,0,0,0,0,0,0,0,0,0,0,0,0,0,0,0,0,0,
0,0,0,0,0,0,0,0,0,0,0,0,0,0,0,0,0,0,0,0,0,0,0,0,0,0,0,0,0,0,0,0,0,0,0,0,0,0,0,0,
0,0,0,0,0,0,0,0,0,0,0,0,0,0,0,0,0,0,0,0,0,0,0,0,0,0,0,0,0,0,0,0,0,0,0,0,0,0,0,0,
0,0,0,0,0,0,0,0,0,0,0,0,0,0,0,0,0,0,0,0,0,0,0,0,0,0,0,0,0,0,0,0,0,0,0,0,0,0,0,0,
0,0,490,0,0,0,0,0,0,0,0,0,0,0,0,490,0,0,0,0,0,0,0,0,0,0,0,0,0,0,0,0,0,0,0,0,0,0,0,0,
0,0,0,488,0,0,0,0,0,0,0,0,0,0,0,0,488,0,0,0,106,0,0,0,0,0,0,0,0,0,0,0,0,0,0,0,0,0,0,0,
0,0,0,0,0,0,0,0,0,0,0,0,0,0,0,0,0,0,0,0,138,0,0,0,0,0,0,0,0,0,0,0,0,0,0,0,0,0,0,0,
0,0,0,0,0,0,0,0,0,0,0,0,0,0,0,0,0,0,0,0,138,0,0,0,0,0,0,0,0,0,0,0,0,0,0,0,0,0,0,0,
0,0,0,0,0,0,0,0,0,0,0,0,0,0,0,0,0,0,0,0,0,0,0,0,0,0,0,0,0,0,0,0,0,0,0,0,0,0,0,0,
0,0,0,0,0,0,0,0,0,0,0,0,0,0,0,0,0,0,0,0,0,0,0,0,0,0,0,0,0,0,0,0,0,0,0,0,0,0,0,0,
0,0,0,0,0,0,0,0,0,0,0,0,0,0,0,0,392,393,0,0,0,0,0,0,0,0,0,0,0,0,0,0,0,0,0,0,0,0,0,0,
0,0,490,0,0,0,0,0,0,0,0,0,0,0,0,0,0,0,0,0,0,0,0,0,0,0,0,0,0,0,0,0,0,0,0,0,0,0,0,0,
0,0,0,0,0,0,0,0,0,0,0,0,0,0,0,0,0,0,0,0,0,0,0,0,0,0,0,0,0,0,0,0,0,0,0,0,0,0,0,0,
0,0,0,488,0,0,0,0,0,0,0,0,0,0,0,0,0,0,0,0,0,0,0,0,0,0,0,0,0,0,0,0,0,0,0,0,0,0,0,0,
0,0,0,0,0,0,0,0,0,0,0,0,0,0,0,0,488,0,0,0,0,0,0,0,0,0,0,0,0,0,0,0,0,0,0,0,0,0,0,0,
0,0,0,0,0,0,0,0,0,0,0,0,0,0,0,0,0,0,0,0,0,0,0,0,0,0,0,0,0,0,0,0,0,0,0,0,0,0,0,0,
0,0,0,0,0,0,0,0,0,0,0,0,0,0,0,0,0,0,0,0,0,0,0,0,0,0,0,0,0,0,0,0,0,0,0,0,0,0,0,0,
0,0,0,0,0,490,0,0,0,0,0,0,0,0,0,0,311,312,0,0,0,0,0,0,0,0,0,0,0,0,0,0,0,0,0,0,0,0,0,0,
0,0,0,0,0,0,0,0,0,0,0,0,0,0,0,0,0,0,0,0,0,0,0,0,0,0,0,0,0,0,0,0,0,0,0,0,0,0,0,0,
0,0,0,0,0,0,0,488,0,0,0,0,0,0,0,0,0,0,0,0,0,0,0,0,0,0,0,0,0,0,0,0,0,0,0,0,0,0,0,0,
0,0,0,0,0,0,0,0,0,0,183,0,0,0,369,370,0,0,0,0,0,0,0,0,0,0,0,0,0,0,0,0,0,0,0,0,0,0,0,0,
0,0,0,0,0,0,0,0,373,374,0,0,0,0,0,0,0,0,0,0,0,0,0,0,0,0,0,0,0,0,0,0,0,0,0,0,0,0,0,0,
0,0,0,0,0,0,0,0,0,0,0,0,0,0,0,0,0,0,0,0,0,0,0,0,0,0,0,0,0,0,0,0,0,0,0,0,0,0,0,0,
0,0,0,0,0,0,0,0,0,0,0,0,0,0,0,0,0,0,0,0,0,0,0,0,0,0,0,0,0,0,0,0,0,0,0,0,0,0,0,0,
0,0,0,0,0,0,0,0,0,0,0,0,0,0,0,0,0,0,0,0,0,0,0,0,0,0,0,0,0,0,0,0,0,0,0,0,0,0,0,0,
0,0,0,0,0,0,0,0,0,0,0,0,0,0,0,0,0,0,0,0,0,0,0,0,0,0,0,0,0,0,0,0,0,0,0,0,0,0,0,0
</data>
 </layer>
 <layer id="17" name="Front2" width="40" height="40">
  <data encoding="csv">
0,0,278,0,157,0,0,0,0,0,0,0,0,0,0,309,310,0,0,0,0,0,0,0,0,0,0,0,0,0,0,0,0,0,0,0,0,0,0,0,
0,184,0,190,250,0,0,0,0,0,0,0,0,0,183,0,373,374,0,0,0,0,0,0,0,0,0,0,0,0,0,0,0,0,0,0,0,0,0,0,
0,216,283,0,282,0,0,0,0,0,0,0,0,0,0,184,0,0,250,0,0,0,0,0,0,0,0,0,0,0,0,0,0,0,0,0,0,0,0,0,
0,245,0,212,0,0,0,0,0,0,0,0,0,0,0,0,0,0,0,0,0,0,0,0,0,0,0,0,0,0,0,0,0,0,0,0,0,0,0,0,
0,277,0,2147484075,2147484074,0,0,0,0,0,0,0,0,0,0,0,0,0,0,0,0,0,0,0,0,0,0,0,0,0,0,0,0,0,0,0,0,0,0,0,
250,256,246,2147484107,2147484106,0,0,0,0,0,0,0,0,0,0,0,0,0,0,0,0,0,0,0,0,0,0,184,0,0,0,0,0,0,0,0,0,0,0,0,
282,0,278,0,0,0,0,0,0,0,0,0,0,0,0,0,0,0,0,0,0,0,0,0,0,0,2147483898,216,245,190,0,0,0,0,0,0,0,0,0,0,
0,124,0,0,0,0,0,0,0,0,0,0,0,0,0,0,0,0,0,0,0,0,184,0,0,0,2147483930,2147483892,277,0,0,0,0,0,0,0,0,0,0,0,
223,0,0,0,0,0,0,0,0,0,0,0,0,0,0,0,0,0,0,0,0,0,216,246,0,124,0,2147483924,157,0,0,0,0,0,0,0,0,0,0,0,
0,0,0,0,0,0,0,0,0,0,0,0,0,0,0,0,0,0,0,0,0,0,0,278,190,245,283,0,0,0,0,0,0,0,0,0,0,0,0,0,
2147483893,0,0,0,0,0,0,0,0,0,0,0,0,0,0,0,0,0,0,0,2147483893,0,0,2147483898,0,277,0,0,2147484075,2147484074,0,0,0,0,0,0,0,0,0,0,
2147483925,0,0,0,0,0,0,0,0,0,0,0,0,0,0,0,0,0,2147483898,0,2147483925,256,250,2147483930,0,0,0,0,2147484107,2147484106,0,0,0,0,0,0,0,0,0,0,
0,328,329,0,0,0,0,0,0,0,0,0,0,0,0,0,0,2147483892,2147483930,0,223,0,282,0,0,0,0,0,0,0,0,0,0,0,0,0,0,0,0,0,
157,360,361,0,0,0,0,0,0,0,0,0,0,0,0,0,0,2147483924,0,2147483894,0,157,0,0,0,0,426,427,0,0,0,0,0,0,0,0,0,0,0,0,
0,0,0,0,0,0,0,0,0,0,0,0,0,0,0,0,189,245,284,2147483926,0,0,0,0,0,0,458,459,0,0,0,0,0,0,0,0,0,0,0,0,
0,0,0,0,0,0,0,0,0,0,0,0,0,0,0,0,0,277,0,0,0,2147484075,2147484074,0,486,0,0,0,0,0,0,0,0,0,0,0,0,0,0,0,
0,184,0,0,0,0,0,0,0,0,0,0,0,0,0,0,0,256,0,0,0,2147484107,2147484106,0,0,0,0,0,0,0,0,0,0,0,0,0,0,0,0,0,
2147483894,216,0,0,0,0,0,0,0,0,0,0,0,0,0,0,0,0,124,0,0,0,0,0,0,0,0,0,0,0,0,0,0,0,0,0,0,0,0,0,
2147483926,0,0,0,0,0,0,0,0,0,0,0,0,0,0,0,0,0,0,2147483893,0,0,0,0,0,0,0,0,0,0,0,0,0,0,0,0,0,0,0,0,
0,284,0,0,0,0,0,0,0,0,0,0,0,0,0,0,0,0,250,2147483925,0,0,0,0,0,0,0,0,0,0,0,0,0,0,0,0,0,0,0,0,
124,0,0,0,0,0,0,0,0,0,0,0,0,0,0,0,0,190,282,0,0,0,0,0,0,0,484,0,0,0,0,0,0,0,0,0,0,0,0,0,
0,94,0,0,0,0,0,0,0,0,0,0,0,0,0,0,0,0,0,256,0,0,0,0,0,486,0,0,0,0,0,0,0,0,0,0,0,0,0,0,
0,223,0,0,0,0,0,0,0,0,0,0,0,0,0,0,328,329,2147483860,0,0,0,0,0,0,0,0,0,0,0,0,0,0,0,0,0,0,0,0,0,
256,0,0,0,0,0,0,0,0,0,0,0,0,0,0,0,360,361,0,94,2147483894,0,0,0,0,0,0,0,0,0,0,0,0,0,0,0,0,0,0,0,
0,212,0,0,0,0,0,0,0,0,0,0,0,0,0,0,0,0,223,0,2147483926,0,0,0,0,0,0,0,0,0,0,0,0,0,0,0,0,0,0,0,
250,0,0,0,0,0,0,0,0,0,0,0,0,0,0,0,0,0,0,244,0,0,0,0,0,0,0,0,0,0,0,0,0,0,0,0,0,0,0,0,
282,157,0,0,0,0,0,0,0,0,0,0,0,0,0,0,0,0,189,276,0,0,0,0,0,0,0,0,0,0,0,0,0,0,0,0,0,0,0,0,
283,0,0,0,0,0,0,0,0,0,0,0,0,0,0,0,0,0,0,250,190,0,0,0,0,0,0,0,0,0,0,0,0,0,0,0,0,0,0,0,
0,124,0,0,0,0,0,0,0,0,0,0,0,0,0,0,0,0,0,282,0,0,0,0,0,0,0,0,0,0,0,0,0,0,0,0,0,0,0,0,
2147483860,0,0,0,0,0,0,0,0,0,0,0,0,0,0,0,0,0,0,0,245,0,0,484,0,0,0,0,0,0,0,0,0,0,0,0,0,0,0,0,
0,244,94,0,0,0,0,0,0,0,0,0,0,0,0,0,0,0,0,2147483892,277,0,0,0,0,486,0,0,0,0,0,0,0,0,0,0,0,0,0,0,
0,276,0,0,184,0,0,0,0,0,0,0,0,0,0,0,0,0,0,2147483924,0,0,0,0,0,0,0,0,0,0,0,0,0,0,0,0,0,0,0,0,
0,0,284,0,216,0,0,0,0,0,0,0,0,0,0,0,0,0,0,0,0,223,0,184,0,0,0,0,0,0,0,0,0,0,0,0,0,0,0,0,
0,0,0,256,212,0,0,0,0,0,0,0,0,0,0,0,0,0,0,0,0,2147483894,124,216,0,0,0,0,0,0,0,0,0,0,0,0,0,0,0,0,
0,0,0,0,157,212,184,250,0,0,0,0,0,0,0,0,0,0,0,0,0,2147483926,2147483893,0,0,0,0,0,0,0,0,0,0,0,0,0,0,0,0,0,
0,0,0,0,0,223,216,282,0,0,0,0,0,0,0,0,0,0,0,0,0,0,2147483925,223,2147483892,0,184,0,0,0,0,0,0,0,0,0,0,0,0,0,
0,0,0,0,212,0,2147483894,0,0,0,0,0,0,0,0,0,0,0,0,0,0,0,0,0,2147483924,0,216,0,0,0,0,0,0,0,0,0,0,0,0,0,
0,0,0,0,0,0,2147483926,284,0,0,0,0,426,427,0,0,0,0,0,0,0,0,0,190,0,283,0,250,0,0,0,0,0,0,0,0,0,0,0,0,
0,0,0,0,0,0,124,0,0,0,0,0,458,459,0,0,0,0,0,0,0,0,0,0,0,0,0,282,0,0,0,0,0,0,0,0,0,0,0,0,
0,0,0,0,0,0,0,94,0,0,0,0,0,0,0,0,0,0,0,0,0,0,0,0,0,0,0,124,0,0,0,0,0,0,0,0,0,0,0,0
</data>
 </layer>
 <layer id="8" name="Paths" width="40" height="40">
  <data encoding="csv">
28,0,0,0,0,0,9,0,0,0,0,0,0,0,0,0,0,0,0,0,0,0,0,0,0,0,9,0,0,0,0,0,0,0,0,0,0,0,0,0,
0,0,0,0,0,0,0,9,0,0,0,0,0,0,0,0,0,0,0,0,0,0,0,0,0,9,0,0,0,0,0,0,0,0,0,0,0,0,0,0,
0,0,0,0,0,0,0,0,0,0,0,0,0,0,0,0,0,0,0,0,0,0,0,0,9,0,0,0,0,0,0,0,0,0,0,0,0,0,0,0,
0,0,0,0,0,0,0,0,0,0,37,0,0,0,0,0,0,0,0,0,0,0,0,0,0,0,0,0,0,0,0,0,0,0,0,0,0,0,0,0,
0,0,0,0,0,0,0,0,0,37,0,37,0,0,0,0,0,0,0,0,0,0,37,0,0,0,0,0,0,0,0,0,0,0,0,0,0,0,0,0,
0,0,0,0,0,0,0,37,37,37,37,0,0,0,0,0,0,0,0,0,0,37,37,37,37,0,0,0,0,0,0,0,0,0,0,0,0,0,0,0,
0,0,0,0,0,0,37,37,37,37,0,0,0,0,0,0,0,37,37,0,0,37,37,37,37,0,0,0,0,0,0,0,0,0,0,0,0,0,0,0,
0,0,0,0,0,37,37,37,37,37,0,37,0,0,37,37,37,37,37,0,37,37,0,37,0,0,0,0,0,0,0,0,0,0,0,0,0,0,0,0,
0,0,0,0,37,37,37,37,37,37,0,0,0,37,37,37,37,37,37,9,0,0,0,0,0,0,0,0,0,0,0,0,0,0,0,0,0,0,0,0,
0,0,0,37,0,37,37,37,37,0,37,0,0,37,37,37,0,37,37,37,9,0,0,0,0,0,0,0,0,0,0,0,0,0,0,0,0,0,0,0,
0,0,0,0,37,37,37,37,37,0,0,0,0,0,0,37,37,37,37,0,0,0,0,0,0,0,0,0,0,0,0,0,0,0,0,0,0,0,0,0,
0,0,0,0,0,37,37,37,0,0,0,0,0,0,0,0,37,37,0,0,0,0,0,0,0,0,0,0,0,0,0,0,0,0,0,0,0,0,0,0,
0,0,0,0,0,37,37,0,0,0,0,0,0,0,0,0,0,0,0,0,0,0,0,0,0,0,0,0,0,0,0,0,0,0,0,0,0,0,0,0,
0,0,9,0,0,0,0,0,0,0,0,0,0,0,0,0,0,0,0,0,0,0,0,0,0,0,0,0,0,0,0,0,0,0,0,0,0,0,0,0,
0,0,0,9,0,0,0,0,0,0,0,0,0,0,0,0,0,0,0,0,0,0,0,0,0,0,0,0,0,0,0,0,0,0,0,0,0,0,0,0,
0,0,0,0,0,0,0,0,0,0,0,0,0,0,0,0,0,0,0,0,0,0,0,0,9,0,0,0,0,0,0,0,0,0,0,0,0,0,0,0,
0,0,0,0,0,0,0,0,0,0,0,0,0,0,0,0,0,0,0,0,0,0,0,0,0,0,0,0,0,0,0,0,0,0,0,0,0,0,0,0,
0,0,0,0,0,0,0,0,0,0,0,0,37,0,0,0,0,0,0,0,0,0,0,0,0,0,0,0,28,0,0,0,0,0,0,0,0,0,0,0,
0,0,0,0,0,0,0,0,0,0,0,0,0,0,0,0,0,0,0,0,0,0,0,0,0,0,0,0,0,0,0,0,0,0,0,0,0,0,0,0,
0,0,0,0,0,0,0,0,0,0,0,0,0,37,0,0,0,0,0,0,0,0,0,0,0,0,0,0,0,0,0,0,0,0,0,0,0,0,0,0,
0,0,0,0,0,0,0,0,0,0,0,0,37,0,37,0,0,0,0,0,0,0,0,0,0,0,9,0,0,0,0,0,0,0,0,0,0,0,0,0,
0,0,0,0,0,0,0,0,0,37,0,0,0,37,0,0,0,0,0,0,0,0,0,0,0,9,0,0,0,0,0,0,0,0,0,0,0,0,0,0,
0,0,0,0,0,0,0,0,37,0,37,0,0,0,0,0,0,0,0,0,0,0,0,0,0,0,0,0,0,0,0,0,0,0,0,0,0,0,0,0,
0,0,0,0,0,0,0,0,0,37,0,0,37,37,0,0,0,0,0,0,0,0,0,0,0,0,0,0,0,0,0,0,0,0,0,0,0,0,0,0,
0,0,0,0,0,0,0,0,0,0,0,37,37,37,0,0,0,0,0,0,0,0,0,0,0,0,0,0,0,0,0,0,0,0,0,0,0,0,0,0,
0,0,0,0,0,0,0,0,37,0,37,37,37,37,37,0,0,0,0,0,0,0,0,0,0,0,0,0,0,0,0,0,0,0,0,0,0,0,0,0,
0,0,0,0,0,9,0,37,0,0,37,37,37,37,0,37,0,0,0,0,0,0,0,28,0,0,0,0,0,0,0,0,0,0,0,0,0,0,0,0,
0,0,0,0,0,0,0,37,37,37,37,37,37,37,37,0,0,0,0,0,0,0,0,0,0,0,0,0,0,0,0,0,0,0,0,0,0,0,0,0,
0,0,0,0,0,37,37,37,37,37,37,37,37,0,0,0,0,0,0,0,0,0,0,0,0,0,0,0,0,0,0,0,0,0,0,0,0,0,0,0,
0,0,0,0,0,37,37,37,37,37,37,37,37,0,9,0,0,0,0,0,0,0,0,9,0,0,0,0,0,0,0,0,0,0,0,0,0,0,0,0,
0,0,0,0,0,0,37,37,37,37,37,37,37,37,0,0,0,0,0,0,0,0,0,0,0,9,0,0,0,0,0,0,0,0,0,0,0,0,0,0,
0,0,0,0,0,0,0,0,0,37,37,37,37,37,0,9,0,0,0,0,0,0,0,0,0,0,0,0,0,0,0,0,0,0,0,0,0,0,0,0,
0,0,0,0,0,0,0,9,0,0,37,37,37,37,37,0,0,0,0,0,0,0,0,0,0,0,0,0,0,0,0,0,0,0,0,0,0,0,0,0,
0,0,0,0,0,0,0,0,0,0,0,37,0,37,0,0,0,0,0,0,0,0,0,0,0,0,0,0,0,0,0,0,0,0,0,0,0,0,0,0,
0,0,0,0,0,0,0,0,0,0,0,0,37,0,0,0,0,0,0,0,0,0,0,0,0,0,0,0,0,0,0,0,0,0,0,0,0,0,0,0,
0,0,0,0,0,0,0,0,0,0,0,0,0,9,0,0,0,0,0,0,0,0,0,0,0,0,0,0,0,0,0,0,0,0,0,0,0,0,0,0,
0,0,0,0,0,0,0,0,0,0,0,0,9,0,0,0,0,0,0,0,0,0,0,0,0,0,0,0,0,0,0,0,0,0,0,0,0,0,0,0,
0,0,0,0,0,0,0,0,0,0,0,0,0,0,0,0,0,0,0,0,0,0,0,0,0,0,0,0,0,0,0,0,0,0,0,0,0,0,0,0,
0,28,0,0,0,0,0,0,0,0,0,0,0,0,0,0,0,0,0,0,0,0,0,0,0,0,0,0,0,0,0,0,0,0,0,0,0,0,0,0,
0,0,0,0,0,0,0,0,0,0,0,0,0,0,0,0,0,0,0,0,0,0,0,0,0,0,0,0,0,0,0,0,0,0,0,0,0,0,0,0
</data>
 </layer>
 <layer id="7" name="AlwaysFront" width="40" height="40">
  <data encoding="csv">
0,0,0,0,0,0,481,0,0,0,0,0,0,0,0,0,0,0,0,0,0,0,0,0,0,0,486,0,0,0,0,0,0,0,0,0,0,0,0,0,
0,0,0,0,0,0,0,484,0,0,0,0,0,0,0,0,0,0,0,0,0,0,0,0,0,484,0,0,0,0,0,0,0,0,0,0,0,0,0,0,
0,0,0,0,0,0,0,0,0,0,0,0,0,0,0,0,0,0,0,0,0,0,0,0,481,0,0,0,0,0,0,0,0,0,0,0,0,0,0,0,
0,0,0,0,0,0,0,0,0,0,0,0,0,0,0,0,0,0,0,0,0,0,0,0,0,0,0,0,0,0,0,0,0,0,0,0,0,0,0,0,
0,0,0,0,0,0,0,0,0,0,0,0,0,0,0,0,0,0,0,0,0,0,0,0,0,0,0,0,0,0,0,0,0,0,0,0,0,0,0,0,
0,0,0,0,0,0,0,0,0,0,0,0,0,0,0,0,0,0,0,0,0,0,0,0,0,0,0,0,0,0,0,0,0,0,0,0,0,0,0,0,
0,0,0,0,0,0,0,0,0,0,0,0,0,0,0,0,0,0,0,0,0,0,0,0,0,0,0,0,0,0,0,0,0,0,0,0,0,0,0,0,
0,0,0,0,0,0,0,0,0,0,0,0,0,0,0,0,0,0,0,0,0,0,0,0,0,0,0,0,0,0,0,0,0,0,0,0,0,0,0,0,
0,0,0,0,0,0,0,0,0,0,0,0,0,0,0,0,0,0,0,513,0,0,0,0,0,0,0,0,0,0,0,0,0,0,0,0,0,0,0,0,
0,0,0,0,0,0,0,0,0,0,0,0,0,0,0,0,0,0,0,0,484,0,0,0,0,0,0,0,0,0,0,0,0,0,0,0,0,0,0,0,
0,0,0,0,0,0,0,0,0,0,0,0,0,0,0,0,0,0,0,0,0,0,0,0,0,0,0,0,0,0,0,0,0,0,0,0,0,0,0,0,
0,0,0,0,0,0,0,0,0,0,0,0,0,0,0,0,0,0,0,0,0,0,0,0,0,0,0,0,0,0,0,0,0,0,0,0,0,0,0,0,
0,0,0,0,0,0,0,0,0,0,0,0,0,0,0,0,0,0,0,0,0,0,0,0,0,0,0,0,0,0,0,0,0,0,0,0,0,0,0,0,
0,0,515,0,0,0,0,0,0,0,0,0,0,0,0,0,0,0,0,0,0,0,0,0,0,0,0,0,0,0,0,0,0,0,0,0,0,0,0,0,
0,0,0,486,0,0,0,0,0,0,0,0,0,0,0,0,0,0,0,0,0,0,0,0,0,0,0,0,0,0,0,0,0,0,0,0,0,0,0,0,
0,0,0,0,0,0,0,0,0,0,0,0,0,0,0,0,0,0,0,0,0,0,0,0,0,0,0,0,0,0,0,0,0,0,0,0,0,0,0,0,
0,0,0,0,0,0,0,0,0,0,0,0,0,0,0,0,0,0,0,0,0,0,0,0,0,0,0,0,0,0,0,0,0,0,0,0,0,0,0,0,
0,0,0,0,0,0,0,0,0,0,0,0,0,0,0,0,0,0,0,0,0,0,0,0,0,0,0,0,0,0,0,0,0,0,0,0,0,0,0,0,
0,0,0,0,0,0,0,0,0,0,0,0,0,0,0,0,0,0,0,0,0,0,0,0,0,0,0,0,0,0,0,0,0,0,0,0,0,0,0,0,
0,0,0,0,0,0,0,0,0,0,0,0,0,0,0,0,0,0,0,0,0,0,0,0,0,0,0,0,0,0,0,0,0,0,0,0,0,0,0,0,
0,0,0,0,0,0,0,0,0,0,0,0,0,0,0,0,0,0,0,0,0,0,0,0,0,0,0,0,0,0,0,0,0,0,0,0,0,0,0,0,
0,0,0,0,0,0,0,0,0,0,0,0,0,0,0,0,0,0,0,0,0,0,0,0,0,0,0,0,0,0,0,0,0,0,0,0,0,0,0,0,
0,0,0,0,0,0,0,0,0,0,0,0,0,0,0,0,0,0,0,0,0,0,0,0,0,0,0,0,0,0,0,0,0,0,0,0,0,0,0,0,
0,0,0,0,0,0,0,0,0,0,0,0,0,0,0,0,0,0,0,0,0,0,0,0,0,0,0,0,0,0,0,0,0,0,0,0,0,0,0,0,
0,0,0,0,0,0,0,0,0,0,0,0,0,0,0,0,0,0,0,0,0,0,0,0,0,0,0,0,0,0,0,0,0,0,0,0,0,0,0,0,
0,0,0,0,0,0,0,0,0,0,0,0,0,0,0,0,0,0,0,0,0,0,0,0,0,0,0,0,0,0,0,0,0,0,0,0,0,0,0,0,
0,0,0,0,0,483,0,0,0,0,0,0,0,0,0,0,0,0,0,0,0,0,0,0,0,0,0,0,0,0,0,0,0,0,0,0,0,0,0,0,
0,0,0,0,0,0,0,0,0,0,0,0,0,0,0,0,0,0,0,0,0,0,0,0,0,0,0,0,0,0,0,0,0,0,0,0,0,0,0,0,
0,0,0,0,0,0,0,0,0,0,0,0,0,0,0,0,0,0,0,0,0,0,0,0,0,0,0,0,0,0,0,0,0,0,0,0,0,0,0,0,
0,0,0,0,0,0,0,0,0,0,0,0,0,0,486,0,0,0,0,0,0,0,0,0,0,0,0,0,0,0,0,0,0,0,0,0,0,0,0,0,
0,0,0,0,0,0,0,0,0,0,0,0,0,0,0,0,0,0,0,0,0,0,0,0,0,0,0,0,0,0,0,0,0,0,0,0,0,0,0,0,
0,0,0,0,0,0,0,0,0,0,0,0,0,0,0,484,0,0,0,0,0,0,0,0,0,0,0,0,0,0,0,0,0,0,0,0,0,0,0,0,
0,0,0,0,0,0,0,486,0,0,0,0,0,0,0,0,0,0,0,0,0,0,0,0,0,0,0,0,0,0,0,0,0,0,0,0,0,0,0,0,
0,0,0,0,0,0,0,0,0,0,0,0,0,0,0,0,0,0,0,0,0,0,0,0,0,0,0,0,0,0,0,0,0,0,0,0,0,0,0,0,
0,0,0,0,0,0,0,0,0,0,0,0,0,0,0,0,0,0,0,0,0,0,0,0,0,0,0,0,0,0,0,0,0,0,0,0,0,0,0,0,
0,0,0,0,0,0,0,0,0,0,0,0,0,486,0,0,0,0,0,0,0,0,0,0,0,0,0,0,0,0,0,0,0,0,0,0,0,0,0,0,
0,0,0,0,0,0,0,0,0,0,0,0,484,0,0,0,0,0,0,0,0,0,0,0,0,0,0,0,0,0,0,0,0,0,0,0,0,0,0,0,
0,0,0,0,0,0,0,0,0,0,0,0,0,0,0,0,0,0,0,0,0,0,0,0,0,0,0,0,0,0,0,0,0,0,0,0,0,0,0,0,
0,0,0,0,0,0,0,0,0,0,0,0,0,0,0,0,0,0,0,0,0,0,0,0,0,0,0,0,0,0,0,0,0,0,0,0,0,0,0,0,
0,0,0,0,0,0,0,0,0,0,0,0,0,0,0,0,0,0,0,0,0,0,0,0,0,0,0,0,0,0,0,0,0,0,0,0,0,0,0,0
</data>
 </layer>
 <layer id="6" name="AlwaysFront2" width="40" height="40">
  <data encoding="csv">
0,0,0,0,0,0,0,0,0,0,0,0,0,0,0,0,0,0,0,0,0,0,0,0,0,0,0,0,0,0,0,0,0,0,0,0,0,0,0,0,
0,0,0,0,0,0,0,0,0,0,0,0,0,0,0,0,0,0,0,0,0,0,0,0,0,0,0,0,0,0,0,0,0,0,0,0,0,0,0,0,
0,0,0,0,0,0,0,0,0,0,0,0,0,0,0,0,0,0,0,0,0,0,0,0,0,0,0,0,0,0,0,0,0,0,0,0,0,0,0,0,
0,0,0,0,0,0,0,0,0,0,0,0,0,0,0,0,0,0,0,0,0,0,0,0,0,0,0,0,0,0,0,0,0,0,0,0,0,0,0,0,
0,0,0,0,0,0,0,0,0,0,0,0,0,0,0,0,0,0,0,0,0,0,0,0,0,0,0,0,0,0,0,0,0,0,0,0,0,0,0,0,
0,0,0,0,0,0,0,0,0,0,0,0,0,0,0,0,0,0,0,0,0,0,0,0,0,0,0,0,0,0,0,0,0,0,0,0,0,0,0,0,
0,0,0,0,0,0,0,0,0,0,0,0,0,0,0,0,0,0,0,0,0,0,0,0,0,0,0,0,0,0,0,0,0,0,0,0,0,0,0,0,
0,0,0,0,0,0,0,0,0,0,0,0,0,0,0,0,0,0,0,0,0,0,0,0,0,0,0,0,0,0,0,0,0,0,0,0,0,0,0,0,
0,0,0,0,0,0,0,0,0,0,0,0,0,0,0,0,0,0,0,0,0,0,0,0,0,0,0,0,0,0,0,0,0,0,0,0,0,0,0,0,
0,0,0,0,0,0,0,0,0,0,0,0,0,0,0,0,0,0,0,0,0,0,0,0,0,0,0,0,0,0,0,0,0,0,0,0,0,0,0,0,
0,0,0,0,0,0,0,0,0,0,0,0,0,0,0,0,0,0,0,0,0,0,0,0,0,0,0,0,0,0,0,0,0,0,0,0,0,0,0,0,
0,0,0,0,0,0,0,0,0,0,0,0,0,0,0,0,0,0,0,0,0,0,0,0,0,0,0,0,0,0,0,0,0,0,0,0,0,0,0,0,
0,0,0,0,0,0,0,0,0,0,0,0,0,0,0,0,0,0,0,0,0,0,0,0,0,0,0,0,0,0,0,0,0,0,0,0,0,0,0,0,
0,0,0,0,0,0,0,0,0,0,0,0,0,0,0,0,0,0,0,0,0,0,0,0,0,0,0,0,0,0,0,0,0,0,0,0,0,0,0,0,
0,0,0,0,0,0,0,0,0,0,0,0,0,0,0,0,0,0,0,0,0,0,0,0,0,0,0,0,0,0,0,0,0,0,0,0,0,0,0,0,
0,0,0,0,0,0,0,0,0,0,0,0,0,0,0,0,0,0,0,0,0,0,0,0,0,0,0,0,0,0,0,0,0,0,0,0,0,0,0,0,
0,0,0,0,0,0,0,0,0,0,0,0,0,0,0,0,0,0,0,0,0,0,0,0,0,0,0,0,0,0,0,0,0,0,0,0,0,0,0,0,
0,0,0,0,0,0,0,0,0,0,0,0,0,0,0,0,0,0,0,0,0,0,0,0,0,0,0,0,0,0,0,0,0,0,0,0,0,0,0,0,
0,0,0,0,0,0,0,0,0,0,0,0,0,0,0,0,0,0,0,0,0,0,0,0,0,0,0,0,0,0,0,0,0,0,0,0,0,0,0,0,
0,0,0,0,0,0,0,0,0,0,0,0,0,0,0,0,0,0,0,0,0,0,0,0,0,0,0,0,0,0,0,0,0,0,0,0,0,0,0,0,
0,0,0,0,0,0,0,0,0,0,0,0,0,0,0,0,0,0,0,0,0,0,0,0,0,0,0,0,0,0,0,0,0,0,0,0,0,0,0,0,
0,0,0,0,0,0,0,0,0,0,0,0,0,0,0,0,0,0,0,0,0,0,0,0,0,0,0,0,0,0,0,0,0,0,0,0,0,0,0,0,
0,0,0,0,0,0,0,0,0,0,0,0,0,0,0,0,0,0,0,0,0,0,0,0,0,0,0,0,0,0,0,0,0,0,0,0,0,0,0,0,
0,0,0,0,0,0,0,0,0,0,0,0,0,0,0,0,0,0,0,0,0,0,0,0,0,0,0,0,0,0,0,0,0,0,0,0,0,0,0,0,
0,0,0,0,0,0,0,0,0,0,0,0,0,0,0,0,0,0,0,0,0,0,0,0,0,0,0,0,0,0,0,0,0,0,0,0,0,0,0,0,
0,0,0,0,0,0,0,0,0,0,0,0,0,0,0,0,0,0,0,0,0,0,0,0,0,0,0,0,0,0,0,0,0,0,0,0,0,0,0,0,
0,0,0,0,0,0,0,0,0,0,0,0,0,0,0,0,0,0,0,0,0,0,0,0,0,0,0,0,0,0,0,0,0,0,0,0,0,0,0,0,
0,0,0,0,0,0,0,0,0,0,0,0,0,0,0,0,0,0,0,0,0,0,0,0,0,0,0,0,0,0,0,0,0,0,0,0,0,0,0,0,
0,0,0,0,0,0,0,0,0,0,0,0,0,0,0,0,0,0,0,0,0,0,0,0,0,0,0,0,0,0,0,0,0,0,0,0,0,0,0,0,
0,0,0,0,0,0,0,0,0,0,0,0,0,0,0,0,0,0,0,0,0,0,0,0,0,0,0,0,0,0,0,0,0,0,0,0,0,0,0,0,
0,0,0,0,0,0,0,0,0,0,0,0,0,0,0,0,0,0,0,0,0,0,0,0,0,0,0,0,0,0,0,0,0,0,0,0,0,0,0,0,
0,0,0,0,0,0,0,0,0,0,0,0,0,0,0,0,0,0,0,0,0,0,0,0,0,0,0,0,0,0,0,0,0,0,0,0,0,0,0,0,
0,0,0,0,0,0,0,0,0,0,0,0,0,0,0,0,0,0,0,0,0,0,0,0,0,0,0,0,0,0,0,0,0,0,0,0,0,0,0,0,
0,0,0,0,0,0,0,0,0,0,0,0,0,0,0,0,0,0,0,0,0,0,0,0,0,0,0,0,0,0,0,0,0,0,0,0,0,0,0,0,
0,0,0,0,0,0,0,0,0,0,0,0,0,0,0,0,0,0,0,0,0,0,0,0,0,0,0,0,0,0,0,0,0,0,0,0,0,0,0,0,
0,0,0,0,0,0,0,0,0,0,0,0,0,0,0,0,0,0,0,0,0,0,0,0,0,0,0,0,0,0,0,0,0,0,0,0,0,0,0,0,
0,0,0,0,0,0,0,0,0,0,0,0,0,0,0,0,0,0,0,0,0,0,0,0,0,0,0,0,0,0,0,0,0,0,0,0,0,0,0,0,
0,0,0,0,0,0,0,0,0,0,0,0,0,0,0,0,0,0,0,0,0,0,0,0,0,0,0,0,0,0,0,0,0,0,0,0,0,0,0,0,
0,0,0,0,0,0,0,0,0,0,0,0,0,0,0,0,0,0,0,0,0,0,0,0,0,0,0,0,0,0,0,0,0,0,0,0,0,0,0,0,
0,0,0,0,0,0,0,0,0,0,0,0,0,0,0,0,0,0,0,0,0,0,0,0,0,0,0,0,0,0,0,0,0,0,0,0,0,0,0,0
</data>
 </layer>
 <objectgroup id="9" name="Back"/>
 <objectgroup id="10" name="Back2"/>
 <objectgroup id="19" name="Back3"/>
 <objectgroup id="11" name="Buildings"/>
 <objectgroup id="12" name="Buildings2"/>
 <objectgroup id="13" name="Front"/>
 <objectgroup id="20" name="Front2"/>
 <objectgroup id="16" name="Paths"/>
 <objectgroup id="14" name="AlwaysFront"/>
 <objectgroup id="15" name="AlwaysFront2"/>
</map>
