<?xml version="1.0" encoding="UTF-8"?>
<map version="1.10" tiledversion="1.11.2" orientation="orthogonal" renderorder="right-down" compressionlevel="0" width="40" height="50" tilewidth="16" tileheight="16" infinite="0" nextlayerid="23" nextobjectid="54">
 <properties>
  <property name="AllowGrassSurviveInWinter" value="T"/>
  <property name="BrookSounds" value="2 23 0 33 3 0 20 35 0"/>
  <property name="Light" value="37 23 4 35 21 4 36 20 4 19 9 4 18 10 4 8 10 4 13 25 4 14 28 4 13 29 4 10 31 4 13 40 4 14 42 4 26 27 4 25 28 4 27 30 4 24 37 4 23 38 4 31 47 4 29 49 4"/>
  <property name="LocationContext" value="VoidWitchCult.CP.TheFishmongerNPC_LostIslandPassOut"/>
  <property name="Outdoors" value="T"/>
  <property name="SeasonOverride" value="summer"/>
 </properties>
 <tileset firstgid="1" name="paths" tilewidth="16" tileheight="16" tilecount="64" columns="4">
  <image source=".paths.png" width="64" height="256"/>
 </tileset>
 <tileset firstgid="65" name=".VWCF_LostIsland_Underwater_tainted" tilewidth="16" tileheight="16" tilecount="832" columns="32">
  <image source=".VWCF_LostIsland_Underwater_tainted.png" width="512" height="416"/>
  <tile id="0">
   <properties>
    <property name="Type" value="Stone"/>
   </properties>
  </tile>
  <tile id="1">
   <properties>
    <property name="Type" value="Stone"/>
   </properties>
  </tile>
  <tile id="2">
   <properties>
    <property name="Type" value="Stone"/>
   </properties>
  </tile>
  <tile id="3">
   <properties>
    <property name="Type" value="Stone"/>
   </properties>
  </tile>
  <tile id="4">
   <properties>
    <property name="Type" value="Stone"/>
   </properties>
  </tile>
  <tile id="5">
   <properties>
    <property name="Type" value="Dirt"/>
   </properties>
  </tile>
  <tile id="7">
   <properties>
    <property name="Type" value="Stone"/>
   </properties>
  </tile>
  <tile id="8">
   <properties>
    <property name="Type" value="Stone"/>
   </properties>
  </tile>
  <tile id="10">
   <properties>
    <property name="Type" value="Dirt"/>
   </properties>
  </tile>
  <tile id="19">
   <animation>
    <frame tileid="19" duration="500"/>
    <frame tileid="20" duration="500"/>
    <frame tileid="21" duration="500"/>
    <frame tileid="22" duration="500"/>
    <frame tileid="23" duration="500"/>
    <frame tileid="24" duration="500"/>
    <frame tileid="25" duration="500"/>
    <frame tileid="24" duration="500"/>
    <frame tileid="23" duration="500"/>
    <frame tileid="22" duration="500"/>
    <frame tileid="21" duration="500"/>
    <frame tileid="20" duration="500"/>
   </animation>
  </tile>
  <tile id="32">
   <properties>
    <property name="Type" value="Stone"/>
   </properties>
  </tile>
  <tile id="33">
   <properties>
    <property name="Type" value="Stone"/>
   </properties>
  </tile>
  <tile id="34">
   <properties>
    <property name="Type" value="Stone"/>
   </properties>
  </tile>
  <tile id="35">
   <properties>
    <property name="Type" value="Stone"/>
   </properties>
  </tile>
  <tile id="36">
   <properties>
    <property name="Type" value="Stone"/>
   </properties>
  </tile>
  <tile id="37">
   <properties>
    <property name="Type" value="Dirt"/>
    <property name="Water" value="I"/>
   </properties>
  </tile>
  <tile id="64">
   <properties>
    <property name="Type" value="Stone"/>
   </properties>
  </tile>
  <tile id="65">
   <properties>
    <property name="Type" value="Stone"/>
   </properties>
  </tile>
  <tile id="66">
   <properties>
    <property name="Type" value="Stone"/>
   </properties>
  </tile>
  <tile id="67">
   <properties>
    <property name="Type" value="Stone"/>
   </properties>
  </tile>
  <tile id="68">
   <properties>
    <property name="Type" value="Stone"/>
   </properties>
  </tile>
  <tile id="96">
   <properties>
    <property name="Type" value="Stone"/>
   </properties>
  </tile>
  <tile id="97">
   <properties>
    <property name="Type" value="Stone"/>
   </properties>
  </tile>
  <tile id="98">
   <properties>
    <property name="Type" value="Stone"/>
   </properties>
  </tile>
  <tile id="99">
   <properties>
    <property name="Type" value="Stone"/>
   </properties>
  </tile>
  <tile id="100">
   <properties>
    <property name="Type" value="Stone"/>
   </properties>
  </tile>
  <tile id="128">
   <properties>
    <property name="Type" value="Stone"/>
   </properties>
  </tile>
  <tile id="129">
   <properties>
    <property name="Type" value="Stone"/>
   </properties>
  </tile>
  <tile id="130">
   <properties>
    <property name="Type" value="Stone"/>
   </properties>
  </tile>
  <tile id="131">
   <properties>
    <property name="Type" value="Stone"/>
   </properties>
  </tile>
  <tile id="132">
   <properties>
    <property name="Type" value="Stone"/>
   </properties>
  </tile>
  <tile id="160">
   <properties>
    <property name="Type" value="Stone"/>
   </properties>
  </tile>
  <tile id="161">
   <properties>
    <property name="Type" value="Stone"/>
   </properties>
  </tile>
  <tile id="162">
   <properties>
    <property name="Type" value="Stone"/>
   </properties>
  </tile>
  <tile id="163">
   <properties>
    <property name="Type" value="Stone"/>
   </properties>
  </tile>
  <tile id="164">
   <properties>
    <property name="Type" value="Stone"/>
   </properties>
  </tile>
  <tile id="416">
   <animation>
    <frame tileid="416" duration="300"/>
    <frame tileid="417" duration="300"/>
    <frame tileid="418" duration="300"/>
    <frame tileid="416" duration="300"/>
   </animation>
  </tile>
  <tile id="418">
   <animation>
    <frame tileid="418" duration="300"/>
    <frame tileid="417" duration="300"/>
    <frame tileid="416" duration="300"/>
    <frame tileid="417" duration="300"/>
   </animation>
  </tile>
  <tile id="419">
   <animation>
    <frame tileid="419" duration="300"/>
    <frame tileid="420" duration="300"/>
    <frame tileid="421" duration="300"/>
    <frame tileid="420" duration="300"/>
   </animation>
  </tile>
  <tile id="421">
   <animation>
    <frame tileid="421" duration="300"/>
    <frame tileid="420" duration="300"/>
    <frame tileid="419" duration="300"/>
    <frame tileid="420" duration="300"/>
   </animation>
  </tile>
  <tile id="448">
   <animation>
    <frame tileid="448" duration="300"/>
    <frame tileid="449" duration="300"/>
    <frame tileid="450" duration="300"/>
    <frame tileid="449" duration="300"/>
   </animation>
  </tile>
  <tile id="450">
   <animation>
    <frame tileid="450" duration="300"/>
    <frame tileid="449" duration="300"/>
    <frame tileid="448" duration="300"/>
    <frame tileid="449" duration="300"/>
   </animation>
  </tile>
 </tileset>
 <layer id="1" name="Back" width="40" height="50">
  <data encoding="csv">
75,75,75,75,75,75,75,75,75,75,75,75,75,75,75,75,75,75,75,75,75,75,75,75,75,75,75,75,75,75,75,75,75,75,75,75,75,75,75,75,
75,75,75,75,75,75,75,75,75,75,75,75,75,75,75,75,75,75,75,75,75,75,75,75,75,75,75,75,75,75,75,75,75,75,75,75,75,75,75,75,
75,75,75,75,75,75,75,75,75,75,75,75,75,75,75,75,75,75,75,75,75,75,75,75,75,75,75,75,75,75,75,75,75,75,75,75,75,75,75,75,
75,75,75,75,75,75,75,75,75,75,75,75,75,75,75,75,75,75,75,75,75,75,75,75,75,75,75,75,75,75,75,75,75,75,75,75,75,75,75,75,
75,75,75,75,75,75,75,75,75,75,75,75,75,75,75,75,75,75,75,75,75,75,75,75,75,75,75,75,75,75,75,75,75,75,75,75,75,75,75,75,
75,75,75,75,75,75,75,75,75,75,75,75,75,75,75,75,75,75,75,75,75,75,75,75,75,75,75,75,75,75,75,75,75,75,75,75,75,75,75,75,
75,75,75,75,75,75,75,75,75,75,75,75,75,75,75,75,75,75,75,75,75,75,75,75,75,75,75,75,75,75,75,75,75,75,75,75,75,75,75,75,
75,75,75,75,75,75,75,75,75,75,75,75,75,75,75,75,75,75,75,75,75,75,75,75,75,75,75,75,75,75,75,75,75,75,75,75,75,75,75,75,
75,75,75,75,75,75,75,75,75,75,75,75,75,75,75,75,75,75,75,75,75,75,75,75,75,75,75,75,75,75,75,75,75,75,75,75,75,75,75,75,
75,75,75,75,75,75,75,75,75,75,75,75,75,75,75,75,75,75,75,75,75,75,75,75,75,75,75,75,75,75,75,75,75,75,75,75,75,75,75,75,
75,75,75,75,75,75,75,75,75,75,75,75,75,75,75,75,75,75,75,75,75,75,75,75,75,75,75,75,75,75,75,75,75,75,75,75,75,75,75,75,
75,75,75,75,75,75,75,75,75,75,75,75,75,75,75,75,75,75,75,75,75,75,75,75,75,75,75,75,75,75,75,75,75,75,75,75,75,75,75,75,
75,75,75,75,75,75,75,75,75,75,75,75,75,75,75,75,75,75,75,75,75,75,75,75,75,75,75,75,75,75,75,75,75,75,75,75,75,75,75,75,
75,75,75,75,75,75,75,75,75,75,75,75,75,75,75,75,75,75,75,75,75,75,75,75,75,75,75,75,75,75,75,75,75,75,75,75,75,75,75,75,
75,75,75,75,75,75,75,75,75,75,75,75,75,75,75,75,75,75,75,75,75,75,75,75,75,75,75,75,75,75,75,75,75,75,75,75,75,75,75,75,
75,75,75,75,75,75,75,75,75,75,75,75,75,75,75,75,75,75,75,75,75,75,75,75,75,75,75,75,75,75,75,75,75,75,75,75,75,75,75,75,
75,75,75,75,75,75,75,75,75,75,75,75,75,75,75,75,75,75,75,75,75,75,75,75,75,75,75,75,75,75,75,75,75,75,75,75,75,75,75,75,
75,75,75,75,75,75,75,75,75,75,75,75,75,75,75,75,75,75,75,75,75,75,75,75,75,75,75,75,75,75,75,75,75,75,75,75,75,75,75,75,
75,75,75,75,75,75,75,75,75,75,75,75,75,75,75,75,75,75,75,75,75,75,75,75,75,75,75,75,75,75,75,75,75,75,75,75,75,75,75,75,
75,75,75,75,75,75,75,75,75,75,75,75,75,75,75,75,75,75,75,75,75,75,75,75,75,75,75,75,75,75,75,75,75,75,75,75,75,75,75,75,
75,75,75,75,75,75,75,75,75,75,75,75,75,75,75,75,75,75,75,75,75,75,75,75,75,75,75,75,75,75,75,75,75,75,75,75,75,75,75,75,
75,75,75,75,75,75,75,75,75,75,75,75,75,75,75,75,75,75,75,75,75,75,75,75,75,75,75,75,75,75,75,75,75,75,75,75,75,75,75,75,
75,75,75,75,75,75,75,75,75,75,75,75,75,75,75,75,75,75,75,75,75,75,75,75,75,75,75,75,75,75,75,75,75,75,75,75,75,75,75,75,
75,75,75,75,75,75,75,75,75,75,75,75,75,75,75,75,75,75,75,75,75,75,75,75,75,75,75,75,75,75,75,75,75,75,75,75,75,75,75,75,
75,75,75,75,75,75,75,75,75,75,75,75,75,75,75,75,75,75,75,75,75,75,75,75,75,75,75,75,75,75,75,75,75,75,75,75,75,75,75,75,
75,75,75,75,75,75,75,75,75,75,75,75,75,75,75,75,75,75,75,75,75,75,75,75,75,75,75,75,75,75,75,75,75,75,75,75,75,75,75,75,
75,75,75,75,75,75,75,75,75,75,75,75,75,75,75,75,75,75,75,75,75,75,75,75,75,75,75,75,75,75,75,75,75,75,75,75,75,75,75,75,
75,75,75,75,75,75,75,75,75,75,75,75,75,75,75,75,75,75,98,75,75,75,75,75,75,75,75,75,75,75,75,75,75,75,75,75,75,75,75,75,
75,75,75,75,75,75,75,75,75,75,75,75,75,75,75,75,75,98,98,98,98,75,75,75,75,75,75,75,75,75,75,75,75,75,75,75,75,75,75,75,
75,75,75,75,75,75,75,75,75,75,75,75,75,75,75,75,75,98,98,98,98,98,75,75,75,75,75,75,75,75,75,75,75,75,75,75,75,75,75,75,
75,75,75,75,75,75,75,75,75,75,75,75,75,75,75,75,98,98,98,98,98,98,98,98,75,75,75,75,75,75,75,75,75,75,75,75,75,75,75,75,
75,75,75,75,75,75,75,75,75,75,75,75,75,75,75,98,98,98,102,102,102,98,98,98,75,75,75,75,75,75,75,75,75,75,75,75,75,75,75,75,
75,75,75,75,75,75,75,75,75,75,75,75,75,75,75,98,98,98,102,102,102,102,102,98,98,98,75,75,75,75,75,75,75,75,75,75,75,75,75,75,
75,75,75,75,75,75,75,75,75,75,75,75,75,75,75,98,98,102,102,102,102,102,102,102,98,98,75,75,75,75,75,75,75,75,75,75,75,75,75,75,
75,75,75,75,75,75,75,75,75,75,75,75,75,75,75,98,98,102,102,102,102,102,102,102,102,98,98,75,75,75,75,75,75,75,75,75,75,75,75,75,
75,75,75,75,75,75,75,75,75,75,75,75,75,75,75,98,98,102,102,102,102,102,102,102,102,98,98,98,75,75,75,75,75,75,75,75,75,75,75,75,
75,75,75,75,75,75,75,75,75,75,75,75,75,75,75,75,98,98,102,102,102,102,102,102,102,102,98,98,75,75,75,75,75,75,75,75,75,75,75,75,
75,75,75,75,75,75,75,75,75,75,75,75,75,75,75,75,98,98,102,102,102,102,102,102,102,102,98,75,75,75,75,75,75,75,75,75,75,75,75,75,
75,75,75,75,75,75,75,75,75,75,75,75,75,75,75,75,75,98,102,102,102,102,102,102,102,102,98,75,75,75,75,75,75,75,75,75,75,75,75,75,
75,75,75,75,75,75,75,75,75,75,75,75,75,75,75,75,75,98,98,98,98,102,102,102,102,98,98,75,75,75,75,75,75,75,75,75,75,75,75,75,
75,75,75,75,75,75,75,75,75,75,75,75,75,75,75,75,75,75,75,98,98,98,98,98,98,98,98,75,75,75,75,75,75,75,75,75,75,75,75,75,
75,75,75,75,75,75,75,75,75,75,75,75,75,75,75,75,75,75,75,75,98,98,98,98,98,75,75,75,75,75,75,75,75,75,75,75,75,75,75,75,
75,75,75,75,75,75,75,75,75,75,75,75,75,75,75,75,75,75,75,75,75,75,98,98,75,75,75,75,75,75,75,75,75,75,75,75,75,75,75,75,
75,75,75,75,75,75,75,75,75,75,75,75,75,75,75,75,75,75,75,75,75,75,75,75,75,75,75,75,75,75,75,75,75,75,75,75,75,75,75,75,
75,75,75,75,75,75,75,75,75,75,75,75,75,75,75,75,75,75,75,75,75,75,75,75,75,75,75,75,75,75,75,75,75,75,75,75,75,75,75,75,
75,75,75,75,75,75,75,75,75,75,75,75,75,75,75,75,75,75,75,75,75,75,75,75,75,75,75,75,75,75,75,75,75,75,75,75,75,75,75,75,
75,75,75,75,75,75,75,75,75,75,75,75,75,75,75,75,75,75,75,75,75,75,75,75,75,75,75,75,75,75,75,75,75,75,75,75,75,75,75,75,
75,75,75,75,75,75,75,75,75,75,75,75,75,75,75,75,75,75,75,75,75,75,75,75,75,75,75,75,75,75,75,75,75,75,75,75,75,75,75,75,
75,75,75,75,75,75,75,75,75,75,75,75,75,75,75,75,75,75,75,75,75,75,75,75,75,75,75,75,75,75,75,75,75,75,75,75,75,75,75,75,
75,75,75,75,75,75,75,75,75,75,75,75,75,75,75,75,75,75,75,75,75,75,75,75,75,75,75,75,75,75,75,75,75,75,75,75,75,75,75,75
</data>
 </layer>
 <layer id="2" name="Back2" width="40" height="50">
  <properties>
   <property name="Draw" value="Back"/>
  </properties>
  <data encoding="csv">
173,173,173,173,173,173,173,173,173,173,173,173,173,173,173,173,173,173,173,173,173,173,173,173,173,173,173,173,173,173,173,173,173,173,173,173,173,173,173,173,
173,173,173,173,0,0,0,0,0,0,0,0,0,173,173,173,173,173,0,0,0,0,0,0,0,0,0,173,173,173,173,173,173,173,173,173,173,173,173,173,
173,173,173,173,0,0,0,0,0,0,0,0,0,173,173,173,173,173,0,0,0,0,0,0,0,0,0,173,173,173,173,173,173,173,173,173,173,173,173,173,
173,173,173,173,0,0,0,0,0,0,0,0,0,173,173,173,173,173,0,0,0,0,0,0,0,0,0,173,173,173,173,173,173,173,173,173,173,173,173,173,
173,173,173,173,0,0,0,0,0,0,0,0,0,0,0,0,0,0,0,0,0,0,0,0,0,0,0,173,173,173,173,173,173,173,173,173,173,173,173,173,
173,173,173,173,0,0,0,0,0,0,0,0,0,0,0,0,0,0,0,0,0,0,0,0,0,0,0,173,173,173,173,173,173,173,173,173,173,173,173,173,
173,173,173,173,0,0,0,0,0,0,0,0,0,0,0,0,0,0,0,0,0,0,0,0,0,0,0,173,173,173,173,173,173,173,173,173,173,173,173,173,
173,173,0,0,0,0,0,0,0,0,0,0,0,0,0,0,0,0,0,0,0,0,0,0,0,0,0,0,0,0,173,173,173,173,173,173,173,173,0,0,
173,173,0,0,0,0,0,0,0,0,0,0,0,0,0,0,0,0,0,0,0,0,0,0,0,0,0,0,0,0,173,173,173,173,173,173,173,173,0,0,
173,173,0,0,0,0,0,0,0,0,0,0,0,0,0,0,0,0,0,0,0,0,0,0,0,0,0,0,0,0,173,173,173,173,173,173,173,173,0,0,
173,173,0,0,0,0,0,0,0,0,0,0,0,0,0,0,0,0,0,0,0,0,0,0,0,0,0,0,0,0,0,0,0,0,0,0,0,0,0,0,
173,173,0,0,0,0,0,0,0,0,0,0,0,0,0,0,0,0,0,0,0,0,0,0,0,0,0,0,0,0,0,0,0,0,0,0,0,0,0,0,
173,173,0,0,0,0,0,0,0,0,0,0,0,0,0,0,0,0,0,132,226,227,98,0,0,0,0,0,0,0,0,0,0,0,0,0,0,0,0,0,
173,173,0,0,0,0,0,0,0,0,0,0,0,0,0,0,0,0,132,227,98,194,98,0,98,98,226,133,0,0,0,0,0,0,0,0,0,0,0,0,
173,173,81,0,0,0,0,0,0,0,0,0,0,0,0,0,0,0,195,194,98,98,98,0,98,98,98,193,0,0,0,0,0,0,0,0,0,0,0,0,
173,173,113,81,0,0,0,0,0,0,0,0,0,0,0,0,0,0,164,163,196,98,98,0,98,98,98,225,0,132,226,133,0,0,0,0,0,0,0,0,
173,173,145,113,81,0,0,0,0,0,0,0,0,0,0,0,0,0,0,164,162,162,0,0,0,98,98,161,132,227,98,225,226,226,226,133,0,0,0,0,
173,173,177,145,113,81,0,0,0,0,0,0,0,0,0,0,0,0,0,0,0,0,0,0,0,0,162,0,164,163,98,194,98,98,98,193,0,0,0,0,
173,173,209,177,145,113,81,0,0,0,0,0,0,0,0,0,0,0,0,0,0,0,0,0,0,0,0,0,0,0,163,98,98,98,196,225,133,0,0,0,
173,173,241,209,177,145,113,81,0,0,0,0,0,0,0,0,0,0,0,0,0,0,0,0,0,0,0,0,0,0,0,163,98,98,98,98,193,0,0,0,
173,173,173,241,209,177,145,113,0,0,0,0,0,0,0,0,0,0,0,0,0,0,0,0,0,0,0,0,0,0,0,0,0,162,162,162,165,0,0,0,
173,173,173,173,241,209,177,145,0,0,0,0,0,0,0,0,0,0,0,0,0,0,0,0,0,0,0,0,0,0,0,0,0,0,0,0,0,0,0,0,
173,173,173,173,173,241,209,177,0,0,0,0,0,0,0,0,0,0,0,0,0,0,0,0,0,0,0,0,0,0,0,0,0,0,0,0,0,0,0,0,
173,173,173,173,173,173,241,209,0,0,0,0,0,0,0,0,0,0,0,0,0,0,0,0,0,0,0,0,0,0,72,0,0,0,0,0,0,0,0,0,
173,173,173,173,173,173,173,241,0,0,0,0,0,0,0,0,0,0,0,0,0,0,0,0,0,0,0,0,0,0,0,0,0,0,0,0,0,0,0,0,
173,173,173,173,173,173,0,0,0,0,0,0,0,0,0,0,0,0,0,0,0,0,0,0,0,0,0,0,0,0,0,0,0,0,0,0,0,305,343,0,
173,173,173,173,173,173,0,0,0,0,0,0,0,0,0,0,0,132,226,133,0,0,0,0,0,0,0,0,0,0,0,0,72,0,0,0,0,337,338,0,
173,173,173,173,173,173,0,0,0,0,0,0,0,0,0,0,132,227,0,225,226,133,0,0,0,0,0,0,0,0,0,0,0,0,0,0,0,0,0,0,
173,173,173,173,173,173,0,0,0,0,0,0,0,0,0,0,195,0,0,0,0,225,133,0,0,0,0,0,0,0,0,0,0,0,0,0,0,0,0,0,
173,173,173,173,173,173,0,0,0,0,0,0,0,0,0,132,227,0,0,0,0,0,225,226,133,0,0,0,0,0,0,0,0,0,72,72,72,72,72,72,
173,173,173,173,173,173,0,0,0,0,0,0,0,0,132,227,0,0,0,0,0,0,0,0,193,0,0,0,0,0,0,0,0,0,0,0,0,0,0,0,
173,173,173,173,173,173,0,0,0,0,0,0,0,0,195,0,0,0,84,84,84,0,0,0,225,226,133,0,0,0,0,0,0,0,0,0,0,0,0,0,
173,173,173,173,173,173,0,0,0,0,0,0,0,0,195,0,0,0,84,84,84,84,84,0,0,0,193,0,0,0,0,0,0,0,0,0,0,0,0,0,
173,173,173,173,173,173,0,0,0,0,0,0,0,0,195,0,0,84,84,84,84,84,84,84,0,0,225,133,0,0,0,0,0,0,0,0,0,0,0,0,
173,173,173,173,173,173,0,0,0,0,0,0,0,0,195,0,0,84,84,84,84,84,84,84,84,0,0,225,133,0,0,0,0,0,0,0,0,0,0,0,
173,173,173,0,0,0,0,0,0,0,0,0,0,0,195,0,0,84,84,84,84,84,84,84,84,0,0,0,193,0,0,0,0,0,0,0,0,0,0,0,
173,173,173,0,0,0,0,0,0,0,0,0,0,0,164,163,0,0,84,84,84,84,84,84,84,84,0,0,193,0,0,0,0,0,0,0,0,0,0,0,
173,173,173,0,0,0,0,0,0,0,0,0,0,0,0,195,0,0,84,84,84,84,84,84,84,84,0,161,165,0,0,0,0,0,0,0,0,0,0,0,
173,173,173,0,0,0,0,0,0,0,0,0,0,0,0,164,163,0,84,84,84,84,84,84,84,84,0,193,0,0,0,0,0,0,0,0,0,0,0,0,
173,173,173,0,0,0,0,0,0,0,0,0,0,0,0,0,195,0,0,0,0,84,84,84,84,0,0,193,0,0,0,0,0,0,0,0,0,0,0,0,
173,173,173,0,0,0,0,0,0,0,0,0,0,0,0,0,164,162,163,0,0,0,0,0,0,0,0,193,0,0,0,0,0,0,0,0,0,0,0,0,
173,173,173,0,0,0,0,0,0,0,0,0,0,0,0,0,0,0,164,163,0,0,0,0,0,161,162,165,0,0,0,0,0,0,0,0,0,0,0,0,
173,173,173,0,0,0,0,0,0,0,0,0,0,0,0,0,0,0,0,164,162,163,0,0,161,165,0,0,0,0,0,0,0,0,0,0,0,0,0,0,
173,173,173,0,0,0,0,0,0,0,0,0,0,0,0,0,0,0,0,0,0,164,162,162,165,0,0,0,0,0,0,0,0,0,0,0,0,0,0,0,
173,173,173,0,0,0,0,0,0,0,0,0,0,0,0,0,0,0,0,0,0,0,0,0,0,0,0,0,0,0,0,0,0,0,0,0,0,0,173,173,
173,173,173,0,0,0,0,0,0,0,0,0,0,0,0,0,0,0,0,0,0,0,0,0,0,0,0,0,0,0,0,0,0,0,0,0,0,0,173,173,
173,173,173,0,0,0,0,0,0,0,0,0,0,0,0,0,0,0,0,0,0,0,0,0,0,0,0,0,0,0,0,0,0,0,0,0,0,0,173,173,
173,173,173,0,0,0,0,0,0,0,0,0,0,0,0,0,0,388,0,0,0,0,0,0,0,0,0,0,0,0,0,0,0,0,0,0,0,0,173,173,
173,173,173,0,0,0,0,0,0,0,0,0,0,0,0,0,0,0,387,417,0,0,2147484033,0,0,0,0,0,0,0,0,0,0,0,0,0,0,0,173,173,
173,173,173,0,0,0,0,0,0,0,0,0,0,0,0,0,385,386,417,0,2147484035,2147484065,0,2147484036,0,0,0,0,0,0,0,0,0,0,0,0,0,0,173,173
</data>
 </layer>
 <layer id="18" name="Back3" width="40" height="50">
  <properties>
   <property name="Draw" value="Back"/>
  </properties>
  <data encoding="csv">
0,0,0,0,0,0,0,0,0,0,0,0,0,0,0,0,0,0,0,0,0,0,0,0,0,0,0,0,0,0,0,0,0,0,0,0,0,0,0,0,
0,0,0,0,0,0,0,0,0,0,0,0,0,0,0,0,0,0,0,72,72,72,72,72,72,72,72,0,0,0,0,0,0,0,0,0,0,0,0,0,
0,0,0,0,0,200,201,200,201,200,201,200,201,0,0,0,0,0,72,201,0,0,0,0,0,0,0,0,0,0,0,0,0,0,0,0,0,0,0,0,
0,0,0,0,0,232,233,232,233,232,233,232,233,201,0,72,72,72,72,233,0,0,0,0,0,0,0,0,0,0,0,0,0,0,0,0,0,0,0,0,
0,0,0,0,0,264,265,264,265,264,265,264,265,233,200,201,0,0,264,265,0,0,0,0,0,0,0,0,0,0,0,0,0,0,0,0,0,0,0,0,
0,0,0,103,0,296,297,296,297,296,297,296,297,265,232,233,0,0,296,297,0,0,0,0,0,297,0,0,0,0,0,0,0,0,0,0,0,0,0,0,
0,0,103,0,72,72,72,72,72,0,0,0,296,297,264,265,0,0,0,0,0,0,0,0,0,0,72,141,105,106,0,0,0,0,0,0,0,0,0,0,
0,103,0,72,72,201,0,200,72,72,0,0,263,264,296,297,0,0,0,0,0,0,0,0,0,0,0,72,72,141,106,0,0,0,0,0,0,0,0,0,
0,200,201,0,232,233,0,232,233,0,200,72,72,72,201,0,0,0,0,0,0,0,0,576,0,72,72,72,72,72,141,106,0,0,0,0,0,0,201,0,
0,232,233,0,264,265,0,264,265,0,232,200,72,72,233,0,0,0,0,0,0,0,0,0,72,0,201,0,0,200,72,141,106,0,0,0,0,0,233,0,
0,264,265,0,296,297,0,296,297,0,264,232,0,72,265,0,0,0,0,0,0,0,466,0,0,0,233,0,0,232,72,72,141,106,0,201,0,0,265,0,
0,296,297,0,0,0,0,0,0,0,296,264,72,233,297,0,0,0,0,0,0,0,0,72,0,201,265,0,0,264,0,0,200,138,0,233,0,0,297,0,
0,0,0,0,0,0,292,0,0,0,72,72,233,265,0,0,0,0,0,0,0,0,0,72,0,233,297,0,0,296,0,0,232,201,0,265,0,0,0,0,
0,0,72,0,0,0,0,0,0,261,72,233,265,297,0,0,132,133,0,0,0,0,0,72,201,265,0,132,133,0,0,0,264,233,0,297,0,0,0,0,
0,0,0,72,0,0,0,0,431,72,72,265,297,0,0,0,164,165,0,0,0,0,0,72,233,297,0,164,165,0,0,0,296,265,0,0,0,0,0,0,
0,80,0,0,72,0,0,0,0,72,201,297,0,0,0,0,0,68,69,0,0,0,0,72,265,0,0,0,133,0,0,0,0,297,0,0,0,0,0,0,
0,112,80,0,0,72,0,0,0,72,233,0,0,0,0,0,0,100,101,0,0,0,0,72,297,298,0,0,165,0,0,0,0,138,68,132,133,0,0,0,
0,144,112,80,0,0,72,0,0,72,265,0,0,0,0,0,0,0,0,0,0,0,0,200,72,0,0,0,0,0,0,0,0,138,100,164,165,0,0,0,
0,176,144,112,80,0,199,72,72,72,297,0,0,0,0,0,0,0,0,0,0,0,0,232,72,0,0,0,0,0,0,0,0,138,0,0,0,0,0,0,
0,208,176,144,112,80,0,0,72,72,0,0,0,0,0,0,0,0,0,0,0,0,0,264,200,72,0,0,0,0,0,0,0,138,0,0,0,0,0,0,
0,240,208,176,144,112,80,199,72,72,0,0,0,0,0,0,0,0,0,0,0,0,0,296,232,200,72,0,0,0,260,0,0,138,0,0,68,69,0,0,
0,0,240,208,176,144,112,80,72,201,0,0,0,0,0,0,0,0,0,0,0,0,0,0,264,232,200,72,72,72,0,0,72,138,0,0,100,101,0,0,
0,0,0,240,208,176,144,112,72,233,0,0,0,0,0,0,0,0,0,0,0,0,0,0,296,264,232,233,0,200,0,72,72,138,0,0,0,0,0,0,
0,0,0,0,240,208,176,144,72,265,0,0,0,0,0,0,0,0,0,0,0,0,0,0,0,296,264,265,0,232,0,0,72,138,0,0,0,0,0,0,
0,0,0,0,0,240,208,176,201,297,0,0,0,0,0,0,0,0,0,0,0,0,0,0,0,0,296,297,0,264,0,72,201,0,0,0,0,0,0,0,
0,0,0,0,0,0,240,72,233,0,0,0,0,0,0,0,0,0,0,0,0,0,0,0,0,0,0,0,0,296,0,232,233,0,0,0,0,0,306,0,
0,0,0,0,0,0,72,72,265,0,0,0,0,0,0,0,0,0,0,0,0,0,0,0,0,0,0,0,0,0,0,264,72,0,0,0,0,0,307,308,
0,0,0,0,0,0,72,233,297,0,0,0,0,0,0,0,0,0,0,0,0,0,0,0,0,0,0,0,0,0,0,296,297,72,201,0,0,292,339,340,
0,0,0,0,0,0,72,265,0,0,0,0,0,0,0,0,0,0,0,0,0,0,0,0,0,0,0,0,0,0,0,0,0,232,233,0,0,0,0,0,
0,0,0,0,0,0,72,297,0,0,0,0,0,0,0,0,0,0,0,0,0,0,0,0,0,0,0,0,0,0,0,0,0,264,72,0,0,0,0,0,
0,0,0,0,0,0,72,0,0,0,0,0,0,0,0,0,0,0,0,0,0,0,0,0,0,0,0,0,0,0,0,0,0,296,297,0,0,0,72,0,
0,0,0,0,0,0,72,0,0,0,0,0,0,0,0,0,0,0,0,0,0,0,0,0,0,0,0,0,0,0,0,0,0,0,0,0,0,0,0,0,
0,0,0,0,0,0,72,0,0,0,0,0,0,0,0,0,0,0,0,0,0,0,0,0,0,0,0,0,0,0,0,0,0,0,0,0,0,0,0,0,
0,0,0,0,0,72,201,0,0,0,0,0,0,0,0,0,0,0,0,0,0,0,0,0,0,0,0,0,0,0,0,0,0,0,0,0,0,0,0,0,
0,0,0,0,0,72,233,0,0,0,0,0,0,0,0,0,0,0,0,0,0,0,0,0,0,0,0,0,0,0,0,0,0,0,0,0,0,0,0,0,
0,0,0,0,201,201,265,0,0,0,0,0,0,0,0,0,0,0,0,0,0,0,0,0,0,0,0,0,0,0,0,0,0,0,0,0,0,0,0,0,
0,0,0,72,233,233,297,0,0,0,0,0,0,0,0,0,0,0,0,0,0,0,0,0,0,0,0,0,0,0,0,0,0,0,212,0,0,0,0,0,
0,0,0,72,265,265,0,0,0,0,0,0,0,0,0,0,0,0,0,0,0,0,0,0,0,0,0,0,0,0,0,0,0,0,0,0,0,0,0,0,
0,0,0,72,297,297,0,0,2147484052,0,0,0,0,0,0,0,0,0,0,0,0,0,0,0,0,0,0,0,0,0,0,0,0,0,0,442,0,2147483862,0,0,
0,0,0,72,0,0,0,0,0,0,0,0,0,0,0,0,0,0,0,0,0,0,0,0,0,0,0,0,0,0,0,0,0,0,0,406,0,0,0,0,
0,0,0,72,0,0,0,0,0,0,0,0,0,0,0,0,0,0,0,0,0,0,0,0,0,0,0,0,0,0,0,0,0,0,2147483862,0,0,0,0,0,
0,0,0,72,0,0,0,0,2147483861,0,0,0,0,0,0,0,0,0,0,0,0,0,0,0,0,0,0,0,0,0,0,0,0,0,0,0,0,0,0,0,
0,0,0,72,0,0,0,214,0,0,0,0,0,0,0,0,0,0,0,0,0,0,0,0,0,0,0,0,0,0,0,0,0,0,0,0,0,0,0,0,
0,0,0,72,0,0,0,0,0,0,0,0,0,0,0,0,0,0,0,0,0,0,0,0,0,0,0,0,0,0,0,0,0,0,0,0,0,0,0,0,
0,0,0,72,0,0,0,0,0,2147483862,0,0,0,0,0,0,0,0,0,0,0,0,0,0,0,0,0,0,0,0,0,0,0,0,0,0,0,0,0,0,
0,0,0,72,72,0,0,0,0,0,0,0,0,0,0,0,0,0,0,0,0,0,0,0,0,0,0,0,0,0,0,0,0,0,0,0,0,0,201,0,
0,0,0,200,72,72,0,0,0,0,0,0,0,0,0,0,0,0,0,0,0,0,0,0,0,0,0,0,0,0,0,0,0,0,0,0,0,0,82,0,
0,0,0,232,200,72,72,0,0,0,0,0,0,0,0,0,0,0,0,0,0,0,0,0,0,0,0,0,0,0,0,0,0,0,0,0,0,0,114,0,
0,0,0,264,232,200,72,0,0,0,0,0,0,0,0,0,0,0,0,0,0,0,0,0,0,0,0,0,0,0,0,0,0,0,0,0,0,0,146,0,
0,0,0,296,264,232,200,72,0,0,0,0,0,0,0,0,0,0,0,0,0,0,0,0,0,0,0,0,0,0,0,0,0,0,0,0,0,0,178,0
</data>
 </layer>
 <layer id="3" name="Buildings" width="40" height="50">
  <data encoding="csv">
0,0,0,0,103,104,105,104,105,104,105,104,106,0,0,0,0,0,103,104,105,104,105,104,105,104,105,106,0,0,0,0,0,0,0,0,0,0,0,0,
0,0,0,0,135,72,72,72,72,72,72,72,141,106,0,0,0,0,135,0,0,0,0,0,0,0,0,138,0,0,0,0,0,0,0,0,0,0,0,0,
0,0,0,0,135,72,74,200,201,200,201,167,72,138,0,103,104,105,142,74,200,201,200,201,200,201,71,138,0,0,0,0,0,0,0,0,0,0,0,0,
0,0,0,0,135,72,138,232,233,232,233,199,135,141,104,0,168,169,168,138,232,233,232,233,232,233,135,138,0,0,0,0,0,0,0,0,0,0,0,0,
0,0,0,0,135,72,138,264,265,264,265,231,167,72,72,138,200,201,200,202,264,265,264,265,264,265,135,138,0,0,0,0,0,0,0,0,0,0,0,0,
0,0,0,0,142,72,141,105,106,0,0,263,199,200,71,138,232,233,232,234,296,297,296,297,296,103,142,138,0,0,0,0,0,0,0,0,0,0,0,0,
0,0,0,142,0,0,169,0,141,105,106,295,231,232,135,138,264,265,264,266,509,510,511,512,0,135,0,0,0,0,0,0,0,0,0,0,103,104,105,104,
0,0,142,168,169,170,201,167,168,169,141,105,105,105,142,170,297,296,297,298,541,542,543,544,103,142,72,0,0,0,0,0,0,0,0,103,142,72,72,72,
0,135,74,200,201,202,233,199,200,201,167,0,0,0,74,202,539,540,0,0,573,574,575,103,142,0,0,0,0,0,0,0,0,0,103,142,72,72,74,200,
0,135,138,232,233,234,265,231,232,233,199,167,0,0,170,234,571,572,0,0,0,433,434,135,0,72,138,200,201,71,0,0,104,104,142,72,72,72,170,232,
0,135,138,264,265,266,297,263,264,265,231,199,0,74,202,266,0,0,0,0,0,465,103,142,72,72,170,232,233,167,0,0,72,72,72,74,201,200,202,264,
0,135,138,296,297,298,0,295,296,297,103,231,74,202,234,298,0,0,0,0,0,0,135,0,72,138,202,264,265,199,200,201,71,72,72,170,233,232,234,296,
0,135,141,106,0,0,0,0,0,0,135,74,202,234,266,0,0,0,0,0,0,0,135,0,72,170,234,296,297,231,232,233,135,74,200,202,265,264,266,0,
0,167,0,141,106,0,0,0,0,103,142,138,234,266,298,0,0,0,0,0,0,0,135,0,138,202,266,189,539,263,264,265,135,138,232,234,297,296,401,402,
0,199,167,0,141,106,0,0,103,142,0,170,266,298,363,0,0,0,0,0,0,0,0,0,0,0,298,0,571,572,296,297,135,138,264,266,260,341,342,435,
0,80,199,167,0,141,106,0,135,0,74,202,298,394,395,0,0,0,0,0,0,0,0,0,0,0,0,0,0,0,0,0,135,138,296,298,0,123,0,467,
0,0,80,199,167,0,141,106,135,0,138,234,0,0,0,0,0,0,0,0,0,0,167,0,141,106,0,0,0,0,0,0,0,0,0,0,0,0,216,0,
0,0,0,80,199,167,0,141,142,0,138,266,0,0,0,0,0,0,0,0,0,0,199,71,0,141,106,0,0,0,0,0,0,0,0,0,0,0,0,282,
0,0,0,0,80,199,167,0,0,0,138,298,0,0,0,0,0,0,0,0,0,0,231,167,0,72,141,105,106,0,0,0,0,0,0,0,0,0,276,0,
0,0,0,0,0,80,199,167,0,0,138,0,0,0,0,0,0,0,0,0,0,0,263,199,167,0,72,72,141,106,0,0,0,0,0,0,0,0,0,0,
0,0,0,0,0,0,80,0,71,0,170,0,0,0,0,0,0,0,0,0,0,2147484011,295,231,199,167,0,72,72,141,106,103,142,0,0,0,0,0,0,0,
0,0,0,0,0,0,0,80,135,74,202,0,0,0,0,0,0,0,0,0,0,2147484043,2147484042,263,231,199,167,168,169,0,141,142,0,0,0,0,0,533,534,535,
0,0,0,0,0,0,0,0,135,138,234,0,0,0,0,0,0,0,0,0,0,0,0,295,263,231,199,200,201,71,72,0,0,0,0,0,0,565,566,567,
0,0,0,0,0,0,0,103,142,170,266,0,0,0,0,0,0,0,0,0,0,0,0,292,295,263,231,232,233,167,168,72,0,0,0,0,0,0,0,279,
0,0,0,0,0,0,103,142,74,202,298,260,0,0,0,0,0,0,0,0,0,0,0,0,0,295,263,264,265,199,200,71,72,141,106,471,472,0,311,312,
0,0,0,0,0,103,142,0,170,234,292,0,0,0,0,0,0,0,0,0,0,0,0,0,0,519,295,296,297,231,232,135,72,72,141,106,0,0,0,344,
0,0,0,0,0,135,0,74,202,266,0,0,0,0,0,0,0,0,0,0,0,0,0,0,0,0,0,292,0,263,264,167,168,72,72,141,106,0,0,0,
0,0,0,0,0,135,0,138,234,298,521,0,0,0,0,0,0,0,0,0,0,0,0,0,0,0,0,0,0,295,296,199,200,71,72,72,141,104,104,104,
0,0,0,0,0,135,0,138,266,0,0,0,0,0,0,0,0,0,0,0,0,0,0,0,0,0,0,0,260,362,363,231,232,135,72,72,72,72,72,72,
0,0,0,0,0,135,0,138,298,363,0,519,0,0,0,0,0,0,0,0,0,0,0,0,0,0,0,0,0,394,395,263,264,167,168,169,168,169,0,0,
0,0,0,0,0,135,0,138,394,395,0,0,0,0,0,0,0,0,0,0,0,0,0,0,0,0,0,0,0,0,0,295,296,199,200,201,200,201,71,72,
0,0,0,0,0,135,0,138,261,0,0,0,0,0,0,0,0,0,161,162,163,0,0,0,0,0,0,0,0,0,0,0,2147483924,231,232,233,232,233,135,72,
0,0,0,0,103,142,0,170,0,0,0,0,0,0,0,0,0,0,193,0,164,162,163,0,0,0,0,0,0,0,0,2147483925,0,263,264,265,264,265,135,72,
0,0,0,0,135,0,74,202,0,282,0,0,0,0,0,0,0,161,165,0,0,0,164,163,0,0,0,0,0,0,0,0,278,295,296,297,296,297,135,72,
0,0,0,103,142,0,170,234,276,0,0,0,0,0,0,0,0,193,0,0,0,0,0,164,163,0,0,0,0,0,216,0,0,0,509,510,511,512,135,72,
0,0,103,142,74,0,202,266,0,2147483925,0,0,0,0,0,0,0,225,133,0,0,0,0,0,195,0,0,0,0,0,0,282,0,403,541,542,543,544,135,72,
0,0,135,0,138,0,234,298,278,0,216,0,260,0,0,0,0,0,193,0,0,0,0,0,164,163,0,0,0,0,0,536,537,538,573,574,575,576,135,72,
0,0,135,0,138,0,266,94,0,188,0,160,0,0,0,0,0,0,193,0,0,0,0,0,0,195,0,0,0,0,0,568,569,570,409,410,411,412,135,72,
0,0,135,0,138,2147484128,298,2147484126,2147484125,2147484051,0,0,0,0,0,0,0,0,225,226,226,133,0,0,132,227,0,0,0,0,0,216,254,571,373,374,443,444,135,72,
0,0,135,0,138,2147484160,2147484159,2147484158,2147484157,0,2147483924,0,0,0,0,0,0,0,0,0,0,225,226,226,227,0,0,0,0,0,0,0,0,0,405,533,534,535,135,72,
0,0,135,0,138,2147484192,2147484191,2147484190,2147484189,2147484053,0,2147483861,0,0,0,0,0,0,0,0,0,0,0,0,0,0,0,0,0,0,0,0,465,466,0,565,566,567,135,72,
0,0,135,0,138,2147484224,2147484223,2147484222,2147484221,216,0,0,0,0,0,0,0,0,0,0,0,0,0,0,0,0,0,0,0,0,0,282,0,93,337,338,287,103,142,72,
0,0,135,0,138,0,0,381,382,383,384,282,0,0,0,0,0,0,0,0,0,0,0,0,0,0,0,0,0,0,0,0,0,0,0,216,103,142,72,72,
0,0,135,0,138,125,0,413,414,415,416,339,340,0,0,0,0,0,0,0,0,0,0,0,0,0,0,0,0,0,0,0,278,0,0,103,142,72,72,72,
0,0,135,0,141,106,0,0,0,0,0,0,0,0,0,0,0,0,0,0,0,0,0,0,0,0,0,0,0,0,0,521,0,2147483925,103,142,72,72,72,74,
0,0,167,0,0,141,106,0,0,260,471,472,0,0,0,0,0,0,0,0,0,0,0,0,0,0,0,0,0,0,519,0,0,0,135,72,72,72,74,202,
0,0,199,167,0,0,141,106,0,0,0,0,0,0,0,0,0,0,0,0,0,0,0,0,0,0,0,0,0,0,0,0,276,0,135,72,72,72,138,83,
0,0,80,199,167,0,0,138,292,0,0,0,0,0,0,0,0,0,0,0,0,0,0,0,0,0,0,0,0,0,0,0,260,0,135,72,72,72,138,115,
0,0,112,80,199,167,0,141,106,0,519,0,0,0,0,0,0,0,0,0,0,0,0,0,0,0,0,0,0,0,0,0,0,292,135,72,72,72,138,147,
0,0,144,112,231,199,167,0,141,106,0,0,0,0,0,0,0,0,0,0,0,0,0,0,0,0,0,0,0,0,0,0,0,0,135,72,72,72,138,179
</data>
 </layer>
 <layer id="4" name="Buildings2" width="40" height="50">
  <data encoding="csv">
0,0,0,0,0,0,0,0,0,0,0,0,0,0,0,0,0,0,0,0,0,0,0,0,0,0,0,0,0,0,0,0,0,0,0,0,0,0,0,0,
0,0,0,0,0,0,0,168,169,168,169,0,0,0,0,0,0,0,0,0,0,0,0,0,0,0,0,0,0,0,0,0,0,0,0,0,0,0,0,0,
0,0,0,0,0,0,0,0,0,0,0,0,0,0,0,0,0,0,0,0,0,0,0,0,0,0,0,0,0,0,0,0,0,0,0,0,0,0,0,0,
0,0,0,0,0,0,0,171,172,0,0,0,0,0,0,142,0,0,0,0,0,2147483756,2147483755,2147483883,0,0,0,0,0,0,0,0,0,0,0,0,0,0,0,0,
0,0,0,0,0,0,0,203,204,0,0,0,0,0,0,0,0,0,0,0,0,2147483788,2147483787,0,0,0,0,0,0,0,0,0,0,0,0,0,0,0,0,0,
0,0,0,0,0,0,0,0,0,545,546,547,548,0,0,0,0,0,0,0,477,478,479,480,0,0,0,0,0,0,0,0,0,0,0,0,0,0,0,0,
0,0,0,0,0,0,0,0,0,577,578,579,580,0,0,0,0,0,0,0,0,0,0,0,260,0,0,0,0,0,0,0,0,0,0,0,0,0,0,0,
0,0,0,0,0,0,0,0,0,609,0,611,612,0,0,0,507,508,0,261,0,0,0,0,0,0,0,0,0,0,0,0,0,0,0,0,0,0,0,0,
0,0,0,0,0,0,0,0,0,641,642,0,0,0,0,0,0,0,0,0,292,0,0,0,0,0,0,168,169,0,0,0,0,0,0,0,0,0,0,0,
0,0,0,0,328,329,0,300,301,302,303,0,0,0,0,0,0,0,0,0,0,0,0,0,0,0,0,0,0,0,0,0,0,0,0,0,0,0,0,0,
0,0,0,0,360,361,0,332,333,334,335,103,142,0,0,0,0,0,0,0,0,0,0,0,0,0,0,0,0,0,168,169,0,0,0,0,0,0,0,0,
0,0,0,0,392,393,0,364,365,366,367,142,0,0,0,0,0,0,0,0,0,260,0,0,0,0,0,0,0,0,0,0,0,0,0,0,0,0,0,0,
0,0,0,0,424,425,0,396,397,398,399,0,0,0,0,0,0,0,0,0,0,0,0,0,0,0,0,0,0,0,107,108,0,0,0,0,0,0,369,370,
0,0,0,0,456,457,0,454,0,0,0,0,0,0,0,0,0,0,0,0,0,0,0,0,0,0,0,0,0,0,139,140,0,0,0,0,0,309,310,0,
0,0,0,0,0,0,460,461,0,0,0,0,0,0,0,0,0,0,0,0,0,0,0,0,0,0,0,0,0,0,0,0,0,0,0,0,0,0,0,0,
0,0,0,0,0,0,0,0,0,0,0,0,0,0,0,0,0,0,0,0,0,0,0,0,0,0,0,0,0,0,0,0,0,0,0,261,0,0,0,0,
0,0,0,0,0,0,0,0,0,0,0,0,0,0,0,0,0,0,0,0,0,0,0,0,0,0,0,0,0,0,0,0,0,0,0,0,0,0,0,0,
0,0,0,0,0,0,0,0,0,0,0,0,0,0,0,0,0,0,0,0,0,0,0,0,0,0,0,0,0,0,0,0,0,0,0,0,0,0,0,0,
0,0,0,0,0,0,0,0,0,0,0,0,0,0,0,0,0,0,0,0,0,0,0,0,0,0,0,0,0,0,0,0,0,0,0,0,0,0,0,0,
0,0,0,0,0,0,0,0,0,0,0,0,0,0,0,0,0,0,0,0,0,0,0,0,0,0,0,0,0,0,0,0,0,0,0,0,0,0,0,0,
0,0,0,0,0,0,0,0,0,0,0,0,0,0,0,0,0,0,0,0,0,0,0,0,0,0,0,0,0,0,0,0,0,0,0,0,0,0,0,0,
0,0,0,0,0,0,0,0,0,0,0,0,0,0,0,0,0,0,0,0,0,0,0,0,0,0,0,0,0,0,0,0,0,0,0,0,0,0,0,0,
0,0,0,0,0,0,0,0,0,0,0,0,0,0,0,0,0,0,0,0,0,0,0,0,0,0,0,0,0,0,0,0,0,0,0,0,0,0,0,0,
0,0,0,0,0,0,0,0,0,0,0,0,0,0,0,0,0,0,0,0,0,0,0,0,0,0,0,0,0,0,0,0,0,0,0,0,0,0,0,0,
0,0,0,0,0,0,0,0,0,0,0,0,0,0,0,0,0,0,0,0,0,0,0,0,0,0,0,0,0,0,0,0,0,0,0,0,0,0,0,0,
0,0,0,0,0,0,0,0,0,0,0,0,0,0,0,0,0,0,0,0,0,0,0,0,0,0,0,0,0,0,0,0,0,0,0,0,0,0,0,0,
0,0,0,0,0,0,0,0,0,0,0,0,0,0,0,0,0,0,0,0,0,0,0,0,0,0,0,0,0,0,0,0,0,0,0,0,0,0,0,0,
0,0,0,0,0,0,0,0,0,0,0,0,0,0,0,0,0,0,0,0,0,0,0,0,0,0,0,0,0,0,0,0,0,0,0,0,0,0,0,0,
0,0,0,0,0,0,0,0,0,0,0,0,0,0,0,0,0,0,0,0,0,0,0,0,0,0,0,0,0,0,0,0,0,0,0,0,0,0,0,0,
0,0,0,0,0,0,0,0,362,0,0,0,0,0,0,0,0,0,0,0,0,0,0,0,0,0,0,0,0,0,0,0,0,0,0,0,0,0,0,0,
0,0,0,0,0,0,0,0,0,0,0,0,0,0,0,0,0,0,0,0,0,0,0,0,0,0,0,0,0,0,0,0,0,0,0,0,0,0,0,0,
0,0,0,0,0,0,0,0,0,0,0,0,0,0,0,0,0,0,0,0,0,0,0,0,0,0,0,0,0,0,0,0,0,0,0,0,0,0,0,0,
0,0,0,0,0,0,0,0,0,0,0,0,0,0,0,0,0,0,0,0,0,0,0,0,0,0,0,0,0,0,0,0,0,0,0,0,0,0,0,0,
0,0,0,0,0,0,0,0,0,0,0,0,0,0,0,0,0,0,0,0,0,0,0,0,0,0,0,0,0,0,0,0,0,212,477,478,479,480,0,0,
0,0,0,0,0,169,0,0,0,0,0,0,0,0,0,0,0,0,0,0,0,0,0,0,0,0,0,0,0,0,0,0,0,0,0,0,0,0,0,0,
0,0,0,0,0,0,0,0,0,0,0,0,0,0,0,0,0,0,0,0,0,0,0,0,0,0,0,0,0,0,0,0,0,0,404,346,347,348,0,0,
0,0,0,0,0,0,0,214,0,0,0,0,0,0,0,0,0,0,0,0,0,0,0,0,0,0,0,0,0,0,0,0,0,507,377,378,379,380,0,0,
0,0,0,0,0,0,0,0,0,0,0,0,0,0,0,0,0,0,0,0,0,0,0,0,0,0,0,0,0,0,0,0,0,539,540,0,0,0,0,0,
0,0,0,0,0,0,2147484127,0,0,0,0,0,0,0,0,0,0,0,0,0,0,0,0,0,0,0,0,0,0,0,0,0,0,0,572,501,502,0,0,0,
0,0,0,0,0,0,0,0,0,0,0,0,0,0,0,0,0,0,0,0,0,0,0,0,0,0,0,0,0,0,0,0,433,434,0,0,0,0,0,0,
0,0,0,0,0,0,0,0,2147484054,0,0,0,0,0,0,0,0,0,0,0,0,0,0,0,0,0,0,0,0,0,0,0,0,0,305,306,0,0,0,0,
0,0,0,0,0,375,376,0,0,0,0,0,0,0,0,0,0,0,0,0,0,0,0,0,0,0,0,0,0,0,0,0,0,0,0,0,0,0,0,0,
0,0,0,0,0,407,408,2147484150,2147484149,0,0,307,0,0,0,0,0,0,0,0,0,0,0,0,0,0,0,0,0,0,0,0,0,0,0,0,0,0,0,0,
0,0,0,0,0,0,2147484183,2147484182,2147484181,0,0,0,0,0,0,0,0,0,0,0,0,0,0,0,0,0,0,0,0,0,0,0,0,0,0,0,0,0,0,0,
0,0,0,0,0,0,0,0,0,0,0,0,0,0,0,0,0,0,0,0,0,0,0,0,0,0,0,0,0,0,0,0,0,0,0,0,0,0,0,0,
0,0,0,0,0,0,0,0,0,0,0,0,0,0,0,0,0,0,0,0,0,0,0,0,0,0,0,0,0,0,0,0,0,0,0,0,0,0,0,0,
0,0,0,0,0,0,0,0,0,0,0,0,0,0,0,0,0,0,0,0,0,0,0,0,0,0,0,0,0,0,0,0,0,0,0,0,0,0,0,0,
0,0,0,0,0,0,0,0,0,0,0,0,0,0,0,0,0,0,0,0,0,0,0,0,0,0,0,0,0,0,0,0,0,0,0,0,0,0,0,0,
0,0,0,0,0,0,0,0,0,0,0,0,0,0,0,0,0,0,0,0,0,0,0,0,0,0,0,0,0,0,0,0,0,0,0,0,0,0,0,0,
0,0,0,0,0,0,0,0,0,0,0,0,0,0,0,0,0,0,0,0,0,0,0,0,0,0,0,0,0,0,0,0,0,0,0,0,0,0,0,0
</data>
 </layer>
 <layer id="5" name="Front" width="40" height="50">
  <data encoding="csv">
0,0,0,0,0,0,0,0,0,0,0,246,0,0,0,0,0,0,0,0,0,0,0,0,213,0,0,0,0,0,0,0,0,0,0,0,0,0,0,0,
0,0,0,0,0,224,245,0,317,0,0,278,0,0,0,0,0,0,0,0,168,94,168,317,168,169,224,0,0,0,0,0,0,0,0,0,0,0,0,0,
0,0,0,0,0,0,277,0,0,0,0,0,0,244,0,0,317,0,0,0,0,0,0,0,0,0,0,214,0,0,0,0,0,0,0,0,0,0,0,0,
0,0,0,0,246,0,0,0,0,0,0,0,0,276,0,318,0,0,192,0,0,0,0,0,0,0,0,0,0,0,0,0,0,0,0,0,0,0,0,0,
0,0,0,0,278,0,0,0,0,0,0,0,0,0,0,0,0,0,0,0,0,0,0,0,0,0,0,0,0,0,0,0,0,0,0,0,0,0,0,0,
0,0,0,0,0,317,286,0,0,0,0,0,0,0,0,213,0,0,0,0,0,0,0,0,0,0,245,0,0,0,0,0,0,0,0,0,0,0,0,0,
0,0,0,244,213,0,0,0,251,105,106,0,0,0,0,0,0,0,0,0,0,0,0,0,0,0,277,0,246,0,0,0,0,0,0,0,0,0,0,0,
0,0,0,276,0,0,0,0,0,0,0,104,105,0,0,0,0,0,0,0,0,0,0,0,0,317,0,0,278,0,0,0,0,0,0,0,0,93,0,317,
0,0,0,0,0,0,0,0,0,0,0,317,0,192,0,0,0,0,0,0,0,0,0,0,93,0,0,213,0,0,214,0,0,0,0,0,251,0,0,0,
0,0,0,0,0,0,0,0,0,0,0,0,0,0,0,0,0,0,0,0,0,0,0,0,0,286,0,0,0,0,0,0,0,0,0,0,168,192,0,0,
0,0,0,0,0,0,0,0,0,0,0,0,244,0,0,0,0,0,0,0,0,0,0,0,0,0,0,0,0,0,0,0,213,0,0,0,0,0,0,0,
0,0,0,0,0,0,390,0,0,0,103,0,276,0,0,0,0,0,0,0,0,0,0,246,0,0,0,0,0,0,0,0,0,0,318,0,0,0,0,0,
0,0,245,0,0,0,0,422,0,0,135,0,0,0,0,0,0,0,0,0,0,0,0,278,0,0,0,0,507,508,0,0,0,0,0,0,0,0,0,0,
0,0,277,246,106,0,428,429,0,0,0,0,0,330,331,0,0,0,0,0,0,0,0,0,0,0,0,0,0,540,0,0,0,0,0,0,0,0,0,0,
0,0,0,278,0,0,0,0,0,0,93,0,0,362,0,0,0,0,0,0,0,0,244,213,0,0,0,0,0,0,0,0,245,0,0,0,0,0,0,0,
0,0,0,0,0,317,0,0,0,0,0,0,0,0,0,0,0,0,0,0,0,0,276,0,0,0,0,0,0,0,0,0,277,0,0,0,0,0,184,0,
0,0,0,0,0,0,0,0,0,0,214,0,0,0,0,0,0,0,0,0,0,0,0,0,318,214,0,0,0,0,0,0,0,0,0,0,0,0,0,250,
0,0,0,0,0,0,0,251,0,0,318,0,0,0,0,0,0,0,0,0,0,0,0,0,0,0,0,0,0,0,0,0,0,246,0,0,0,0,244,0,
0,0,0,0,0,0,0,0,0,224,0,0,0,0,0,0,0,0,0,0,0,0,0,0,0,253,0,0,0,0,0,0,0,278,0,0,0,0,0,0,
0,0,0,0,0,0,0,0,192,0,0,0,0,0,0,0,0,0,0,0,0,2147483979,2147483978,0,0,0,286,0,0,0,0,0,0,0,0,0,0,0,0,0,
0,0,0,0,0,0,0,0,0,317,0,0,0,0,0,0,0,0,0,0,0,0,2147484010,0,0,0,0,244,213,0,0,0,0,0,0,0,0,501,502,503,
0,0,0,0,0,0,0,0,246,0,0,0,0,0,0,0,0,0,0,0,0,0,0,0,0,0,0,276,0,0,0,0,213,0,0,0,0,0,0,0,
0,0,0,0,0,0,0,0,278,0,0,0,0,0,0,0,0,0,0,0,0,0,0,0,0,0,0,0,0,0,0,159,0,0,0,0,0,0,0,247,
0,0,0,0,0,0,0,0,0,0,0,0,0,0,0,0,0,0,0,0,0,0,0,0,0,0,0,0,0,0,94,0,0,0,0,439,440,0,0,0,
0,0,0,0,0,0,0,94,0,0,0,0,0,0,0,0,0,0,0,0,0,0,0,0,0,487,0,0,0,0,0,214,0,0,0,0,0,0,0,0,
0,0,0,0,0,0,159,0,0,0,0,0,0,0,0,0,0,0,0,0,0,0,0,0,0,0,0,0,0,0,0,0,0,0,0,0,0,0,0,0,
0,0,0,0,0,0,0,0,0,0,489,0,0,0,0,0,0,0,0,0,0,0,0,0,0,0,0,0,0,0,0,0,224,0,245,0,0,0,0,0,
0,0,0,0,0,214,0,0,0,0,0,0,0,0,0,0,0,0,0,0,0,0,0,0,0,0,0,0,0,330,331,0,0,0,277,244,0,0,0,0,
0,0,0,0,0,0,192,0,330,331,0,487,0,0,0,0,0,0,0,0,0,0,0,0,0,0,0,0,0,0,0,0,0,0,0,276,0,0,0,187,
0,0,0,0,0,0,0,0,0,0,0,0,0,0,0,0,0,0,0,0,0,0,0,0,0,0,0,0,0,0,0,0,0,0,214,0,318,0,0,0,
0,0,0,0,0,0,253,0,0,0,0,0,0,0,0,0,0,0,0,0,0,0,0,0,0,0,0,0,0,0,0,0,2147483892,0,0,0,0,0,0,0,
0,0,0,0,0,318,0,245,0,0,0,0,0,0,0,0,0,0,0,0,0,0,0,0,0,0,0,0,0,0,0,2147483893,0,0,0,0,0,0,0,0,
0,0,0,0,0,0,0,277,0,250,0,0,0,0,0,0,0,0,0,0,0,0,0,0,0,0,0,0,0,0,0,0,246,0,0,0,0,0,244,213,
0,0,0,0,0,192,0,0,244,0,0,0,0,0,0,0,0,0,0,0,0,0,0,0,0,0,0,0,0,0,184,0,0,0,0,0,0,0,276,0,
0,0,0,0,0,0,0,0,0,2147483893,0,0,0,0,0,0,0,0,0,0,0,0,0,0,0,0,0,0,0,0,0,250,0,371,372,0,0,0,0,0,
0,0,0,0,317,0,0,0,246,0,184,0,0,0,0,0,0,0,0,0,0,0,0,0,0,0,0,0,0,0,0,504,505,506,0,0,0,0,0,192,
0,0,159,0,0,0,0,0,0,0,0,0,0,0,0,0,0,0,0,0,0,0,0,0,0,0,0,0,0,0,0,0,0,0,508,0,0,0,214,0,
0,0,0,246,0,0,0,0,2147484020,2147484019,0,0,0,0,0,0,0,0,0,0,0,0,0,0,0,0,0,0,0,0,0,184,0,0,0,0,0,0,0,0,
0,0,0,278,0,0,0,0,0,0,2147483892,0,0,0,0,0,0,0,0,0,0,0,0,0,0,0,0,0,0,0,0,0,0,0,0,0,0,0,2147483803,0,
0,0,0,0,0,0,0,0,2147484022,2147484021,0,0,0,0,0,0,0,0,0,0,0,0,0,0,0,0,0,0,0,0,0,0,0,0,0,0,0,0,0,244,
0,0,0,286,0,0,0,0,0,184,0,0,0,0,0,0,0,0,0,0,0,0,0,0,0,0,0,0,0,0,0,250,0,0,0,0,0,0,0,276,
0,0,244,0,0,0,0,349,350,351,352,250,0,0,0,0,0,0,0,0,0,0,0,0,0,0,0,0,0,0,0,0,0,0,0,184,0,0,0,318,
0,0,276,0,317,0,0,0,0,0,0,0,308,0,0,0,0,0,0,0,0,0,0,0,0,0,0,0,0,0,0,0,246,0,0,0,0,0,0,0,
0,0,0,0,0,0,0,0,0,0,0,0,0,0,0,0,0,0,0,0,0,0,0,0,0,0,0,0,0,0,0,489,0,2147483893,0,0,0,224,0,0,
0,0,0,187,0,0,2147484215,2147484214,2147484213,0,439,440,0,0,0,0,0,0,0,0,0,0,0,0,0,0,0,0,0,0,487,0,0,0,0,0,0,318,253,0,
0,0,0,0,253,0,0,0,0,0,0,0,0,0,0,0,0,0,0,0,0,0,0,0,0,0,0,0,0,0,0,0,244,0,156,0,244,0,0,0,
0,0,0,0,0,224,245,0,0,0,0,0,0,0,0,0,0,0,0,0,0,0,0,0,0,0,0,0,0,0,0,0,0,0,0,0,276,244,0,0,
0,0,0,0,0,0,277,246,0,0,487,0,0,0,0,0,0,0,0,0,0,0,0,0,0,0,0,0,0,0,0,0,0,0,0,286,0,276,0,0,
0,0,0,0,0,318,0,278,0,0,0,0,0,0,0,0,0,0,0,0,0,0,0,0,0,0,0,0,0,0,0,0,0,0,214,0,192,0,0,0,
0,0,0,0,0,0,0,0,159,0,0,0,0,0,0,0,0,0,0,0,0,0,0,0,0,0,0,0,0,0,0,0,0,0,0,0,0,0,214,0
</data>
 </layer>
 <layer id="17" name="Front2" width="40" height="50">
  <data encoding="csv">
0,0,0,0,0,0,0,0,0,0,0,0,0,0,0,0,0,0,0,0,0,0,0,0,0,0,0,0,0,0,0,0,0,0,0,0,0,0,0,0,
0,0,0,0,0,0,0,0,0,0,0,0,0,0,0,0,0,0,0,0,0,0,0,0,0,0,0,0,0,0,0,0,0,0,0,0,0,0,0,0,
0,0,0,0,0,0,0,0,0,0,2147484075,2147484074,0,0,0,0,0,0,0,426,427,0,0,0,0,2147484075,2147484074,0,0,0,0,0,0,0,0,0,0,0,0,0,
0,0,0,0,0,0,0,0,0,0,2147484107,2147484106,0,0,0,0,0,0,0,458,459,0,0,0,0,2147484107,2147484106,0,0,0,0,0,0,0,0,0,0,0,0,0,
0,0,0,0,0,0,0,0,0,0,0,0,0,0,0,0,0,0,0,0,0,0,0,0,0,0,0,0,0,0,0,0,0,0,0,0,0,0,0,0,
0,0,0,0,0,0,0,0,0,0,0,0,0,0,0,0,0,0,0,0,0,0,0,0,0,0,0,0,0,0,0,0,0,0,0,0,0,0,0,0,
0,0,0,0,0,0,0,0,0,0,0,0,0,0,0,0,0,0,0,0,0,0,0,0,0,0,0,0,0,0,0,0,0,0,0,0,0,0,0,0,
0,0,0,0,0,0,426,427,0,0,0,0,0,0,0,0,0,0,0,0,0,0,0,0,0,0,0,0,0,0,0,0,0,0,0,0,0,0,0,0,
0,0,0,0,0,0,458,459,0,0,0,0,0,0,0,0,0,0,0,0,0,0,0,0,0,0,0,0,0,0,0,0,0,0,0,0,0,0,0,0,
0,0,0,0,0,0,0,0,0,0,0,0,0,0,0,0,0,0,0,0,0,0,0,0,0,0,0,0,2147484075,2147484074,0,0,0,0,0,0,0,0,0,0,
0,0,0,0,0,0,0,0,0,0,0,0,0,0,0,0,0,0,0,0,0,0,0,0,0,0,0,0,2147484107,2147484106,0,0,0,0,0,426,427,0,0,0,
0,0,0,0,0,0,0,0,0,0,0,0,0,0,0,0,0,0,0,0,0,0,0,0,0,0,0,0,0,0,0,0,0,0,0,458,459,0,0,0,
0,0,0,0,0,0,0,0,0,0,0,0,0,0,0,0,0,0,0,0,0,0,0,0,0,426,427,0,0,0,0,0,0,0,0,0,0,0,0,0,
0,0,0,0,0,0,0,0,0,0,0,0,0,0,0,0,0,0,0,0,0,0,0,0,0,458,459,0,0,0,0,0,0,0,0,0,0,0,0,0,
0,0,0,0,0,0,0,0,0,0,0,0,0,0,0,0,0,0,0,0,0,0,0,0,0,0,0,0,0,0,0,0,0,0,0,0,0,0,0,0,
0,0,0,0,0,0,0,426,427,0,0,0,0,0,0,0,0,0,0,0,0,0,0,0,0,0,0,0,0,0,0,0,0,0,0,0,0,0,0,0,
0,0,0,0,0,0,0,458,459,0,0,0,0,0,0,0,0,0,0,0,0,0,0,0,0,0,0,0,0,0,0,0,0,0,0,0,0,0,0,0,
0,0,0,0,0,0,0,0,0,0,0,0,0,0,0,0,0,0,0,0,0,0,0,0,0,0,0,0,0,0,0,0,0,0,0,0,0,0,0,0,
0,0,0,0,0,0,0,0,0,0,0,0,0,0,0,0,0,0,0,0,0,0,0,0,0,0,0,0,0,0,0,0,0,0,0,0,0,0,0,0,
0,0,0,0,0,0,0,0,0,0,0,0,0,0,0,0,0,0,0,0,0,0,0,0,0,0,0,0,0,0,0,0,0,0,0,0,0,0,0,0,
0,0,0,0,0,0,0,0,0,0,0,0,0,0,0,0,0,0,0,0,0,0,0,0,0,0,0,0,0,0,0,0,0,0,0,0,0,0,0,0,
0,0,0,0,0,0,0,0,0,0,0,0,0,0,0,0,0,0,0,0,0,0,0,0,0,0,0,0,0,0,0,0,0,0,0,0,0,0,0,0,
0,0,0,0,0,0,0,0,0,0,0,0,0,0,0,0,0,0,0,0,0,0,0,0,0,0,0,0,0,0,0,0,0,0,0,0,0,0,0,0,
0,0,0,0,0,0,0,0,0,0,0,0,0,0,0,0,0,0,0,0,0,0,0,0,0,0,0,0,0,0,0,0,0,426,427,0,0,0,0,0,
0,0,0,0,0,0,0,0,0,0,0,0,0,0,0,0,0,0,0,0,0,0,0,0,0,0,0,0,0,0,0,0,0,458,459,0,0,0,0,0,
0,0,0,0,0,0,0,0,0,0,0,0,0,0,0,0,0,0,0,0,0,0,0,0,0,0,0,0,0,0,0,0,0,0,0,0,0,0,0,0,
0,0,0,0,0,0,0,0,0,0,0,0,0,0,0,0,0,0,0,0,0,0,0,0,0,0,0,0,0,0,0,0,0,0,0,0,0,0,0,0,
0,0,0,0,0,0,0,0,0,0,0,0,0,0,0,0,0,0,0,0,0,0,0,0,0,0,0,0,0,0,0,0,0,0,0,0,0,0,0,0,
0,0,0,0,0,0,0,0,0,0,0,0,0,0,0,0,0,0,0,0,0,0,0,0,0,0,0,0,0,0,0,0,0,0,0,0,0,0,0,0,
0,0,0,0,0,0,0,0,0,0,0,0,0,0,0,0,0,0,0,0,0,0,0,0,0,0,0,0,0,0,0,0,0,0,0,0,0,0,0,0,
0,0,0,0,0,0,0,0,0,0,0,0,0,0,0,0,0,0,0,0,0,0,0,0,0,0,0,0,0,0,0,0,0,0,0,0,0,2147484075,2147484074,0,
0,0,0,0,0,0,0,0,0,0,0,0,0,0,0,0,0,0,0,0,0,0,0,0,0,0,0,0,0,0,0,0,0,0,0,0,0,2147484107,2147484106,0,
0,0,0,0,0,0,0,0,0,0,0,0,0,0,0,0,0,0,0,0,0,0,0,0,0,0,0,0,0,0,0,0,0,0,0,0,0,0,0,0,
0,0,0,0,0,0,0,0,0,0,0,0,0,0,0,0,0,0,0,0,0,0,0,0,0,0,0,0,0,0,0,0,0,0,0,0,0,0,0,0,
0,0,0,0,0,2147484075,2147484074,0,0,0,0,0,0,0,0,0,0,0,0,0,0,0,0,0,0,0,0,0,0,0,0,0,0,0,0,0,0,0,0,0,
0,0,0,0,0,2147484107,2147484106,0,0,0,0,0,0,0,0,0,0,0,0,0,0,0,0,0,0,0,0,0,0,0,0,0,0,0,0,0,0,0,0,0,
0,0,0,0,0,0,0,0,0,0,0,0,0,0,0,0,0,0,0,0,0,0,0,0,0,0,0,0,0,0,0,0,0,0,0,0,0,0,0,0,
0,0,0,0,0,0,0,0,0,0,0,0,0,0,0,0,0,0,0,0,0,0,0,0,0,0,0,0,0,0,0,0,0,0,0,0,0,0,0,0,
0,0,0,0,0,0,0,0,0,0,0,0,0,0,0,0,0,0,0,0,0,0,0,0,0,0,0,0,0,0,0,0,0,0,0,0,0,0,0,0,
0,0,0,0,0,0,0,0,0,0,0,0,0,0,0,0,0,0,0,0,0,0,0,0,0,0,0,0,0,0,0,0,0,0,0,0,0,0,0,0,
0,0,0,0,0,0,0,0,0,0,0,0,0,0,0,0,0,0,0,0,0,0,0,0,0,0,0,0,0,0,0,0,0,0,0,0,0,0,0,0,
0,0,0,0,0,0,0,0,0,0,0,0,0,0,0,0,0,0,0,0,0,0,0,0,0,0,0,0,0,0,0,0,0,0,0,0,0,0,0,0,
0,0,0,0,0,0,0,0,0,0,0,0,0,0,0,0,0,0,0,0,0,0,0,0,0,0,0,0,0,0,0,0,0,0,0,0,0,0,0,0,
0,0,0,0,0,0,0,0,0,0,0,0,0,0,0,0,0,0,0,0,0,0,0,0,0,0,0,0,0,0,0,0,0,0,426,427,0,0,0,0,
0,0,0,0,0,0,0,0,0,0,0,0,0,0,0,0,0,0,0,0,0,0,0,0,0,0,0,0,0,0,0,0,0,0,458,459,0,0,0,0,
0,0,0,0,0,0,0,0,0,0,0,0,0,0,0,0,0,0,0,0,0,0,0,0,0,0,0,0,0,0,0,0,0,0,0,0,0,0,0,0,
0,0,0,0,0,0,0,0,0,0,0,0,0,0,0,0,0,0,0,0,0,0,0,0,0,0,0,0,0,0,0,0,0,0,0,0,0,0,0,0,
0,0,0,0,0,0,0,0,0,0,0,0,0,0,0,0,0,0,0,0,0,0,0,0,0,0,0,0,0,0,0,0,0,0,0,0,0,0,0,0,
0,0,0,0,0,0,0,0,0,0,0,0,0,0,0,0,0,0,0,0,0,0,0,0,0,0,0,0,0,0,0,0,0,0,0,0,0,0,0,0,
0,0,0,0,0,0,0,0,0,0,0,0,0,0,0,0,0,0,0,0,0,0,0,0,0,0,0,0,0,0,0,0,0,0,0,0,0,0,0,0
</data>
 </layer>
 <layer id="8" name="Paths" width="40" height="50">
  <data encoding="csv">
0,0,0,0,0,0,0,0,0,0,0,0,0,0,0,0,0,0,0,0,0,0,0,0,0,0,0,0,0,0,0,0,0,0,0,0,0,0,0,0,
0,0,0,0,0,0,0,0,0,0,0,0,0,0,0,0,0,0,0,0,0,0,0,0,0,0,0,0,0,0,0,0,0,0,0,0,0,0,0,0,
0,0,0,0,0,0,0,0,0,0,0,0,0,0,0,0,0,0,0,0,0,0,0,0,0,0,0,0,0,0,0,0,0,0,0,0,0,0,0,0,
0,0,0,0,0,0,0,0,0,0,0,0,0,0,0,0,0,0,0,0,0,0,0,0,0,0,0,0,0,0,0,0,0,28,0,0,0,0,0,0,
0,0,0,0,0,0,0,0,0,0,0,0,0,0,0,0,0,0,0,0,0,0,0,0,0,0,0,0,0,0,0,0,0,0,0,0,0,0,0,0,
0,0,0,0,0,0,0,0,0,0,0,0,0,0,0,0,0,0,0,0,0,0,0,0,0,0,0,0,0,0,0,0,0,0,0,0,0,0,0,0,
0,0,0,0,0,0,0,0,0,0,0,0,0,0,0,0,0,0,0,0,0,0,0,0,0,0,0,0,0,0,0,0,0,0,0,0,0,0,0,0,
0,0,0,0,0,0,0,0,0,0,0,0,0,0,0,0,0,0,0,0,0,0,0,0,0,0,0,0,0,0,0,0,0,0,0,0,0,0,0,0,
0,0,0,0,0,0,0,0,0,0,0,0,0,0,0,0,0,0,0,0,0,0,0,0,0,0,0,0,0,0,0,0,0,0,0,0,0,0,0,0,
0,0,0,0,0,0,0,0,0,0,0,0,0,0,0,0,0,0,0,9,0,0,0,0,0,0,0,0,0,0,0,0,0,0,0,0,0,0,0,0,
0,0,0,0,0,0,0,0,9,0,0,0,0,0,0,0,0,0,9,0,0,0,0,0,0,0,0,0,0,0,0,0,0,0,0,0,0,0,0,0,
0,0,0,0,0,0,0,0,0,0,0,0,0,0,0,0,0,37,0,0,0,0,0,0,0,0,0,0,0,0,0,0,0,0,0,0,0,0,0,0,
0,0,0,0,0,0,0,0,0,0,0,0,0,0,0,0,37,0,37,0,0,0,0,0,0,0,0,0,0,0,0,0,0,0,0,0,0,0,0,0,
0,0,0,0,0,0,0,0,0,0,0,0,0,0,0,0,0,37,0,0,0,0,0,0,0,0,0,0,0,0,0,0,0,0,0,0,0,0,0,0,
0,0,0,0,0,0,0,0,0,0,0,0,0,0,0,0,0,0,0,0,0,0,0,0,0,0,0,0,0,0,0,0,0,0,0,0,0,0,0,0,
0,0,0,0,0,0,0,0,0,0,0,0,0,0,0,0,0,0,0,0,0,0,0,0,0,0,0,0,0,0,0,0,0,0,0,0,0,0,0,0,
0,0,0,0,0,0,0,0,0,0,0,0,0,0,0,0,0,0,0,0,0,0,0,0,0,0,0,0,0,0,0,0,0,0,0,0,0,0,0,0,
0,0,0,0,0,0,0,0,0,0,0,0,37,37,0,0,0,0,0,37,37,0,0,0,0,0,0,0,0,0,0,0,0,0,0,0,0,0,0,0,
0,0,0,0,0,0,0,0,0,0,0,0,37,37,37,0,0,0,0,0,37,0,0,0,0,0,0,0,0,0,0,0,0,0,0,0,0,0,0,0,
0,0,0,0,0,0,0,0,0,0,0,0,37,37,37,37,37,0,0,0,0,0,0,0,0,0,0,0,0,0,0,0,0,0,0,0,0,0,0,0,
0,0,0,0,0,0,0,0,0,0,0,0,0,37,37,37,37,0,0,37,0,0,0,0,0,0,0,0,0,0,0,0,0,0,0,0,9,0,0,0,
0,0,0,0,0,0,0,0,0,0,0,0,0,37,37,37,37,0,0,37,0,0,0,0,0,0,0,0,0,0,0,0,0,0,0,9,0,0,0,0,
0,0,0,0,0,0,0,0,0,0,0,0,0,37,37,37,37,0,0,37,37,0,0,0,0,0,0,0,0,0,0,0,0,0,0,0,0,0,0,0,
0,0,28,0,0,0,0,0,0,0,0,0,0,0,37,37,0,0,0,37,37,37,37,0,0,0,0,0,0,0,0,0,0,0,0,0,0,9,0,0,
0,0,0,0,0,0,0,0,0,0,0,0,0,0,0,0,0,0,0,0,37,37,37,0,0,0,0,0,0,0,0,0,0,0,0,0,0,0,0,0,
0,0,0,0,0,0,0,0,0,0,0,0,0,9,0,0,0,0,0,0,0,37,37,0,0,0,0,0,0,0,0,0,0,0,0,0,0,0,0,0,
0,0,0,0,0,0,0,0,0,0,0,0,0,0,0,0,0,0,0,0,0,0,0,0,0,0,0,0,0,0,0,0,0,0,0,0,0,0,0,0,
0,0,0,0,0,0,0,0,0,0,0,0,0,0,0,0,0,0,0,0,0,0,0,0,0,0,9,0,0,0,0,0,0,0,0,0,0,0,0,0,
0,0,0,0,0,0,0,0,0,0,0,0,0,0,9,0,0,0,0,0,0,0,0,0,0,9,0,0,0,0,0,0,0,0,0,0,0,0,0,0,
0,0,0,0,0,0,0,0,0,0,0,0,0,9,0,0,0,0,0,0,0,0,0,0,0,0,0,0,0,0,0,0,0,0,0,0,0,0,0,0,
0,0,0,0,0,0,0,0,0,0,0,0,0,0,0,0,0,0,0,0,0,0,0,0,0,0,0,9,0,0,0,0,0,0,0,0,0,0,0,0,
0,0,0,0,0,0,0,0,0,0,9,0,37,37,0,0,0,0,0,0,0,0,0,0,0,0,0,0,0,0,0,0,0,0,0,0,0,0,0,0,
0,0,0,0,0,0,0,0,0,0,0,0,37,37,0,0,0,0,0,0,0,0,0,0,0,0,0,0,0,0,0,0,0,0,0,0,0,0,0,0,
0,0,0,0,0,0,0,0,0,0,0,37,37,37,0,0,0,0,0,0,0,0,0,0,0,0,0,0,0,0,0,0,0,0,0,0,0,0,0,0,
0,0,0,0,0,0,0,0,0,0,0,0,37,0,37,0,0,0,0,0,0,0,0,0,0,0,0,0,0,0,0,0,0,0,0,0,0,0,0,0,
0,0,0,0,0,0,0,0,0,0,0,0,0,37,0,0,0,0,0,0,28,0,0,0,0,0,0,0,0,0,0,0,0,0,0,0,0,0,0,0,
0,0,0,0,0,0,0,0,0,0,0,0,0,0,0,0,0,0,0,0,0,0,0,0,0,0,0,0,0,0,0,0,0,0,0,0,0,0,0,0,
0,0,0,0,0,0,0,0,0,0,0,0,0,37,0,0,0,0,0,0,0,0,0,0,9,0,0,0,0,0,0,0,0,0,0,0,0,0,0,0,
0,0,0,0,0,0,0,0,0,0,0,0,37,0,37,0,0,0,0,0,0,0,0,9,0,0,0,0,0,0,0,0,0,0,0,0,0,0,0,0,
0,0,0,0,0,0,0,0,0,0,0,0,0,37,0,0,0,0,0,0,0,0,0,0,0,0,0,0,0,0,0,0,0,0,0,0,0,0,0,0,
0,0,0,0,0,0,0,0,0,0,0,0,0,9,0,0,0,0,0,0,0,0,0,0,0,0,0,0,37,37,0,0,0,0,0,0,0,0,0,0,
0,0,0,0,0,0,0,0,0,0,0,0,0,0,0,0,0,0,0,0,0,0,0,0,0,0,0,37,37,37,0,0,0,0,0,0,0,0,0,0,
0,0,0,0,0,0,0,0,0,0,0,0,0,0,0,0,0,0,0,0,0,0,0,0,0,0,37,37,0,37,0,0,0,0,0,0,0,0,0,0,
0,0,0,0,0,0,0,0,0,0,0,0,0,0,0,0,0,37,0,0,0,0,0,0,0,37,37,37,37,37,0,0,0,0,0,0,0,0,0,0,
0,0,0,0,0,0,0,0,0,0,0,0,0,0,0,0,37,0,37,0,0,0,0,0,0,37,37,0,37,0,0,0,0,0,0,0,0,0,0,0,
0,0,0,0,0,0,0,0,0,0,0,0,0,37,37,37,37,37,0,0,0,0,0,0,37,37,37,37,37,0,0,0,0,0,0,0,0,0,0,0,
0,0,0,0,0,0,0,0,0,0,0,0,0,37,37,37,37,0,0,0,0,0,0,0,37,0,37,37,0,0,0,0,0,0,0,0,0,0,0,0,
0,0,0,0,0,0,0,0,0,0,0,0,0,37,37,37,0,0,0,0,0,0,0,0,0,37,37,37,0,0,0,9,0,0,0,0,0,0,0,0,
0,0,0,0,0,0,0,0,0,0,0,0,0,37,0,0,0,0,0,0,0,0,0,0,0,0,37,0,0,0,0,0,0,0,0,0,0,0,0,0,
0,0,0,0,0,0,0,0,0,0,0,0,0,0,0,0,0,0,0,0,0,0,0,0,0,0,0,0,0,9,0,0,0,0,0,0,0,0,0,0
</data>
 </layer>
 <layer id="7" name="AlwaysFront" width="40" height="50">
  <data encoding="csv">
0,0,0,0,0,0,0,0,0,0,0,0,0,0,0,0,0,0,0,0,0,0,0,0,0,0,0,0,0,0,0,0,0,0,0,0,0,0,0,0,
0,0,0,0,0,0,0,0,0,0,0,0,0,0,0,0,0,0,0,0,0,0,0,0,0,0,0,0,0,0,0,0,0,0,0,0,0,0,0,0,
0,0,0,0,0,0,0,0,0,0,0,0,0,0,0,0,0,0,0,0,0,0,0,0,0,0,0,0,0,0,0,0,0,0,0,0,0,0,0,0,
0,0,0,0,0,0,0,0,0,0,0,0,0,0,0,0,0,0,0,0,0,0,0,0,0,0,0,0,0,0,0,0,0,0,0,0,0,0,0,0,
0,0,0,0,0,0,0,0,0,0,0,0,0,0,0,0,0,0,0,0,0,0,0,0,0,0,0,0,0,0,0,0,0,0,0,0,0,0,0,0,
0,0,0,0,0,0,0,0,0,0,0,0,0,0,0,0,0,0,0,0,0,0,0,0,0,0,0,0,0,0,0,0,0,0,0,0,0,0,0,0,
0,0,0,0,0,0,0,0,0,0,0,0,0,0,0,0,0,0,0,0,0,0,0,0,0,0,0,0,0,0,0,0,0,0,0,0,0,0,0,0,
0,0,0,0,0,0,0,0,0,0,0,0,0,0,0,0,0,0,0,0,0,0,0,0,0,0,0,0,0,0,0,0,0,0,0,0,0,0,0,0,
0,0,0,0,0,0,0,0,0,0,0,0,0,0,0,0,0,0,0,0,0,0,0,0,0,0,0,0,0,0,0,0,0,0,0,0,0,0,0,0,
0,0,0,0,0,0,0,0,0,0,0,0,0,0,0,0,0,0,0,513,0,0,0,0,0,0,0,0,0,0,0,0,0,0,0,0,0,0,0,0,
0,0,0,0,0,0,0,0,481,0,0,0,0,0,0,0,0,0,486,0,0,0,0,0,0,0,0,0,0,0,0,0,0,0,0,0,0,0,0,0,
0,0,0,0,0,0,0,0,0,0,0,0,0,0,0,0,0,0,0,0,0,0,0,0,0,0,0,0,0,0,0,0,0,0,0,0,0,0,0,0,
0,0,0,0,0,0,0,0,0,0,0,0,0,0,0,0,0,0,0,0,0,0,0,0,0,0,0,0,0,0,0,0,0,0,0,0,0,0,0,0,
0,0,0,0,0,0,0,0,0,0,0,0,0,0,0,0,0,0,0,0,0,0,135,72,138,0,0,0,0,0,0,0,0,0,0,0,0,0,0,0,
0,0,0,0,0,0,0,0,0,0,0,0,0,0,0,0,0,0,0,0,0,0,135,72,138,0,0,0,0,0,0,0,0,0,0,0,0,0,0,0,
0,0,0,0,0,0,0,0,0,0,0,0,0,0,0,0,0,0,0,0,0,0,0,72,138,0,0,0,0,0,0,0,0,0,0,0,0,0,0,0,
0,0,0,0,0,0,0,0,0,0,0,0,0,0,0,0,0,0,0,0,0,0,0,0,0,0,0,0,0,0,0,0,135,138,0,0,0,0,0,0,
0,0,0,0,0,0,0,0,0,0,0,0,0,0,0,0,0,0,0,0,0,0,0,0,0,0,0,0,0,0,0,0,135,138,0,0,0,0,0,0,
0,0,0,0,0,0,0,0,0,0,0,0,0,0,0,0,0,0,0,0,0,0,0,0,0,0,0,0,0,0,0,0,135,138,0,0,0,0,0,0,
0,0,0,0,0,0,0,0,0,0,0,0,0,0,0,0,0,0,0,0,0,0,0,0,0,0,0,0,0,0,0,0,135,138,0,0,0,0,0,0,
0,0,0,0,0,0,0,0,0,0,0,0,0,0,0,0,0,0,0,0,0,0,0,0,0,0,0,0,0,0,0,0,0,0,0,0,484,0,0,0,
0,0,0,0,0,0,0,0,0,0,0,0,0,0,0,0,0,0,0,0,0,0,0,0,0,0,0,0,0,0,0,0,0,0,0,513,0,0,0,0,
0,0,0,0,0,0,0,0,0,0,0,0,0,0,0,0,0,0,0,0,0,0,0,0,0,0,0,0,0,0,0,0,0,0,0,0,0,0,0,0,
0,0,0,0,0,0,0,0,0,0,0,0,0,0,0,0,0,0,0,0,0,0,0,0,0,0,0,0,0,0,0,0,0,0,0,0,0,486,0,0,
0,0,0,0,0,0,0,0,0,0,0,0,0,0,0,0,0,0,0,0,0,0,0,0,0,0,0,0,0,0,0,0,0,0,0,0,0,0,0,0,
0,0,0,0,0,0,0,0,0,0,0,0,0,481,0,0,0,0,0,0,0,0,0,0,0,0,0,0,0,0,0,0,0,0,0,0,0,0,0,0,
0,0,0,0,0,0,0,0,0,0,0,0,0,0,0,0,0,0,0,0,0,0,0,0,0,0,0,0,0,0,0,0,0,0,0,0,0,0,0,0,
0,0,0,0,0,0,0,0,0,0,0,0,0,0,0,0,0,0,0,0,0,0,0,0,0,0,484,0,0,0,0,0,0,0,0,0,0,0,0,0,
0,0,0,0,0,0,0,0,0,0,0,0,0,0,486,0,0,0,0,0,0,0,0,0,0,486,0,0,0,0,0,0,0,0,0,0,0,0,0,0,
0,0,0,0,0,0,0,0,0,0,0,0,0,484,0,0,0,0,0,0,0,0,0,0,0,0,0,0,0,0,0,0,0,0,0,0,0,0,0,0,
0,0,0,0,0,0,0,0,0,0,0,0,0,0,0,0,0,0,0,0,0,0,0,0,0,0,0,481,0,0,0,0,0,0,0,0,0,0,0,0,
0,0,0,0,0,0,0,0,0,0,513,0,0,0,0,0,0,0,0,0,0,0,0,0,0,0,0,0,0,0,0,0,0,0,0,0,0,0,0,0,
0,0,0,0,0,0,0,0,0,0,0,0,0,0,0,0,0,0,0,0,0,0,0,0,0,0,0,0,0,0,0,0,0,0,0,0,0,0,0,0,
0,0,0,0,0,0,0,0,0,0,0,0,0,0,0,0,0,0,0,0,0,0,0,0,0,0,0,0,0,0,0,0,0,0,0,0,0,0,0,0,
0,0,0,0,0,0,0,0,0,0,0,0,0,0,0,0,0,0,0,0,0,0,0,0,0,0,0,0,0,0,0,0,0,0,0,0,0,0,0,0,
0,0,0,0,0,0,0,0,0,0,0,0,0,0,0,0,0,0,0,0,0,0,0,0,0,0,0,0,0,0,0,0,0,0,0,0,0,0,0,0,
0,0,0,0,0,0,0,0,0,0,0,0,0,0,0,0,0,0,0,0,0,0,0,0,0,0,0,0,0,0,0,0,0,0,0,0,0,0,0,0,
0,0,0,0,0,0,0,0,0,0,0,0,0,0,0,0,0,0,0,0,0,0,0,0,486,0,0,0,0,0,0,0,0,0,0,0,0,0,0,0,
0,0,0,0,0,0,0,0,0,0,0,0,0,0,0,0,0,0,0,0,0,0,0,484,0,0,0,0,0,0,0,0,0,0,0,0,0,0,0,0,
0,0,0,0,0,0,0,0,0,0,0,0,0,0,0,0,0,0,0,0,0,0,0,0,0,0,0,0,0,0,0,0,0,0,0,0,0,0,0,0,
0,0,0,0,0,0,0,0,0,0,0,0,0,481,0,0,0,0,0,0,0,0,0,0,0,0,0,0,0,0,0,0,0,0,0,0,0,0,0,0,
0,0,0,0,0,0,0,0,0,0,0,0,0,0,0,0,0,0,0,0,0,0,0,0,0,0,0,0,0,0,0,0,0,0,0,0,0,0,0,0,
0,0,0,0,0,0,0,0,0,0,0,0,0,0,515,0,0,0,0,0,0,0,0,0,0,0,0,0,0,0,0,0,0,0,0,0,0,0,0,0,
0,0,0,0,0,0,0,0,0,0,0,0,0,0,0,0,0,0,0,0,0,0,0,0,0,0,0,0,0,0,0,0,0,0,0,0,0,0,0,0,
0,0,0,0,0,0,0,0,0,0,0,0,0,0,0,0,0,0,0,0,0,0,0,0,0,0,0,0,0,0,0,0,0,0,0,0,0,0,0,0,
0,0,0,0,0,0,0,0,0,0,0,0,0,0,0,0,0,0,0,0,0,0,0,0,0,0,0,0,0,0,0,0,0,0,0,0,0,0,0,0,
0,0,0,0,0,0,0,0,0,0,0,0,0,0,0,0,0,0,0,0,0,0,0,0,0,0,0,0,0,0,0,0,0,0,0,0,0,0,0,0,
0,0,0,0,0,0,0,0,0,0,0,0,0,0,0,0,0,0,0,0,0,0,0,0,0,0,0,0,0,0,0,513,0,0,0,0,0,0,0,0,
0,0,0,0,0,0,0,0,0,0,0,0,0,0,0,0,0,0,0,0,0,0,0,0,0,0,0,0,0,0,0,0,0,0,0,0,0,0,0,0,
0,0,0,0,0,0,0,0,0,0,0,0,0,0,0,0,0,0,0,0,0,0,0,0,0,0,0,0,0,515,0,0,0,0,0,0,0,0,0,0
</data>
 </layer>
 <layer id="6" name="AlwaysFront2" width="40" height="50">
  <data encoding="csv">
0,0,0,0,0,0,0,0,0,0,0,0,0,0,0,0,0,0,0,0,0,0,0,0,0,0,0,0,0,0,0,0,0,0,0,0,0,0,0,0,
0,0,0,0,0,0,0,0,0,0,0,0,0,0,0,0,0,0,0,0,0,0,0,0,0,0,0,0,0,0,0,0,0,0,0,0,0,0,0,0,
0,0,0,0,0,0,0,0,0,0,0,0,0,0,0,0,0,0,0,0,0,0,0,0,0,0,0,0,0,0,0,0,0,0,0,0,0,0,0,0,
0,0,0,0,0,0,0,0,0,0,0,0,0,0,0,0,0,0,0,0,0,0,0,0,0,0,0,0,0,0,0,0,0,0,0,0,0,0,0,0,
0,0,0,0,0,0,0,0,0,0,0,0,0,0,0,0,0,0,0,0,0,0,0,0,0,0,0,0,0,0,0,0,0,0,0,0,0,0,0,0,
0,0,0,0,0,0,0,0,0,0,0,0,0,0,0,0,0,0,0,0,0,0,0,0,0,0,0,0,0,0,0,0,0,0,0,0,0,0,0,0,
0,0,0,0,0,0,0,0,0,0,0,0,0,0,0,0,0,0,0,0,0,0,0,0,0,0,0,0,0,0,0,0,0,0,0,0,0,0,0,0,
0,0,0,0,0,0,0,0,0,0,0,0,0,0,0,0,0,0,0,0,0,0,0,0,0,0,0,0,0,0,0,0,0,0,0,0,0,0,0,0,
0,0,0,0,0,0,0,0,0,0,0,0,0,0,0,0,0,0,0,0,0,0,0,0,0,0,0,0,0,0,0,0,0,0,0,0,0,0,0,0,
0,0,0,0,0,0,0,0,0,0,0,0,0,0,0,0,0,0,0,0,0,0,0,0,0,0,0,0,0,0,0,0,0,0,0,0,0,0,0,0,
0,0,0,0,0,0,0,0,0,0,0,0,0,0,0,0,0,0,0,0,0,0,0,0,0,0,0,0,0,0,0,0,0,0,0,0,0,0,0,0,
0,0,0,0,0,0,0,0,0,0,0,0,0,0,0,0,0,0,0,0,0,0,0,0,0,0,0,0,0,0,0,0,0,0,0,0,0,0,0,0,
0,0,0,0,0,0,0,0,0,0,0,0,0,0,0,0,0,0,0,0,0,0,0,0,0,0,0,0,0,0,0,0,0,0,0,0,0,0,0,0,
0,0,0,0,0,0,0,0,0,0,0,0,0,0,0,0,0,0,0,0,0,0,0,0,0,0,0,0,0,0,0,0,0,0,0,0,0,0,0,0,
0,0,0,0,0,0,0,0,0,0,0,0,0,0,0,0,0,0,0,0,0,0,0,0,0,0,0,0,0,0,0,0,0,0,0,0,0,0,0,0,
0,0,0,0,0,0,0,0,0,0,0,0,0,0,0,0,0,0,0,0,0,0,0,0,0,0,0,0,0,0,0,0,0,0,0,0,0,0,0,0,
0,0,0,0,0,0,0,0,0,0,0,0,0,0,0,0,0,0,0,0,0,0,0,0,0,0,0,0,0,0,0,0,0,0,0,0,0,0,0,0,
0,0,0,0,0,0,0,0,0,0,0,0,0,0,0,0,0,0,0,0,0,0,0,0,0,0,0,0,0,0,0,0,0,0,0,0,0,0,0,0,
0,0,0,0,0,0,0,0,0,0,0,0,0,0,0,0,0,0,0,0,0,0,0,0,0,0,0,0,0,0,0,0,0,0,0,0,0,0,0,0,
0,0,0,0,0,0,0,0,0,0,0,0,0,0,0,0,0,0,0,0,0,0,0,0,0,0,0,0,0,0,0,0,0,0,0,0,0,0,0,0,
0,0,0,0,0,0,0,0,0,0,0,0,0,0,0,0,0,0,0,0,0,0,0,0,0,0,0,0,0,0,0,0,0,0,0,0,0,0,0,0,
0,0,0,0,0,0,0,0,0,0,0,0,0,0,0,0,0,0,0,0,0,0,0,0,0,0,0,0,0,0,0,0,0,0,0,0,0,0,0,0,
0,0,0,0,0,0,0,0,0,0,0,0,0,0,0,0,0,0,0,0,0,0,0,0,0,0,0,0,0,0,0,0,0,0,0,0,0,0,0,0,
0,0,0,0,0,0,0,0,0,0,0,0,0,0,0,0,0,0,0,0,0,0,0,0,0,0,0,0,0,0,0,0,0,0,0,0,0,0,0,0,
0,0,0,0,0,0,0,0,0,0,0,0,0,0,0,0,0,0,0,0,0,0,0,0,0,0,0,0,0,0,0,0,0,0,0,0,0,0,0,0,
0,0,0,0,0,0,0,0,0,0,0,0,0,0,0,0,0,0,0,0,0,0,0,0,0,0,0,0,0,0,0,0,0,0,0,0,0,0,0,0,
0,0,0,0,0,0,0,0,0,0,0,0,0,0,0,0,0,0,0,0,0,0,0,0,0,0,0,0,0,0,0,0,0,0,0,0,0,0,0,0,
0,0,0,0,0,0,0,0,0,0,0,0,0,0,0,0,0,0,0,0,0,0,0,0,0,0,0,0,0,0,0,0,0,0,0,0,0,0,0,0,
0,0,0,0,0,0,0,0,0,0,0,0,0,0,0,0,0,0,0,0,0,0,0,0,0,0,0,0,0,0,0,0,0,0,0,0,0,0,0,0,
0,0,0,0,0,0,0,0,0,0,0,0,0,0,0,0,0,0,0,0,0,0,0,0,0,0,0,0,0,0,0,0,0,0,0,0,0,0,0,0,
0,0,0,0,0,0,0,0,0,0,0,0,0,0,0,0,0,0,0,0,0,0,0,0,0,0,0,0,0,0,0,0,0,0,0,0,0,0,0,0,
0,0,0,0,0,0,0,0,0,0,0,0,0,0,0,0,0,0,0,0,0,0,0,0,0,0,0,0,0,0,0,0,0,0,0,0,0,0,0,0,
0,0,0,0,0,0,0,0,0,0,0,0,0,0,0,0,0,0,0,0,0,0,0,0,0,0,0,0,0,0,0,0,0,0,0,0,0,0,0,0,
0,0,0,0,0,0,0,0,0,0,0,0,0,0,0,0,0,0,0,0,0,0,0,0,0,0,0,0,0,0,0,0,0,0,0,0,0,0,0,0,
0,0,0,0,0,0,0,0,0,0,0,0,0,0,0,0,0,0,0,0,0,0,0,0,0,0,0,0,0,0,0,0,0,0,0,0,0,0,0,0,
0,0,0,0,0,0,0,0,0,0,0,0,0,0,0,0,0,0,0,0,0,0,0,0,0,0,0,0,0,0,0,0,0,0,0,0,0,0,0,0,
0,0,0,0,0,0,0,0,0,0,0,0,0,0,0,0,0,0,0,0,0,0,0,0,0,0,0,0,0,0,0,0,0,0,0,0,0,0,0,0,
0,0,0,0,0,0,0,0,0,0,0,0,0,0,0,0,0,0,0,0,0,0,0,0,0,0,0,0,0,0,0,0,0,0,0,0,0,0,0,0,
0,0,0,0,0,0,0,0,0,0,0,0,0,0,0,0,0,0,0,0,0,0,0,0,0,0,0,0,0,0,0,0,0,0,0,0,0,0,0,0,
0,0,0,0,0,0,0,0,0,0,0,0,0,0,0,0,0,0,0,0,0,0,0,0,0,0,0,0,0,0,0,0,0,0,0,0,0,0,0,0,
0,0,0,0,0,0,0,0,0,0,0,0,0,0,0,0,0,0,0,0,0,0,0,0,0,0,0,0,0,0,0,0,0,0,0,0,0,0,0,0,
0,0,0,0,0,0,0,0,0,0,0,0,0,0,0,0,0,0,0,0,0,0,0,0,0,0,0,0,0,0,0,0,0,0,0,0,0,0,0,0,
0,0,0,0,0,0,0,0,0,0,0,0,0,0,0,0,0,0,0,0,0,0,0,0,0,0,0,0,0,0,0,0,0,0,0,0,0,0,0,0,
0,0,0,0,0,0,0,0,0,0,0,0,0,0,0,0,0,0,0,0,0,0,0,0,0,0,0,0,0,0,0,0,0,0,0,0,0,0,0,0,
0,0,0,0,0,0,0,0,0,0,0,0,0,0,0,0,0,0,0,0,0,0,0,0,0,0,0,0,0,0,0,0,0,0,0,0,0,0,0,0,
0,0,0,0,0,0,0,0,0,0,0,0,0,0,0,0,0,0,0,0,0,0,0,0,0,0,0,0,0,0,0,0,0,0,0,0,0,0,0,0,
0,0,0,0,0,0,0,0,0,0,0,0,0,0,0,0,0,0,0,0,0,0,0,0,0,0,0,0,0,0,0,0,0,0,0,0,0,0,0,0,
0,0,0,0,0,0,0,0,0,0,0,0,0,0,0,0,0,0,0,0,0,0,0,0,0,0,0,0,0,0,0,0,0,0,0,0,0,0,0,0,
0,0,0,0,0,0,0,0,0,0,0,0,0,0,0,0,0,0,0,0,0,0,0,0,0,0,0,0,0,0,0,0,0,0,0,0,0,0,0,0,
0,0,0,0,0,0,0,0,0,0,0,0,0,0,0,0,0,0,0,0,0,0,0,0,0,0,0,0,0,0,0,0,0,0,0,0,0,0,0,0
</data>
 </layer>
 <objectgroup id="9" name="Back"/>
 <objectgroup id="10" name="Back2"/>
 <objectgroup id="19" name="Back3"/>
 <objectgroup id="11" name="Buildings"/>
 <objectgroup id="12" name="Buildings2"/>
 <objectgroup id="13" name="Front"/>
 <objectgroup id="20" name="Front2"/>
 <objectgroup id="16" name="Paths"/>
 <objectgroup id="14" name="AlwaysFront"/>
 <objectgroup id="15" name="AlwaysFront2"/>
</map>
